( pcb2gcode 2.5.0 )
( Software-independent Gcode )

G94 ( Millimeters per minute feed rate. )
G21 ( Units == Millimeters. )

G90 ( Absolute coordinates. )
G00 S13000 ( RPM spindle speed. )
G01 F120.00000 ( Feedrate. )


G00 Z15.00000 (Retract to tool change height)
T0
M5      (Spindle stop.)
G04 P1.00000 (Wait for spindle to stop)
(MSG, Change tool bit to mill diameter 0.45360mm)
M6      (Tool change.)
M0      (Temporary machine stop.)
M3 ( Spindle on clockwise. )
G04 P1.00000 (Wait for spindle to get up to speed)
G04 P0 ( dwell for no time -- G64 should not smooth over this point )
G00 Z2.00000 ( retract )

G00 X-2.71912 Y-3.37317 ( rapid move to begin. )
G01 F60.00000
( Mill infeed pass 1/1 )
G01 Z-0.10000
G04 P0 ( dwell for no time -- G64 should not smooth over this point )
G01 F120.00000
G01 X-2.71912 Y-3.37317
G01 X-2.72796 Y-3.35186
G01 X-2.84500 Y-3.16085
G01 X-2.99052 Y-2.99052
G01 X-3.16085 Y-2.84500
G01 X-3.35186 Y-2.72796
G01 X-3.37317 Y-2.71912
G01 X-3.37317 Y-3.13014
G01 X-3.27947 Y-3.19976
G01 X-3.12486 Y-3.37317
G01 X-2.71912 Y-3.37317
G04 P0 ( dwell for no time -- G64 should not smooth over this point )
G00 Z2.00000 ( retract )

G00 X-4.62679 Y-3.13014 ( rapid move to begin. )
G01 F60.00000
( Mill infeed pass 1/1 )
G01 Z-0.10000
G04 P0 ( dwell for no time -- G64 should not smooth over this point )
G01 F120.00000
G01 X-4.62679 Y-3.13014
G01 X-4.62679 Y-2.71915
G01 X-4.64807 Y-2.72796
G01 X-4.83911 Y-2.84503
G01 X-5.00944 Y-2.99052
G01 X-5.15493 Y-3.16085
G01 X-5.27197 Y-3.35186
G01 X-5.28081 Y-3.37317
G01 X-4.87512 Y-3.37317
G01 X-4.72051 Y-3.19976
G01 X-4.62679 Y-3.13014
G04 P0 ( dwell for no time -- G64 should not smooth over this point )
G00 Z2.00000 ( retract )

G00 X-11.45355 Y-2.90817 ( rapid move to begin. )
G01 F60.00000
( Mill infeed pass 1/1 )
G01 Z-0.10000
G04 P0 ( dwell for no time -- G64 should not smooth over this point )
G01 F120.00000
G01 X-11.45355 Y-2.90817
G01 X-11.86856 Y-2.90817
G01 X-11.99291 Y-2.77193
G01 X-12.05316 Y-2.72661
G01 X-12.05316 Y-2.30856
G01 X-11.87033 Y-2.42059
G01 X-11.70597 Y-2.56098
G01 X-11.56561 Y-2.72532
G01 X-11.45355 Y-2.90817
G04 P0 ( dwell for no time -- G64 should not smooth over this point )
G00 Z2.00000 ( retract )

G00 X-13.30678 Y-2.72659 ( rapid move to begin. )
G01 F60.00000
( Mill infeed pass 1/1 )
G01 Z-0.10000
G04 P0 ( dwell for no time -- G64 should not smooth over this point )
G01 F120.00000
G01 X-13.30678 Y-2.72659
G01 X-13.36705 Y-2.77193
G01 X-13.49141 Y-2.90817
G01 X-13.90640 Y-2.90817
G01 X-13.79433 Y-2.72532
G01 X-13.65397 Y-2.56098
G01 X-13.48961 Y-2.42059
G01 X-13.30678 Y-2.30856
G01 X-13.30678 Y-2.72659
G04 P0 ( dwell for no time -- G64 should not smooth over this point )
G00 Z2.00000 ( retract )

G00 X-19.79229 Y-5.04820 ( rapid move to begin. )
G01 F60.00000
( Mill infeed pass 1/1 )
G01 Z-0.10000
G04 P0 ( dwell for no time -- G64 should not smooth over this point )
G01 F120.00000
G01 X-19.79229 Y-5.04820
G01 X-21.09998 Y-5.04820
G01 X-21.14423 Y-5.05254
G01 X-21.20933 Y-5.07606
G01 X-21.95010 Y-5.44817
G01 X-23.11497 Y-5.44817
G01 X-24.31164 Y-5.28645
G01 X-24.40310 Y-5.26826
G01 X-24.59685 Y-5.26826
G01 X-24.76345 Y-5.30240
G01 X-24.80854 Y-5.31706
G01 X-24.96340 Y-5.38737
G01 X-25.12014 Y-5.50123
G01 X-25.24978 Y-5.64523
G01 X-25.33589 Y-5.79186
G01 X-25.35517 Y-5.83519
G01 X-25.40653 Y-5.99730
G01 X-25.42555 Y-6.16628
G01 X-25.42555 Y-6.21370
G01 X-25.41021 Y-6.35922
G01 X-25.40038 Y-6.40560
G01 X-25.34666 Y-6.56694
G01 X-25.26271 Y-6.71485
G01 X-25.23485 Y-6.75320
G01 X-25.12014 Y-6.87873
G01 X-24.96340 Y-6.99262
G01 X-24.80854 Y-7.06293
G01 X-24.76345 Y-7.07758
G01 X-24.59685 Y-7.11172
G01 X-24.40310 Y-7.11172
G01 X-24.21359 Y-7.07144
G01 X-24.17069 Y-7.05368
G01 X-23.09167 Y-6.70179
G01 X-21.95068 Y-6.70179
G01 X-21.18677 Y-7.08452
G01 X-21.14423 Y-7.09742
G01 X-21.09998 Y-7.10179
G01 X-19.49999 Y-7.10179
G01 X-19.45574 Y-7.09742
G01 X-19.41319 Y-7.08452
G01 X-19.37398 Y-7.06356
G01 X-19.33961 Y-7.03537
G01 X-19.31142 Y-7.00100
G01 X-19.29046 Y-6.96178
G01 X-19.27753 Y-6.91924
G01 X-19.27319 Y-6.87499
G01 X-19.27319 Y-5.27500
G01 X-19.27753 Y-5.23075
G01 X-19.29046 Y-5.18820
G01 X-19.31142 Y-5.14899
G01 X-19.33961 Y-5.11462
G01 X-19.37398 Y-5.08640
G01 X-19.41319 Y-5.06545
G01 X-19.45574 Y-5.05254
G01 X-19.49999 Y-5.04820
G01 X-19.79229 Y-5.04820
G01 X-19.89430 Y-5.00261
G01 X-20.04261 Y-4.90375
G01 X-20.21040 Y-4.91602
G01 X-20.38955 Y-4.91653
G01 X-20.49470 Y-4.91033
G01 X-20.72681 Y-4.88274
G01 X-20.83506 Y-4.96918
G01 X-20.96823 Y-5.04820
G04 P0 ( dwell for no time -- G64 should not smooth over this point )
G00 Z2.00000 ( retract )

G00 X-28.28493 Y-5.17680 ( rapid move to begin. )
G01 F60.00000
( Mill infeed pass 1/1 )
G01 Z-0.10000
G04 P0 ( dwell for no time -- G64 should not smooth over this point )
G01 F120.00000
G01 X-28.28493 Y-5.17680
G01 X-28.04998 Y-5.17680
G01 X-28.00574 Y-5.17243
G01 X-27.96319 Y-5.15953
G01 X-27.92397 Y-5.13857
G01 X-27.88961 Y-5.11035
G01 X-27.86141 Y-5.07599
G01 X-27.84046 Y-5.03677
G01 X-27.82755 Y-4.99422
G01 X-27.82319 Y-4.94998
G01 X-27.82319 Y-4.81272
G01 X-27.11386 Y-4.16179
G01 X-21.92454 Y-4.16179
G01 X-20.92917 Y-4.42364
G01 X-20.88599 Y-4.45562
G01 X-20.82754 Y-4.50952
G01 X-20.70176 Y-4.65714
G01 X-20.47395 Y-4.68450
G01 X-20.38060 Y-4.68940
G01 X-20.21934 Y-4.68940
G01 X-20.07608 Y-4.67926
G01 X-19.94131 Y-4.49448
G01 X-20.00562 Y-4.51767
G01 X-20.19267 Y-4.55615
G01 X-20.40733 Y-4.55615
G01 X-20.59435 Y-4.51767
G01 X-20.66209 Y-4.49296
G01 X-20.92917 Y-4.42364
G01 X-20.66209 Y-4.49296
G01 X-20.59435 Y-4.51767
G01 X-20.43077 Y-4.55244
G01 X-20.38360 Y-4.55739
G01 X-20.21637 Y-4.55739
G01 X-20.16920 Y-4.55244
G01 X-19.98269 Y-4.51152
G01 X-19.80773 Y-4.43499
G01 X-19.76669 Y-4.41129
G01 X-19.61291 Y-4.29806
G01 X-19.48424 Y-4.15696
G01 X-19.45635 Y-4.11861
G01 X-19.36196 Y-3.95262
G01 X-19.30176 Y-3.77139
G01 X-19.29191 Y-3.72501
G01 X-19.27319 Y-3.53499
G01 X-19.29562 Y-3.32151
G01 X-19.36196 Y-3.11734
G01 X-19.45635 Y-2.95135
G01 X-19.48424 Y-2.91300
G01 X-19.61291 Y-2.77193
G01 X-19.78660 Y-2.64574
G01 X-19.96051 Y-2.56695
G01 X-20.00562 Y-2.55229
G01 X-20.16920 Y-2.51752
G01 X-20.21637 Y-2.51257
G01 X-20.40733 Y-2.51381
G01 X-20.59435 Y-2.55229
G01 X-20.66226 Y-2.57711
G01 X-21.92360 Y-2.90817
G01 X-28.33500 Y-2.90817
G01 X-28.43525 Y-2.91696
G01 X-28.47886 Y-2.92562
G01 X-28.57485 Y-2.95590
G01 X-28.65788 Y-2.99903
G01 X-29.03449 Y-3.02318
G01 X-29.74998 Y-3.02318
G01 X-29.79423 Y-3.02755
G01 X-29.83677 Y-3.04046
G01 X-29.87599 Y-3.06141
G01 X-29.91035 Y-3.08961
G01 X-29.93857 Y-3.12397
G01 X-29.95953 Y-3.16319
G01 X-29.97243 Y-3.20568
G01 X-29.97678 Y-3.24998
G01 X-29.97678 Y-4.94998
G01 X-29.97243 Y-4.99422
G01 X-29.95953 Y-5.03677
G01 X-29.93857 Y-5.07599
G01 X-29.91035 Y-5.11035
G01 X-29.87599 Y-5.13857
G01 X-29.83677 Y-5.15953
G01 X-29.79423 Y-5.17243
G01 X-29.74998 Y-5.17680
G01 X-28.28493 Y-5.17680
G01 X-28.41876 Y-5.24553
G01 X-28.48480 Y-5.29018
G01 X-28.71643 Y-5.26349
G01 X-28.81114 Y-5.25892
G01 X-28.98884 Y-5.25856
G01 X-29.08943 Y-5.26420
G01 X-29.31599 Y-5.29026
G01 X-29.44282 Y-5.20852
G01 X-29.50469 Y-5.17680
G01 X-29.64782 Y-5.32399
G01 X-29.60621 Y-5.37957
G01 X-29.56049 Y-5.40243
G01 X-29.40271 Y-5.50415
G01 X-29.38452 Y-5.51368
G01 X-29.34452 Y-5.52219
G01 X-29.06867 Y-5.49003
G01 X-28.98585 Y-5.48569
G01 X-28.81412 Y-5.48569
G01 X-28.73129 Y-5.49003
G01 X-28.45250 Y-5.52252
G01 X-28.41018 Y-5.51249
G01 X-28.30845 Y-5.44380
G01 X-28.19936 Y-5.38775
G01 X-28.23243 Y-5.47111
G01 X-28.24358 Y-5.51274
G01 X-28.24665 Y-5.55574
G01 X-28.24152 Y-5.59854
G01 X-28.21757 Y-5.69785
G01 X-28.20413 Y-5.72727
G01 X-28.16553 Y-5.78272
G01 X-28.03627 Y-5.91525
G01 X-27.92354 Y-6.07624
G01 X-27.88300 Y-6.16316
G01 X-27.93728 Y-6.16316
G01 X-28.02885 Y-6.00705
G01 X-28.16268 Y-5.85655
G01 X-28.19791 Y-5.82483
G01 X-28.36159 Y-5.70746
G01 X-28.56723 Y-5.61589
G01 X-28.76398 Y-5.57281
G01 X-28.81114 Y-5.56783
G01 X-29.01254 Y-5.56908
G01 X-29.20980 Y-5.60974
G01 X-29.25491 Y-5.62440
G01 X-29.43840 Y-5.70746
G01 X-29.60205 Y-5.82483
G01 X-29.63730 Y-5.85655
G01 X-29.77114 Y-6.00705
G01 X-29.86270 Y-6.16316
G01 X-29.91696 Y-6.16316
G01 X-29.87639 Y-6.07621
G01 X-29.76367 Y-5.91523
G01 X-29.65567 Y-5.80720
G01 X-29.61696 Y-5.75551
G01 X-29.56651 Y-5.65457
G01 X-29.55737 Y-5.61246
G01 X-29.55633 Y-5.56936
G01 X-29.56844 Y-5.45714
G01 X-29.58351 Y-5.41675
G01 X-29.64782 Y-5.32399
G01 X-29.66900 Y-5.29953
G01 X-29.72072 Y-5.26082
G01 X-29.78112 Y-5.23047
G01 X-29.88249 Y-5.19267
G01 X-29.94551 Y-5.14551
G01 X-29.99268 Y-5.08249
G01 X-30.02161 Y-5.00492
G01 X-30.02366 Y-3.21419
G01 X-30.02161 Y-3.19504
G01 X-29.99268 Y-3.11744
G01 X-29.94551 Y-3.05448
G01 X-29.88249 Y-3.00728
G01 X-29.80492 Y-2.97835
G01 X-29.09306 Y-2.97630
G01 X-28.73558 Y-2.95178
G01 X-28.66057 Y-2.93728
G01 X-28.53149 Y-2.88717
G01 X-28.40131 Y-2.86128
G01 X-27.29959 Y-2.86128
G01 X-27.22616 Y-2.85755
G01 X-27.13939 Y-2.86128
G01 X-22.00018 Y-2.86128
G01 X-21.91080 Y-2.84968
G01 X-20.48751 Y-2.47358
G01 X-20.29998 Y-2.45717
G01 X-20.11281 Y-2.47355
G01 X-19.93133 Y-2.52217
G01 X-19.76107 Y-2.60157
G01 X-19.60717 Y-2.70934
G01 X-19.47433 Y-2.84218
G01 X-19.36659 Y-2.99608
G01 X-19.28716 Y-3.16634
G01 X-19.23857 Y-3.34782
G01 X-19.22219 Y-3.53497
G01 X-19.23857 Y-3.72212
G01 X-19.28716 Y-3.90360
G01 X-19.36659 Y-4.07388
G01 X-19.47433 Y-4.22778
G01 X-19.60715 Y-4.36060
G01 X-19.64063 Y-4.38686
G01 X-19.70623 Y-4.46527
G01 X-19.72983 Y-4.50134
G01 X-19.74616 Y-4.54124
G01 X-19.75955 Y-4.63085
G01 X-19.85462 Y-4.75884
G01 X-19.78162 Y-4.80487
G01 X-19.70916 Y-4.83700
G01 X-19.75437 Y-4.73850
G01 X-19.76219 Y-4.69610
G01 X-19.75955 Y-4.63085
G01 X-19.76219 Y-4.69610
G01 X-19.75437 Y-4.73850
G01 X-19.70916 Y-4.83700
G01 X-19.68411 Y-4.87746
G01 X-19.65460 Y-4.90891
G01 X-19.61967 Y-4.93420
G01 X-19.55945 Y-4.96961
G01 X-19.50359 Y-4.99306
G01 X-19.44748 Y-5.00243
G01 X-19.36745 Y-5.03227
G01 X-19.30446 Y-5.07944
G01 X-19.25729 Y-5.14243
G01 X-19.22833 Y-5.22008
G01 X-19.22833 Y-6.92986
G01 X-19.25729 Y-7.00750
G01 X-19.30446 Y-7.07050
G01 X-19.36745 Y-7.11766
G01 X-19.44507 Y-7.14662
G01 X-21.12361 Y-7.14926
G01 X-21.15718 Y-7.14604
G01 X-21.24390 Y-7.11459
G01 X-21.90168 Y-6.78571
G01 X-21.95096 Y-6.76786
G01 X-22.00641 Y-6.75475
G01 X-22.05858 Y-6.74865
G01 X-23.00750 Y-6.74865
G01 X-23.04316 Y-6.75150
G01 X-23.11590 Y-6.76585
G01 X-24.23239 Y-7.13054
G01 X-24.40976 Y-7.16366
G01 X-24.59020 Y-7.16366
G01 X-24.76757 Y-7.13052
G01 X-24.93584 Y-7.06531
G01 X-25.08926 Y-6.97032
G01 X-25.22263 Y-6.84875
G01 X-25.33137 Y-6.70476
G01 X-25.41179 Y-6.54319
G01 X-25.46121 Y-6.36963
G01 X-25.47785 Y-6.18998
G01 X-25.46121 Y-6.01030
G01 X-25.41179 Y-5.83674
G01 X-25.33137 Y-5.67517
G01 X-25.22263 Y-5.53118
G01 X-25.08926 Y-5.40962
G01 X-24.93587 Y-5.31462
G01 X-24.76759 Y-5.24944
G01 X-24.59020 Y-5.21630
G01 X-24.40955 Y-5.21630
G01 X-24.31288 Y-5.23390
G01 X-23.07412 Y-5.39928
G01 X-22.03239 Y-5.39976
G01 X-21.95106 Y-5.38213
G01 X-21.90168 Y-5.36425
G01 X-21.23732 Y-5.03204
G01 X-21.18431 Y-4.99527
G01 X-21.13316 Y-4.94769
G01 X-21.10450 Y-4.91546
G01 X-21.08248 Y-4.87840
G01 X-21.07060 Y-4.84535
G01 X-20.96823 Y-4.78551
G01 X-20.92132 Y-4.74909
G01 X-20.98779 Y-4.67103
G01 X-21.03554 Y-4.62625
G01 X-21.06811 Y-4.60309
G01 X-21.04540 Y-4.68442
G01 X-21.04387 Y-4.72752
G01 X-21.05055 Y-4.77015
G01 X-21.07060 Y-4.84535
G01 X-21.05055 Y-4.77015
G01 X-21.04387 Y-4.72752
G01 X-21.04540 Y-4.68442
G01 X-21.07710 Y-4.57606
G01 X-21.09452 Y-4.53662
G01 X-21.11911 Y-4.50121
G01 X-21.14992 Y-4.47109
G01 X-21.23039 Y-4.40903
G01 X-21.28881 Y-4.38445
G01 X-21.93966 Y-4.21460
G01 X-22.00018 Y-4.20865
G01 X-26.98219 Y-4.21096
G01 X-27.08085 Y-4.23753
G01 X-27.11986 Y-4.25303
G01 X-27.17203 Y-4.28831
G01 X-27.68460 Y-4.75950
G01 X-27.75428 Y-4.87484
G01 X-27.77073 Y-4.93789
G01 X-27.77818 Y-5.00446
G01 X-27.80729 Y-5.08249
G01 X-27.85448 Y-5.14551
G01 X-27.91744 Y-5.19267
G01 X-28.01882 Y-5.23047
G01 X-28.07548 Y-5.26141
G01 X-28.16334 Y-5.33227
G01 X-28.18917 Y-5.36682
G01 X-28.19936 Y-5.38775
G01 X-28.30845 Y-5.44380
G01 X-28.41018 Y-5.51249
G01 X-28.40921 Y-5.51492
G01 X-28.41018 Y-5.51249
G01 X-28.45250 Y-5.52252
G01 X-28.45229 Y-5.52569
G01 X-28.45250 Y-5.52252
G01 X-28.55930 Y-5.50809
G01 X-28.73129 Y-5.49003
G01 X-28.81412 Y-5.48569
G01 X-28.98585 Y-5.48569
G01 X-29.06867 Y-5.49003
G01 X-29.24071 Y-5.50812
G01 X-29.32402 Y-5.52092
G01 X-29.36491 Y-5.51975
G01 X-29.36735 Y-5.53108
G04 P0 ( dwell for no time -- G64 should not smooth over this point )
G00 Z2.00000 ( retract )

G00 X-27.88300 Y-7.11678 ( rapid move to begin. )
G01 F60.00000
( Mill infeed pass 1/1 )
G01 Z-0.10000
G04 P0 ( dwell for no time -- G64 should not smooth over this point )
G01 F120.00000
G01 X-27.88300 Y-7.11678
G01 X-27.93726 Y-7.11678
G01 X-28.02885 Y-7.27291
G01 X-28.17947 Y-7.44019
G01 X-28.34168 Y-7.55960
G01 X-28.36299 Y-7.57331
G01 X-28.42316 Y-7.60065
G01 X-28.42316 Y-7.65696
G01 X-28.33621 Y-7.61642
G01 X-28.17523 Y-7.50367
G01 X-28.03627 Y-7.36470
G01 X-27.92354 Y-7.20372
G01 X-27.88300 Y-7.11678
G04 P0 ( dwell for no time -- G64 should not smooth over this point )
G00 Z2.00000 ( retract )

G00 X-29.37678 Y-7.65696 ( rapid move to begin. )
G01 F60.00000
( Mill infeed pass 1/1 )
G01 Z-0.10000
G04 P0 ( dwell for no time -- G64 should not smooth over this point )
G01 F120.00000
G01 X-29.37678 Y-7.65696
G01 X-29.46372 Y-7.61642
G01 X-29.62471 Y-7.50367
G01 X-29.76367 Y-7.36470
G01 X-29.87642 Y-7.20372
G01 X-29.91696 Y-7.11678
G01 X-29.86273 Y-7.11678
G01 X-29.77114 Y-7.27291
G01 X-29.62051 Y-7.44019
G01 X-29.45829 Y-7.55960
G01 X-29.43700 Y-7.57331
G01 X-29.37678 Y-7.60067
G01 X-29.37678 Y-7.65696
G04 P0 ( dwell for no time -- G64 should not smooth over this point )
G00 Z2.00000 ( retract )

G00 X-28.46418 Y-17.49290 ( rapid move to begin. )
G01 F60.00000
( Mill infeed pass 1/1 )
G01 Z-0.10000
G04 P0 ( dwell for no time -- G64 should not smooth over this point )
G01 F120.00000
G01 X-28.46418 Y-17.49290
G01 X-28.46418 Y-17.50705
G01 X-28.46964 Y-17.52021
G01 X-28.45415 Y-17.53055
G01 X-28.46964 Y-17.52021
G01 X-28.47967 Y-17.53029
G01 X-28.49281 Y-17.53575
G01 X-28.48915 Y-17.55409
G01 X-28.49281 Y-17.53575
G01 X-28.50711 Y-17.53575
G01 X-28.52021 Y-17.53032
G01 X-28.53058 Y-17.54584
G01 X-28.52021 Y-17.53032
G01 X-28.53032 Y-17.52021
G01 X-28.53576 Y-17.50713
G01 X-28.55415 Y-17.51079
G01 X-28.53576 Y-17.50713
G01 X-28.53576 Y-17.49280
G01 X-28.53030 Y-17.47967
G01 X-28.54584 Y-17.46928
G01 X-28.53030 Y-17.47967
G01 X-28.52031 Y-17.46971
G01 X-28.50711 Y-17.46420
G01 X-28.51074 Y-17.44589
G01 X-28.50711 Y-17.46420
G01 X-28.49281 Y-17.46420
G01 X-28.47967 Y-17.46966
G01 X-28.46929 Y-17.45412
G01 X-28.47967 Y-17.46966
G01 X-28.46964 Y-17.47972
G01 X-28.46418 Y-17.49290
G01 X-28.44589 Y-17.48927
G01 X-28.23680 Y-17.51719
G01 X-28.25026 Y-17.58480
G01 X-28.24607 Y-17.58625
G01 X-28.25026 Y-17.58480
G01 X-28.28069 Y-17.64647
G01 X-28.30175 Y-17.67390
G01 X-28.29839 Y-17.67683
G01 X-28.30175 Y-17.67390
G01 X-28.35344 Y-17.71924
G01 X-28.38333 Y-17.73652
G01 X-28.38138 Y-17.74048
G01 X-28.38333 Y-17.73652
G01 X-28.41523 Y-17.74972
G01 X-28.48270 Y-17.76313
G01 X-28.48239 Y-17.76755
G01 X-28.48270 Y-17.76313
G01 X-28.55143 Y-17.75864
G01 X-28.58473 Y-17.74970
G01 X-28.58615 Y-17.75391
G01 X-28.58473 Y-17.74970
G01 X-28.61661 Y-17.73652
G01 X-28.67386 Y-17.69824
G01 X-28.67678 Y-17.70159
G01 X-28.67386 Y-17.69824
G01 X-28.71927 Y-17.64647
G01 X-28.73652 Y-17.61660
G01 X-28.74048 Y-17.61856
G01 X-28.73652 Y-17.61660
G01 X-28.75864 Y-17.55145
G01 X-28.76314 Y-17.51726
G01 X-28.76756 Y-17.51757
G01 X-28.76314 Y-17.51726
G01 X-28.76314 Y-17.48269
G01 X-28.74973 Y-17.41523
G01 X-28.75394 Y-17.41381
G01 X-28.74973 Y-17.41523
G01 X-28.73652 Y-17.38333
G01 X-28.69824 Y-17.32608
G01 X-28.70159 Y-17.32313
G01 X-28.69824 Y-17.32608
G01 X-28.67391 Y-17.30174
G01 X-28.61661 Y-17.26344
G01 X-28.61856 Y-17.25948
G01 X-28.61661 Y-17.26344
G01 X-28.58470 Y-17.25023
G01 X-28.51727 Y-17.23682
G01 X-28.51755 Y-17.23240
G01 X-28.51727 Y-17.23682
G01 X-28.48270 Y-17.23682
G01 X-28.41523 Y-17.25023
G01 X-28.41381 Y-17.24604
G01 X-28.41523 Y-17.25023
G01 X-28.38333 Y-17.26344
G01 X-28.32608 Y-17.30172
G01 X-28.32316 Y-17.29837
G01 X-28.32608 Y-17.30172
G01 X-28.30170 Y-17.32608
G01 X-28.26344 Y-17.38333
G01 X-28.25946 Y-17.38137
G01 X-28.26344 Y-17.38333
G01 X-28.25026 Y-17.41515
G01 X-28.23680 Y-17.48277
G01 X-28.23238 Y-17.48246
G01 X-28.23680 Y-17.48277
G01 X-28.23680 Y-17.51719
G01 X-28.01005 Y-17.53205
G01 X-28.01844 Y-17.59572
G01 X-28.01409 Y-17.59659
G01 X-28.01844 Y-17.59572
G01 X-28.03507 Y-17.65785
G01 X-28.05961 Y-17.71708
G01 X-28.09174 Y-17.77271
G01 X-28.08806 Y-17.77517
G01 X-28.09174 Y-17.77271
G01 X-28.13088 Y-17.82374
G01 X-28.17625 Y-17.86910
G01 X-28.22720 Y-17.90819
G01 X-28.22471 Y-17.91188
G01 X-28.22720 Y-17.90819
G01 X-28.28282 Y-17.94030
G01 X-28.34218 Y-17.96489
G01 X-28.40416 Y-17.98150
G01 X-28.40330 Y-17.98587
G01 X-28.40416 Y-17.98150
G01 X-28.46784 Y-17.98988
G01 X-28.53212 Y-17.98988
G01 X-28.59578 Y-17.98150
G01 X-28.59664 Y-17.98587
G01 X-28.59578 Y-17.98150
G01 X-28.65778 Y-17.96489
G01 X-28.71711 Y-17.94030
G01 X-28.77271 Y-17.90822
G01 X-28.77518 Y-17.91190
G01 X-28.77271 Y-17.90822
G01 X-28.82369 Y-17.86910
G01 X-28.86911 Y-17.82369
G01 X-28.90822 Y-17.77271
G01 X-28.91191 Y-17.77517
G01 X-28.90822 Y-17.77271
G01 X-28.94030 Y-17.71711
G01 X-28.96489 Y-17.65775
G01 X-28.98150 Y-17.59577
G01 X-28.98587 Y-17.59664
G01 X-28.98150 Y-17.59577
G01 X-28.98988 Y-17.53212
G01 X-28.98988 Y-17.46783
G01 X-28.98150 Y-17.40416
G01 X-28.98587 Y-17.40329
G01 X-28.98150 Y-17.40416
G01 X-28.96489 Y-17.34218
G01 X-28.94030 Y-17.28282
G01 X-28.90820 Y-17.22719
G01 X-28.91188 Y-17.22473
G01 X-28.90820 Y-17.22719
G01 X-28.86911 Y-17.17624
G01 X-28.82374 Y-17.13088
G01 X-28.77279 Y-17.09179
G01 X-28.77525 Y-17.08810
G01 X-28.77279 Y-17.09179
G01 X-28.71711 Y-17.05966
G01 X-28.65775 Y-17.03507
G01 X-28.59578 Y-17.01846
G01 X-28.59664 Y-17.01409
G01 X-28.59578 Y-17.01846
G01 X-28.53212 Y-17.01008
G01 X-28.46784 Y-17.01008
G01 X-28.40416 Y-17.01846
G01 X-28.40330 Y-17.01409
G01 X-28.40416 Y-17.01846
G01 X-28.34218 Y-17.03507
G01 X-28.28282 Y-17.05966
G01 X-28.22720 Y-17.09176
G01 X-28.22473 Y-17.08808
G01 X-28.22720 Y-17.09176
G01 X-28.17625 Y-17.13085
G01 X-28.13086 Y-17.17627
G01 X-28.09174 Y-17.22722
G01 X-28.08806 Y-17.22476
G01 X-28.09174 Y-17.22722
G01 X-28.05963 Y-17.28282
G01 X-28.03507 Y-17.34213
G01 X-28.01844 Y-17.40423
G01 X-28.01409 Y-17.40337
G01 X-28.01844 Y-17.40423
G01 X-28.01005 Y-17.46788
G01 X-28.01005 Y-17.53205
G01 X-27.78328 Y-17.54693
G01 X-27.79448 Y-17.64030
G01 X-27.81991 Y-17.73088
G01 X-27.85405 Y-17.81848
G01 X-27.90279 Y-17.89897
G01 X-27.95918 Y-17.97426
G01 X-28.02608 Y-18.04032
G01 X-28.10035 Y-18.09806
G01 X-28.18232 Y-18.14411
G01 X-28.26850 Y-18.18193
G01 X-28.35984 Y-18.20438
G01 X-28.45288 Y-18.21774
G01 X-28.54701 Y-18.21713
G01 X-28.64035 Y-18.20545
G01 X-28.73083 Y-18.18008
G01 X-28.81848 Y-18.14586
G01 X-28.89898 Y-18.09714
G01 X-28.97421 Y-18.04078
G01 X-29.04079 Y-17.97421
G01 X-29.09715 Y-17.89897
G01 X-29.14508 Y-17.81815
G01 X-29.18054 Y-17.73095
G01 X-29.20548 Y-17.64030
G01 X-29.21665 Y-17.54698
G01 X-29.21775 Y-17.45292
G01 X-29.20545 Y-17.35958
G01 X-29.18008 Y-17.26913
G01 X-29.14513 Y-17.18188
G01 X-29.09804 Y-17.10030
G01 X-29.03995 Y-17.02641
G01 X-28.97485 Y-16.95854
G01 X-28.89903 Y-16.90284
G01 X-28.81813 Y-16.85488
G01 X-28.73111 Y-16.81881
G01 X-28.64010 Y-16.79557
G01 X-28.54709 Y-16.78221
G01 X-28.45295 Y-16.78282
G01 X-28.35958 Y-16.79451
G01 X-28.26913 Y-16.81988
G01 X-28.18188 Y-16.85483
G01 X-28.10030 Y-16.90192
G01 X-28.02641 Y-16.96001
G01 X-27.95852 Y-17.02514
G01 X-27.90279 Y-17.10098
G01 X-27.85486 Y-17.18180
G01 X-27.81943 Y-17.26893
G01 X-27.79448 Y-17.35971
G01 X-27.78328 Y-17.45303
G01 X-27.78328 Y-17.54693
G01 X-27.55654 Y-17.56179
G01 X-27.57076 Y-17.68478
G01 X-27.60472 Y-17.80393
G01 X-27.65100 Y-17.91858
G01 X-27.71346 Y-18.02549
G01 X-27.78836 Y-18.12412
G01 X-27.87658 Y-18.21081
G01 X-27.97360 Y-18.28772
G01 X-28.08181 Y-18.34792
G01 X-28.19570 Y-18.39628
G01 X-28.31541 Y-18.42775
G01 X-28.43809 Y-18.44449
G01 X-28.56184 Y-18.44340
G01 X-28.68480 Y-18.42917
G01 X-28.80388 Y-18.39526
G01 X-28.91859 Y-18.34893
G01 X-29.02549 Y-18.28650
G01 X-29.12410 Y-18.21160
G01 X-29.21081 Y-18.12336
G01 X-29.28699 Y-18.02585
G01 X-29.34894 Y-17.91858
G01 X-29.39527 Y-17.80385
G01 X-29.42918 Y-17.68483
G01 X-29.44340 Y-17.56184
G01 X-29.44449 Y-17.43809
G01 X-29.42775 Y-17.31541
G01 X-29.39628 Y-17.19570
G01 X-29.34792 Y-17.08180
G01 X-29.28772 Y-16.97360
G01 X-29.21081 Y-16.87657
G01 X-29.12412 Y-16.78836
G01 X-29.02555 Y-16.71348
G01 X-28.91856 Y-16.65102
G01 X-28.80385 Y-16.60469
G01 X-28.68480 Y-16.57078
G01 X-28.56184 Y-16.55656
G01 X-28.43809 Y-16.55547
G01 X-28.31541 Y-16.57220
G01 X-28.19570 Y-16.60368
G01 X-28.08181 Y-16.65204
G01 X-27.97360 Y-16.71223
G01 X-27.87658 Y-16.78915
G01 X-27.78834 Y-16.87584
G01 X-27.71346 Y-16.97444
G01 X-27.65102 Y-17.08137
G01 X-27.60472 Y-17.19603
G01 X-27.57162 Y-17.31531
G01 X-27.55544 Y-17.43812
G01 X-27.55654 Y-17.56179
G01 X-27.32979 Y-17.57670
G01 X-27.34981 Y-17.72872
G01 X-27.38846 Y-17.87728
G01 X-27.44724 Y-18.01914
G01 X-27.52491 Y-18.15147
G01 X-27.61684 Y-18.27449
G01 X-27.72674 Y-18.38165
G01 X-27.84780 Y-18.47593
G01 X-27.98087 Y-18.55274
G01 X-28.12303 Y-18.61045
G01 X-28.27094 Y-18.65122
G01 X-28.42323 Y-18.67126
G01 X-28.57670 Y-18.67014
G01 X-28.72892 Y-18.65122
G01 X-28.87708 Y-18.61091
G01 X-29.01917 Y-18.55269
G01 X-29.15148 Y-18.47505
G01 X-29.27388 Y-18.38249
G01 X-29.38249 Y-18.27388
G01 X-29.47505 Y-18.15147
G01 X-29.55348 Y-18.01952
G01 X-29.61046 Y-17.87690
G01 X-29.65122 Y-17.72902
G01 X-29.67126 Y-17.57672
G01 X-29.67015 Y-17.42326
G01 X-29.65122 Y-17.27098
G01 X-29.61147 Y-17.12265
G01 X-29.55173 Y-16.98130
G01 X-29.47596 Y-16.84787
G01 X-29.38201 Y-16.72643
G01 X-29.27391 Y-16.61744
G01 X-29.15150 Y-16.52494
G01 X-29.01950 Y-16.44647
G01 X-28.87690 Y-16.38950
G01 X-28.72900 Y-16.34874
G01 X-28.57673 Y-16.32869
G01 X-28.42326 Y-16.32981
G01 X-28.27099 Y-16.34874
G01 X-28.12265 Y-16.38849
G01 X-27.98130 Y-16.44823
G01 X-27.84787 Y-16.52400
G01 X-27.72644 Y-16.61795
G01 X-27.61745 Y-16.72608
G01 X-27.52491 Y-16.84846
G01 X-27.44645 Y-16.98043
G01 X-27.38953 Y-17.12300
G01 X-27.34874 Y-17.27096
G01 X-27.32928 Y-17.42326
G01 X-27.32979 Y-17.57670
G01 X-27.10302 Y-17.59153
G01 X-27.12646 Y-17.77317
G01 X-27.17389 Y-17.95015
G01 X-27.24396 Y-18.11937
G01 X-27.33556 Y-18.27799
G01 X-27.44709 Y-18.42336
G01 X-27.57660 Y-18.55287
G01 X-27.72194 Y-18.66438
G01 X-27.88059 Y-18.75597
G01 X-28.04983 Y-18.82610
G01 X-28.22674 Y-18.87350
G01 X-28.40838 Y-18.89740
G01 X-28.59159 Y-18.89740
G01 X-28.77317 Y-18.87350
G01 X-28.95011 Y-18.82607
G01 X-29.11937 Y-18.75597
G01 X-29.27800 Y-18.66438
G01 X-29.42333 Y-18.55287
G01 X-29.55287 Y-18.42333
G01 X-29.66438 Y-18.27799
G01 X-29.75597 Y-18.11937
G01 X-29.82610 Y-17.95010
G01 X-29.87350 Y-17.77319
G01 X-29.89740 Y-17.59158
G01 X-29.89740 Y-17.40837
G01 X-29.87350 Y-17.22674
G01 X-29.82610 Y-17.04983
G01 X-29.75597 Y-16.88059
G01 X-29.66438 Y-16.72194
G01 X-29.55287 Y-16.57660
G01 X-29.42336 Y-16.44708
G01 X-29.27802 Y-16.33558
G01 X-29.11935 Y-16.24399
G01 X-28.95011 Y-16.17386
G01 X-28.77317 Y-16.12646
G01 X-28.59159 Y-16.10256
G01 X-28.40838 Y-16.10256
G01 X-28.22674 Y-16.12646
G01 X-28.04983 Y-16.17386
G01 X-27.88059 Y-16.24399
G01 X-27.72194 Y-16.33558
G01 X-27.57660 Y-16.44708
G01 X-27.44706 Y-16.57662
G01 X-27.33556 Y-16.72194
G01 X-27.24396 Y-16.88059
G01 X-27.17389 Y-17.04980
G01 X-27.12646 Y-17.22676
G01 X-27.10254 Y-17.40840
G01 X-27.10302 Y-17.59153
G01 X-26.87627 Y-17.60639
G01 X-26.90406 Y-17.81741
G01 X-26.95915 Y-18.02303
G01 X-27.04059 Y-18.21967
G01 X-27.14704 Y-18.40398
G01 X-27.27658 Y-18.57286
G01 X-27.42710 Y-18.72336
G01 X-27.59596 Y-18.85292
G01 X-27.78028 Y-18.95935
G01 X-27.97693 Y-19.04081
G01 X-28.18252 Y-19.09590
G01 X-28.39354 Y-19.12366
G01 X-28.60639 Y-19.12366
G01 X-28.81742 Y-19.09590
G01 X-29.02301 Y-19.04081
G01 X-29.21968 Y-18.95935
G01 X-29.40398 Y-18.85292
G01 X-29.57284 Y-18.72336
G01 X-29.72336 Y-18.57284
G01 X-29.85292 Y-18.40398
G01 X-29.95935 Y-18.21967
G01 X-30.04081 Y-18.02300
G01 X-30.09590 Y-17.81744
G01 X-30.12366 Y-17.60642
G01 X-30.12366 Y-17.39354
G01 X-30.09590 Y-17.18252
G01 X-30.04081 Y-16.97693
G01 X-29.95935 Y-16.78028
G01 X-29.85292 Y-16.59595
G01 X-29.72336 Y-16.42709
G01 X-29.57286 Y-16.27657
G01 X-29.40401 Y-16.14703
G01 X-29.21965 Y-16.04061
G01 X-29.02301 Y-15.95915
G01 X-28.81742 Y-15.90406
G01 X-28.60639 Y-15.87630
G01 X-28.39354 Y-15.87630
G01 X-28.18252 Y-15.90406
G01 X-27.97693 Y-15.95915
G01 X-27.78028 Y-16.04061
G01 X-27.59596 Y-16.14703
G01 X-27.42710 Y-16.27660
G01 X-27.27658 Y-16.42709
G01 X-27.14704 Y-16.59595
G01 X-27.04059 Y-16.78028
G01 X-26.95915 Y-16.97693
G01 X-26.90406 Y-17.18252
G01 X-26.87627 Y-17.39356
G01 X-26.87627 Y-17.60639
G04 P0 ( dwell for no time -- G64 should not smooth over this point )
G00 Z2.00000 ( retract )

G00 X-19.92831 Y-17.53555 ( rapid move to begin. )
G01 F60.00000
( Mill infeed pass 1/1 )
G01 Z-0.10000
G04 P0 ( dwell for no time -- G64 should not smooth over this point )
G01 F120.00000
G01 X-19.92831 Y-17.53555
G01 X-19.85274 Y-17.67972
G01 X-19.80865 Y-17.78615
G01 X-19.81723 Y-17.95282
G01 X-19.81708 Y-18.05305
G01 X-19.80865 Y-18.21378
G01 X-19.85325 Y-18.32143
G01 X-19.92831 Y-18.46339
G01 X-19.92831 Y-17.19999
G01 X-19.93265 Y-17.15574
G01 X-19.94555 Y-17.11320
G01 X-19.96653 Y-17.07398
G01 X-19.99473 Y-17.03962
G01 X-20.02909 Y-17.01142
G01 X-20.06831 Y-16.99044
G01 X-20.11086 Y-16.97754
G01 X-20.15510 Y-16.97319
G01 X-20.32828 Y-16.97319
G01 X-20.32828 Y-15.37137
G01 X-19.55612 Y-14.28720
G01 X-19.47492 Y-14.19703
G01 X-19.44705 Y-14.15867
G01 X-19.33176 Y-13.95646
G01 X-19.25249 Y-13.71255
G01 X-19.22694 Y-13.48120
G01 X-19.22694 Y-13.43378
G01 X-19.25249 Y-13.20241
G01 X-19.29813 Y-13.05789
G01 X-19.29585 Y-13.06495
G01 X-19.29585 Y-13.06165
G01 X-19.33176 Y-12.95850
G01 X-19.45998 Y-12.73640
G01 X-19.63161 Y-12.54580
G01 X-19.83908 Y-12.39505
G01 X-20.05122 Y-12.29924
G01 X-20.09633 Y-12.28458
G01 X-20.30080 Y-12.24112
G01 X-20.34797 Y-12.23617
G01 X-20.58073 Y-12.23742
G01 X-20.80867 Y-12.28458
G01 X-20.91985 Y-12.32525
G01 X-21.06590 Y-12.39505
G01 X-21.12912 Y-12.43945
G01 X-22.43894 Y-13.18316
G01 X-23.08098 Y-13.18316
G01 X-24.17740 Y-12.94331
G01 X-24.23653 Y-12.92240
G01 X-24.40310 Y-12.88826
G01 X-24.59685 Y-12.88826
G01 X-24.76345 Y-12.92240
G01 X-24.80854 Y-12.93706
G01 X-24.94224 Y-12.99657
G01 X-24.98329 Y-13.02029
G01 X-25.12014 Y-13.12123
G01 X-25.24978 Y-13.26520
G01 X-25.33589 Y-13.41186
G01 X-25.35517 Y-13.45519
G01 X-25.40653 Y-13.61730
G01 X-25.42555 Y-13.78628
G01 X-25.42555 Y-13.83370
G01 X-25.40653 Y-14.00269
G01 X-25.35517 Y-14.16479
G01 X-25.33589 Y-14.20810
G01 X-25.26271 Y-14.33485
G01 X-25.23485 Y-14.37320
G01 X-25.12014 Y-14.49873
G01 X-24.96340 Y-14.61262
G01 X-24.78639 Y-14.69144
G01 X-24.62032 Y-14.72799
G01 X-24.57315 Y-14.73297
G01 X-24.42682 Y-14.73297
G01 X-24.37966 Y-14.72799
G01 X-24.23653 Y-14.69758
G01 X-24.17727 Y-14.67660
G01 X-23.08174 Y-14.43678
G01 X-22.38944 Y-14.43678
G01 X-21.62254 Y-14.53589
G01 X-21.58190 Y-15.29740
G01 X-21.58190 Y-16.97319
G01 X-21.75510 Y-16.97319
G01 X-21.79935 Y-16.97754
G01 X-21.84189 Y-16.99044
G01 X-21.88111 Y-17.01142
G01 X-21.91548 Y-17.03962
G01 X-21.94367 Y-17.07398
G01 X-21.96462 Y-17.11320
G01 X-21.97755 Y-17.15574
G01 X-21.98190 Y-17.19999
G01 X-21.98190 Y-18.79999
G01 X-21.97755 Y-18.84423
G01 X-21.96462 Y-18.88678
G01 X-21.94367 Y-18.92600
G01 X-21.91548 Y-18.96036
G01 X-21.88111 Y-18.98856
G01 X-21.84189 Y-19.00951
G01 X-21.79935 Y-19.02244
G01 X-21.75510 Y-19.02678
G01 X-20.15510 Y-19.02678
G01 X-20.11086 Y-19.02244
G01 X-20.06831 Y-19.00951
G01 X-20.02909 Y-18.98856
G01 X-19.99473 Y-18.96036
G01 X-19.96653 Y-18.92600
G01 X-19.94555 Y-18.88678
G01 X-19.93265 Y-18.84423
G01 X-19.92831 Y-18.79999
G01 X-19.92831 Y-17.53555
G01 X-19.72290 Y-17.43946
G01 X-19.64527 Y-17.58704
G01 X-19.58917 Y-17.72349
G01 X-19.58099 Y-17.75676
G01 X-19.57713 Y-17.75607
G01 X-19.58099 Y-17.75676
G01 X-19.59049 Y-17.95579
G01 X-19.59049 Y-18.04416
G01 X-19.58076 Y-18.22597
G01 X-19.58383 Y-18.26011
G01 X-19.57862 Y-18.26128
G01 X-19.58383 Y-18.26011
G01 X-19.65086 Y-18.42386
G01 X-19.72234 Y-18.55859
G01 X-19.79630 Y-18.62620
G01 X-19.82224 Y-18.65617
G01 X-19.84256 Y-18.69018
G01 X-19.87238 Y-18.78272
G01 X-19.88340 Y-18.85480
G01 X-19.91241 Y-18.93247
G01 X-19.95957 Y-18.99552
G01 X-20.02254 Y-19.04266
G01 X-20.10019 Y-19.07162
G01 X-21.80999 Y-19.07162
G01 X-21.88764 Y-19.04266
G01 X-21.95063 Y-18.99552
G01 X-21.99777 Y-18.93252
G01 X-22.02673 Y-18.85488
G01 X-22.02673 Y-17.14508
G01 X-21.99777 Y-17.06743
G01 X-21.95063 Y-17.00444
G01 X-21.88759 Y-16.95727
G01 X-21.82759 Y-16.93243
G01 X-21.80041 Y-16.91495
G01 X-21.71253 Y-16.84409
G01 X-21.68665 Y-16.80954
G01 X-21.66780 Y-16.77073
G01 X-21.63270 Y-16.66634
G01 X-21.62909 Y-16.62610
G01 X-21.62879 Y-15.35366
G01 X-21.66074 Y-14.84216
G01 X-21.69244 Y-14.74503
G01 X-21.71057 Y-14.70589
G01 X-21.73577 Y-14.67089
G01 X-21.76714 Y-14.64130
G01 X-21.84791 Y-14.58112
G01 X-21.90504 Y-14.55776
G01 X-21.96234 Y-14.54480
G01 X-22.44138 Y-14.48504
G01 X-23.00869 Y-14.48366
G01 X-23.08395 Y-14.49172
G01 X-24.15545 Y-14.72522
G01 X-24.22985 Y-14.75003
G01 X-24.40976 Y-14.78366
G01 X-24.59020 Y-14.78366
G01 X-24.76757 Y-14.75052
G01 X-24.93584 Y-14.68531
G01 X-25.08926 Y-14.59032
G01 X-25.22263 Y-14.46875
G01 X-25.33137 Y-14.32476
G01 X-25.41179 Y-14.16322
G01 X-25.46121 Y-13.98963
G01 X-25.47785 Y-13.80998
G01 X-25.46121 Y-13.63030
G01 X-25.41179 Y-13.45674
G01 X-25.33137 Y-13.29517
G01 X-25.22263 Y-13.15118
G01 X-25.08926 Y-13.02962
G01 X-24.93587 Y-12.93462
G01 X-24.76759 Y-12.86944
G01 X-24.59020 Y-12.83630
G01 X-24.40976 Y-12.83630
G01 X-24.22985 Y-12.86988
G01 X-24.15545 Y-12.89469
G01 X-23.05992 Y-13.13210
G01 X-23.00925 Y-13.13630
G01 X-22.55710 Y-13.13630
G01 X-22.49922 Y-13.12878
G01 X-22.43811 Y-13.11265
G01 X-22.38421 Y-13.09070
G01 X-21.19724 Y-12.41839
G01 X-21.15472 Y-12.38926
G01 X-20.96587 Y-12.28707
G01 X-20.76623 Y-12.21852
G01 X-20.55802 Y-12.18380
G01 X-20.34692 Y-12.18380
G01 X-20.13872 Y-12.21852
G01 X-19.93910 Y-12.28707
G01 X-19.75345 Y-12.38750
G01 X-19.58703 Y-12.51707
G01 X-19.42828 Y-12.69007
G01 X-19.35574 Y-12.75304
G01 X-19.32252 Y-12.77595
G01 X-19.28576 Y-12.79266
G01 X-19.24073 Y-12.80351
G01 X-19.10476 Y-12.93950
G01 X-19.07662 Y-12.98903
G01 X-19.07182 Y-12.98748
G01 X-19.04708 Y-12.99715
G01 X-19.07182 Y-12.98748
G01 X-19.07662 Y-12.98903
G01 X-19.07101 Y-13.00899
G01 X-19.06910 Y-13.06485
G01 X-19.10634 Y-13.17948
G01 X-19.04708 Y-12.99715
G01 X-19.10476 Y-12.93950
G01 X-19.07662 Y-12.98903
G01 X-19.07101 Y-13.00899
G01 X-19.06910 Y-13.06485
G01 X-19.11248 Y-13.20241
G01 X-19.13928 Y-13.45748
G01 X-19.11248 Y-13.71255
G01 X-19.04710 Y-13.91780
G01 X-19.10471 Y-13.97544
G01 X-19.07662 Y-13.92591
G01 X-19.07101 Y-13.90594
G01 X-19.06910 Y-13.85009
G01 X-19.06910 Y-13.88529
G01 X-19.05767 Y-13.88603
G01 X-19.06910 Y-13.88529
G01 X-19.07662 Y-13.92591
G01 X-19.10471 Y-13.97544
G01 X-19.24238 Y-14.11308
G01 X-19.29613 Y-14.12664
G01 X-19.33250 Y-14.14422
G01 X-19.36519 Y-14.16797
G01 X-19.42869 Y-14.22532
G01 X-19.51210 Y-14.31915
G01 X-20.21619 Y-15.30586
G01 X-20.24586 Y-15.36332
G01 X-20.27812 Y-15.46593
G01 X-20.28127 Y-15.50358
G01 X-20.28139 Y-16.61714
G01 X-20.27220 Y-16.68107
G01 X-20.25251 Y-16.74813
G01 X-20.23648 Y-16.78816
G01 X-20.21317 Y-16.82445
G01 X-20.18340 Y-16.85564
G01 X-20.09823 Y-16.92478
G01 X-20.02297 Y-16.95699
G01 X-19.95955 Y-17.00444
G01 X-19.91241 Y-17.06745
G01 X-19.88355 Y-17.14475
G01 X-19.87641 Y-17.20182
G01 X-19.85104 Y-17.28551
G01 X-19.83491 Y-17.32369
G01 X-19.81213 Y-17.35831
G01 X-19.73059 Y-17.43392
G01 X-19.69729 Y-17.45788
G01 X-19.65162 Y-17.47771
G01 X-19.43186 Y-17.69750
G01 X-19.45947 Y-17.78650
G01 X-19.48190 Y-17.99999
G01 X-19.45947 Y-18.21348
G01 X-19.43186 Y-18.30245
G01 X-19.65383 Y-18.52442
G01 X-19.67428 Y-18.53060
G01 X-19.72234 Y-18.55859
G04 P0 ( dwell for no time -- G64 should not smooth over this point )
G00 Z2.00000 ( retract )

G00 X-18.11063 Y-19.01873 ( rapid move to begin. )
G01 F60.00000
( Mill infeed pass 1/1 )
G01 Z-0.10000
G04 P0 ( dwell for no time -- G64 should not smooth over this point )
G01 F120.00000
G01 X-18.11063 Y-19.01873
G01 X-18.26801 Y-19.06090
G01 X-18.45508 Y-19.07728
G01 X-18.64215 Y-19.06092
G01 X-18.79956 Y-19.01873
G01 X-18.76054 Y-18.97972
G01 X-18.58587 Y-19.01744
G01 X-18.53872 Y-19.02242
G01 X-18.34777 Y-19.02117
G01 X-18.14965 Y-18.97972
G01 X-18.11063 Y-19.01873
G04 P0 ( dwell for no time -- G64 should not smooth over this point )
G00 Z2.00000 ( retract )

G00 X-17.37779 Y-17.99999 ( rapid move to begin. )
G01 F60.00000
( Mill infeed pass 1/1 )
G01 Z-0.10000
G04 P0 ( dwell for no time -- G64 should not smooth over this point )
G01 F120.00000
G01 X-17.37779 Y-17.99999
G01 X-17.39417 Y-17.81292
G01 X-17.43631 Y-17.65551
G01 X-17.47835 Y-17.69753
G01 X-17.45074 Y-17.78650
G01 X-17.42831 Y-17.99999
G01 X-17.45074 Y-18.21348
G01 X-17.47835 Y-18.30243
G01 X-17.43631 Y-18.34444
G01 X-17.39417 Y-18.18703
G01 X-17.37779 Y-17.99999
G04 P0 ( dwell for no time -- G64 should not smooth over this point )
G00 Z2.00000 ( retract )

G00 X-18.11063 Y-16.98122 ( rapid move to begin. )
G01 F60.00000
( Mill infeed pass 1/1 )
G01 Z-0.10000
G04 P0 ( dwell for no time -- G64 should not smooth over this point )
G01 F120.00000
G01 X-18.11063 Y-16.98122
G01 X-18.26801 Y-16.93906
G01 X-18.45508 Y-16.92267
G01 X-18.64215 Y-16.93903
G01 X-18.79956 Y-16.98122
G01 X-18.76052 Y-17.02026
G01 X-18.58587 Y-16.98252
G01 X-18.53872 Y-16.97756
G01 X-18.34777 Y-16.97881
G01 X-18.14967 Y-17.02026
G01 X-18.11063 Y-16.98122
G04 P0 ( dwell for no time -- G64 should not smooth over this point )
G00 Z2.00000 ( retract )

G00 X-16.75592 Y-13.85024 ( rapid move to begin. )
G01 F60.00000
( Mill infeed pass 1/1 )
G01 Z-0.10000
G04 P0 ( dwell for no time -- G64 should not smooth over this point )
G01 F120.00000
G01 X-16.75592 Y-13.85024
G01 X-16.78325 Y-13.93431
G01 X-16.80253 Y-13.97762
G01 X-16.90705 Y-14.15867
G01 X-16.93492 Y-14.19703
G01 X-17.09161 Y-14.36919
G01 X-17.27919 Y-14.50701
G01 X-17.32023 Y-14.53070
G01 X-17.53339 Y-14.62425
G01 X-17.78424 Y-14.67757
G01 X-18.04073 Y-14.67757
G01 X-18.26867 Y-14.63040
G01 X-18.31551 Y-14.61493
G01 X-18.37058 Y-14.58986
G01 X-18.41261 Y-14.63192
G01 X-18.22610 Y-14.69596
G01 X-18.01797 Y-14.73065
G01 X-17.80697 Y-14.73065
G01 X-17.59885 Y-14.69596
G01 X-17.39928 Y-14.62743
G01 X-17.19270 Y-14.51564
G01 X-17.15851 Y-14.50063
G01 X-17.08069 Y-14.47686
G01 X-17.04503 Y-14.47348
G01 X-17.00929 Y-14.47579
G01 X-16.89826 Y-14.49591
G01 X-16.85907 Y-14.51381
G01 X-16.77116 Y-14.58455
G01 X-16.74139 Y-14.61574
G01 X-16.71808 Y-14.65202
G01 X-16.68236 Y-14.75910
G01 X-16.67317 Y-14.82301
G01 X-16.67317 Y-20.37550
G01 X-16.67835 Y-20.42368
G01 X-16.68955 Y-20.47519
G01 X-16.70063 Y-20.51129
G01 X-16.71752 Y-20.54504
G01 X-16.78554 Y-20.62833
G01 X-16.81676 Y-20.65807
G01 X-16.85303 Y-20.68137
G01 X-16.89303 Y-20.69739
G01 X-16.96009 Y-20.71708
G01 X-17.02399 Y-20.72627
G01 X-28.49674 Y-20.72627
G01 X-28.81876 Y-20.70989
G01 X-29.17541 Y-20.65414
G01 X-29.47883 Y-20.57354
G01 X-29.79471 Y-20.45439
G01 X-30.11703 Y-20.29104
G01 X-30.39994 Y-20.10674
G01 X-30.64434 Y-19.90969
G01 X-30.88447 Y-19.67235
G01 X-31.09849 Y-19.41119
G01 X-31.29077 Y-19.11746
G01 X-31.44479 Y-18.81647
G01 X-31.56209 Y-18.51421
G01 X-31.65401 Y-18.17586
G01 X-31.70748 Y-17.84200
G01 X-31.72628 Y-17.49674
G01 X-31.72562 Y-2.98729
G01 X-31.70364 Y-2.72839
G01 X-31.64815 Y-2.48996
G01 X-31.56676 Y-2.27785
G01 X-31.44726 Y-2.06113
G01 X-31.28731 Y-1.85138
G01 X-31.12521 Y-1.69225
G01 X-30.92646 Y-1.54478
G01 X-30.72328 Y-1.43383
G01 X-30.51000 Y-1.35179
G01 X-30.27157 Y-1.29629
G01 X-29.99557 Y-1.27366
G01 X-17.02399 Y-1.27366
G01 X-16.97579 Y-1.27884
G01 X-16.92427 Y-1.29004
G01 X-16.88818 Y-1.30112
G01 X-16.85442 Y-1.31801
G01 X-16.77111 Y-1.38605
G01 X-16.74137 Y-1.41724
G01 X-16.71808 Y-1.45351
G01 X-16.70205 Y-1.49355
G01 X-16.68236 Y-1.56058
G01 X-16.67317 Y-1.62448
G01 X-16.67452 Y-12.11659
G01 X-16.69011 Y-12.19327
G01 X-16.70141 Y-12.22962
G01 X-16.71864 Y-12.26353
G01 X-16.78744 Y-12.34656
G01 X-16.81884 Y-12.37605
G01 X-16.85526 Y-12.39909
G01 X-16.89537 Y-12.41481
G01 X-17.00263 Y-12.44166
G01 X-17.04348 Y-12.44199
G01 X-17.08368 Y-12.43498
G01 X-17.16870 Y-12.41054
G01 X-17.39928 Y-12.28753
G01 X-17.59885 Y-12.21900
G01 X-17.80697 Y-12.18428
G01 X-18.01797 Y-12.18428
G01 X-18.22610 Y-12.21900
G01 X-18.41261 Y-12.28303
G01 X-18.37055 Y-12.32510
G01 X-18.31551 Y-12.30003
G01 X-18.26867 Y-12.28458
G01 X-18.04073 Y-12.23742
G01 X-17.78424 Y-12.23742
G01 X-17.53339 Y-12.29073
G01 X-17.32023 Y-12.38428
G01 X-17.27919 Y-12.40798
G01 X-17.09161 Y-12.54580
G01 X-16.93492 Y-12.71793
G01 X-16.90705 Y-12.75631
G01 X-16.80253 Y-12.93736
G01 X-16.78325 Y-12.98067
G01 X-16.75585 Y-13.06495
G01 X-16.75585 Y-12.66424
G01 X-16.76639 Y-12.63236
G01 X-16.76773 Y-12.61140
G01 X-16.76725 Y-12.32362
G01 X-16.76773 Y-12.61140
G01 X-16.76639 Y-12.63236
G01 X-16.75585 Y-12.66424
G01 X-16.75585 Y-13.06495
G01 X-16.71249 Y-13.20241
G01 X-16.68569 Y-13.45748
G01 X-16.71249 Y-13.71255
G01 X-16.75592 Y-13.85024
G01 X-16.75600 Y-13.97691
G01 X-16.76039 Y-14.05819
G01 X-16.78572 Y-14.31389
G01 X-16.79313 Y-14.31534
G01 X-16.78572 Y-14.31389
G01 X-16.77584 Y-14.35268
G01 X-16.70911 Y-14.45466
G01 X-16.60472 Y-14.67368
G01 X-16.58775 Y-14.72867
G01 X-16.56090 Y-14.84465
G01 X-16.44960 Y-15.55026
G01 X-16.44957 Y-17.08536
G01 X-16.44424 Y-17.22204
G01 X-16.43273 Y-17.34012
G01 X-16.41945 Y-17.42956
G01 X-16.39468 Y-17.55315
G01 X-16.33446 Y-17.76550
G01 X-16.27665 Y-17.92178
G01 X-16.19093 Y-18.12884
G01 X-16.19093 Y-18.79999
G01 X-16.17696 Y-19.02343
G01 X-16.13624 Y-19.23905
G01 X-16.07368 Y-19.44185
G01 X-15.99291 Y-19.62993
G01 X-15.99291 Y-20.37550
G01 X-15.99809 Y-20.47243
G01 X-16.02483 Y-20.61975
G01 X-16.06908 Y-20.76412
G01 X-16.13667 Y-20.89915
G01 X-16.21031 Y-20.99998
G01 X-15.93444 Y-20.99998
G01 X-15.85857 Y-20.84840
G01 X-15.81757 Y-20.71474
G01 X-15.90721 Y-20.34520
G01 X-15.99291 Y-20.37550
G01 X-16.21965 Y-20.37550
G01 X-16.22356 Y-20.44819
G01 X-16.23520 Y-20.52005
G01 X-16.24640 Y-20.57156
G01 X-16.27960 Y-20.67984
G01 X-16.33029 Y-20.78111
G01 X-16.39707 Y-20.87258
G01 X-16.44282 Y-20.92536
G01 X-16.52110 Y-20.99998
G01 X-16.44282 Y-20.92536
G01 X-16.39707 Y-20.87258
G01 X-16.33029 Y-20.78111
G01 X-16.27960 Y-20.67984
G01 X-16.24640 Y-20.57156
G01 X-16.23520 Y-20.52005
G01 X-16.22356 Y-20.44819
G01 X-16.21965 Y-20.37550
G01 X-16.21965 Y-18.05948
G01 X-16.30467 Y-17.84911
G01 X-16.37591 Y-17.63182
G01 X-16.41945 Y-17.42956
G01 X-16.43205 Y-17.34561
G01 X-16.44459 Y-17.22768
G01 X-16.44810 Y-17.14363
G01 X-16.44642 Y-20.37550
G01 X-16.67317 Y-20.37550
G01 X-16.21965 Y-20.37550
G01 X-16.44642 Y-20.37550
G01 X-16.44901 Y-20.42396
G01 X-16.45679 Y-20.47187
G01 X-16.46799 Y-20.52338
G01 X-16.49011 Y-20.59556
G01 X-16.52392 Y-20.66308
G01 X-16.56845 Y-20.72406
G01 X-16.61419 Y-20.77684
G01 X-16.67660 Y-20.83633
G01 X-16.74912 Y-20.88294
G01 X-16.82918 Y-20.91497
G01 X-16.89623 Y-20.93465
G01 X-16.95945 Y-20.94840
G01 X-17.02399 Y-20.95302
G01 X-28.52021 Y-20.95241
G01 X-28.87701 Y-20.93150
G01 X-29.18717 Y-20.88307
G01 X-29.58224 Y-20.77814
G01 X-29.87553 Y-20.66628
G01 X-30.19897 Y-20.50512
G01 X-30.54228 Y-20.28325
G01 X-30.82201 Y-20.05452
G01 X-31.07632 Y-19.79783
G01 X-31.30291 Y-19.51510
G01 X-31.50512 Y-19.19900
G01 X-31.66593 Y-18.87644
G01 X-31.78846 Y-18.55033
G01 X-31.88307 Y-18.18716
G01 X-31.93633 Y-17.83050
G01 X-31.95302 Y-17.49674
G01 X-31.95302 Y-3.00441
G01 X-31.93458 Y-2.74368
G01 X-31.92493 Y-2.67889
G01 X-31.87824 Y-2.47020
G01 X-31.86059 Y-2.41071
G01 X-31.79201 Y-2.22684
G01 X-31.76641 Y-2.17035
G01 X-31.66504 Y-1.98206
G01 X-31.62877 Y-1.92524
G01 X-31.49003 Y-1.73993
G01 X-31.44766 Y-1.69103
G01 X-31.30893 Y-1.55230
G01 X-31.26217 Y-1.51153
G01 X-31.09171 Y-1.38234
G01 X-31.03514 Y-1.34574
G01 X-30.83197 Y-1.23480
G01 X-30.77309 Y-1.20792
G01 X-30.58925 Y-1.13934
G01 X-30.52976 Y-1.12169
G01 X-30.32107 Y-1.07500
G01 X-30.25628 Y-1.06535
G01 X-30.02978 Y-1.04821
G01 X-17.02399 Y-1.04691
G01 X-16.97551 Y-1.04950
G01 X-16.87609 Y-1.06848
G01 X-16.80390 Y-1.09060
G01 X-16.76565 Y-1.10975
G01 X-16.76268 Y-1.39492
G01 X-16.76418 Y-1.00000
G01 X-29.99999 Y-1.00000
G01 X-30.39016 Y-1.03843
G01 X-30.76534 Y-1.15222
G01 X-31.11114 Y-1.33706
G01 X-31.41421 Y-1.58577
G01 X-31.66293 Y-1.88885
G01 X-31.84774 Y-2.23462
G01 X-31.96156 Y-2.60980
G01 X-31.99999 Y-2.99999
G01 X-31.99999 Y-17.49999
G01 X-31.93273 Y-18.18279
G01 X-31.73357 Y-18.83938
G01 X-31.41012 Y-19.44449
G01 X-30.97487 Y-19.97486
G01 X-30.44449 Y-20.41012
G01 X-29.83939 Y-20.73356
G01 X-29.18280 Y-20.93272
G01 X-28.49999 Y-20.99998
G01 X-15.75846 Y-20.99998
G01 X-15.77934 Y-20.88037
G01 X-15.90721 Y-20.34520
G01 X-15.95219 Y-20.12246
G01 X-15.98402 Y-19.83501
G01 X-15.99090 Y-19.63456
G01 X-16.06913 Y-19.45328
G01 X-15.78933 Y-19.52935
G01 X-15.76215 Y-19.55165
G01 X-15.74300 Y-19.54202
G01 X-15.76215 Y-19.55165
G01 X-15.75778 Y-19.73377
G01 X-15.75011 Y-19.81180
G01 X-15.71541 Y-19.98619
G01 X-15.69265 Y-20.06122
G01 X-15.62461 Y-20.22551
G01 X-15.58765 Y-20.29465
G01 X-15.48887 Y-20.44250
G01 X-15.37934 Y-20.56907
G01 X-14.94846 Y-20.99998
G01 X-15.26913 Y-20.99998
G01 X-15.53969 Y-20.72940
G01 X-15.59568 Y-20.66762
G01 X-15.53969 Y-20.72940
G01 X-15.26913 Y-20.99998
G01 X-14.59563 Y-20.99998
G01 X-14.67696 Y-20.94088
G01 X-14.76390 Y-20.86384
G01 X-15.21899 Y-20.40872
G01 X-15.31356 Y-20.29864
G01 X-15.38765 Y-20.18777
G01 X-15.42463 Y-20.11860
G01 X-15.47566 Y-19.99541
G01 X-15.49842 Y-19.92036
G01 X-15.52443 Y-19.78957
G01 X-15.53540 Y-19.64487
G01 X-15.53540 Y-19.41784
G01 X-15.50398 Y-19.39879
G01 X-15.53540 Y-19.41784
G01 X-15.63306 Y-19.36565
G01 X-15.73616 Y-19.28104
G01 X-15.82077 Y-19.17794
G01 X-15.88364 Y-19.06034
G01 X-15.92235 Y-18.93270
G01 X-15.93543 Y-18.79999
G01 X-15.93543 Y-18.04744
G01 X-15.91815 Y-18.04027
G01 X-15.93543 Y-18.04744
G01 X-16.01015 Y-17.97268
G01 X-16.06560 Y-17.83883
G01 X-16.11831 Y-17.69687
G01 X-16.15577 Y-17.57375
G01 X-16.19651 Y-17.38798
G01 X-16.20733 Y-17.31508
G01 X-16.21993 Y-17.16679
G01 X-16.20962 Y-17.24909
G01 X-16.16105 Y-17.40921
G01 X-16.10507 Y-17.51861
G01 X-16.05567 Y-17.59255
G01 X-15.97604 Y-17.68615
G01 X-15.70866 Y-17.95351
G01 X-15.69270 Y-17.94700
G01 X-15.70866 Y-17.95351
G01 X-15.70866 Y-18.79999
G01 X-15.69994 Y-18.88848
G01 X-15.67414 Y-18.97355
G01 X-15.63223 Y-19.05198
G01 X-15.57581 Y-19.12069
G01 X-15.50708 Y-19.17710
G01 X-15.42867 Y-19.21901
G01 X-15.34358 Y-19.24482
G01 X-15.30863 Y-19.24827
G01 X-15.26019 Y-19.21022
G01 X-15.30863 Y-19.24827
G01 X-15.30863 Y-19.64487
G01 X-15.29878 Y-19.76735
G01 X-15.28143 Y-19.85454
G01 X-15.25867 Y-19.92958
G01 X-15.22463 Y-20.01172
G01 X-15.18768 Y-20.08088
G01 X-15.13827 Y-20.15480
G01 X-15.05864 Y-20.24840
G01 X-14.60355 Y-20.70351
G01 X-14.52969 Y-20.76846
G01 X-14.47211 Y-20.81030
G01 X-14.41859 Y-20.84309
G01 X-14.35517 Y-20.87540
G01 X-14.29718 Y-20.89942
G01 X-14.22949 Y-20.92142
G01 X-14.16845 Y-20.93608
G01 X-14.09814 Y-20.94720
G01 X-14.00000 Y-20.95353
G01 X-9.95550 Y-20.95134
G01 X-9.87748 Y-20.94367
G01 X-9.79028 Y-20.92632
G01 X-9.67334 Y-20.88855
G01 X-9.56394 Y-20.83257
G01 X-9.49000 Y-20.78317
G01 X-9.46122 Y-20.75957
G01 X-9.45545 Y-20.69671
G01 X-9.39924 Y-20.42086
G01 X-9.38065 Y-20.36709
G01 X-9.39924 Y-20.42086
G01 X-9.45545 Y-20.69671
G01 X-9.47913 Y-20.99998
G01 X-15.52826 Y-20.99998
G01 X-15.55768 Y-20.83252
G01 X-15.68653 Y-20.29297
G01 X-15.72773 Y-20.08632
G01 X-15.73855 Y-20.01342
G01 X-15.75808 Y-19.81551
G01 X-15.76415 Y-19.61114
G01 X-15.76829 Y-19.58073
G01 X-15.76540 Y-19.58002
G01 X-15.76829 Y-19.58073
G01 X-15.85849 Y-19.36907
G01 X-15.91724 Y-19.17847
G01 X-15.95229 Y-18.98891
G01 X-15.96415 Y-18.79648
G01 X-15.96634 Y-18.08416
G01 X-15.96245 Y-18.08343
G01 X-15.96634 Y-18.08416
G01 X-16.06560 Y-17.83883
G01 X-16.11831 Y-17.69687
G01 X-16.17403 Y-17.50075
G01 X-16.20733 Y-17.31508
G01 X-16.21790 Y-17.20809
G01 X-16.22285 Y-17.08120
G01 X-16.22344 Y-15.52364
G01 X-16.33756 Y-14.80533
G01 X-16.36720 Y-14.67343
G01 X-16.39573 Y-14.58328
G01 X-16.50784 Y-14.34993
G01 X-16.55544 Y-14.27599
G01 X-16.53413 Y-14.07335
G01 X-16.52925 Y-13.98008
G01 X-16.52915 Y-13.85042
G01 X-16.57251 Y-13.71242
G01 X-16.59804 Y-13.48120
G01 X-16.59804 Y-13.43378
G01 X-16.57248 Y-13.20241
G01 X-16.50174 Y-12.98067
G01 X-16.48244 Y-12.93736
G01 X-16.36499 Y-12.73640
G01 X-16.29024 Y-12.65151
G01 X-16.36499 Y-12.73640
G01 X-16.48244 Y-12.93736
G01 X-16.50174 Y-12.98067
G01 X-16.56634 Y-13.17948
G01 X-16.52910 Y-13.06485
G01 X-16.52910 Y-12.71971
G01 X-16.45597 Y-12.70317
G01 X-16.29024 Y-12.65151
G01 X-16.19339 Y-12.54580
G01 X-16.00578 Y-12.40798
G01 X-15.96474 Y-12.38428
G01 X-15.75158 Y-12.29073
G01 X-15.50073 Y-12.23742
G01 X-15.26797 Y-12.23617
G01 X-15.22080 Y-12.24112
G01 X-14.99339 Y-12.29073
G01 X-14.75908 Y-12.39505
G01 X-14.57005 Y-12.53086
G01 X-14.53482 Y-12.56259
G01 X-14.37998 Y-12.73640
G01 X-14.27836 Y-12.90996
G01 X-14.37998 Y-12.73640
G01 X-14.55161 Y-12.54580
G01 X-14.52888 Y-12.55357
G01 X-14.37660 Y-12.58037
G01 X-14.33294 Y-12.70610
G01 X-14.27836 Y-12.90996
G01 X-14.24325 Y-12.98067
G01 X-14.17249 Y-13.20241
G01 X-14.14694 Y-13.43378
G01 X-14.14694 Y-13.48120
G01 X-14.16878 Y-13.68910
G01 X-14.17853 Y-13.73518
G01 X-14.52291 Y-14.80048
G01 X-14.28326 Y-14.05918
G01 X-14.34376 Y-14.43977
G01 X-14.34810 Y-14.63860
G01 X-14.44495 Y-14.71874
G01 X-14.52291 Y-14.80048
G01 X-14.74567 Y-15.48943
G01 X-14.74567 Y-16.82295
G01 X-14.59542 Y-16.97319
G01 X-13.65509 Y-16.97319
G01 X-13.61084 Y-16.97754
G01 X-13.56830 Y-16.99044
G01 X-13.52911 Y-17.01142
G01 X-13.49474 Y-17.03962
G01 X-13.46652 Y-17.07398
G01 X-13.44557 Y-17.11320
G01 X-13.43266 Y-17.15574
G01 X-13.42829 Y-17.19999
G01 X-13.42829 Y-18.79999
G01 X-13.43266 Y-18.84423
G01 X-13.44557 Y-18.88678
G01 X-13.46652 Y-18.92600
G01 X-13.49474 Y-18.96036
G01 X-13.52911 Y-18.98856
G01 X-13.56830 Y-19.00951
G01 X-13.61084 Y-19.02244
G01 X-13.65509 Y-19.02678
G01 X-13.82827 Y-19.02678
G01 X-13.82827 Y-19.38523
G01 X-13.74033 Y-19.47316
G01 X-10.99226 Y-19.47316
G01 X-11.03993 Y-19.45010
G01 X-11.29548 Y-19.27911
G01 X-11.48469 Y-19.32005
G01 X-11.59731 Y-19.33796
G01 X-11.76457 Y-19.35554
G01 X-11.86551 Y-19.36100
G01 X-12.03869 Y-19.36115
G01 X-12.14559 Y-19.35554
G01 X-12.31285 Y-19.33796
G01 X-12.41971 Y-19.32114
G01 X-12.59858 Y-19.28312
G01 X-12.73157 Y-19.24642
G01 X-13.58273 Y-19.24642
G01 X-13.82827 Y-19.27908
G01 X-13.56662 Y-19.24482
G01 X-13.48153 Y-19.21901
G01 X-13.40312 Y-19.17710
G01 X-13.33439 Y-19.12069
G01 X-13.27795 Y-19.05198
G01 X-13.23607 Y-18.97355
G01 X-13.21026 Y-18.88848
G01 X-13.20155 Y-18.77741
G01 X-13.24519 Y-18.61442
G01 X-13.26921 Y-18.50253
G01 X-13.29682 Y-18.32935
G01 X-13.30830 Y-18.22028
G01 X-13.31707 Y-18.05305
G01 X-13.31730 Y-17.97738
G01 X-13.42829 Y-17.70941
G01 X-13.31730 Y-17.97738
G01 X-13.31707 Y-18.05305
G01 X-13.30785 Y-18.22625
G01 X-13.29736 Y-18.32943
G01 X-13.27033 Y-18.49661
G01 X-13.24519 Y-18.61442
G01 X-13.11877 Y-19.07017
G01 X-13.09548 Y-19.10349
G01 X-13.06187 Y-19.12645
G01 X-12.89030 Y-19.19468
G01 X-12.73157 Y-19.24642
G01 X-12.88458 Y-19.19671
G01 X-13.02865 Y-19.14124
G01 X-13.07970 Y-19.11650
G01 X-13.10864 Y-19.08790
G01 X-13.12560 Y-19.05089
G01 X-13.16228 Y-18.90718
G01 X-13.24519 Y-18.61442
G01 X-13.16228 Y-18.90718
G01 X-13.12746 Y-19.05165
G01 X-13.10864 Y-19.08790
G01 X-13.09548 Y-19.10349
G01 X-13.10152 Y-19.10969
G01 X-13.09548 Y-19.10349
G01 X-13.07970 Y-19.11650
G01 X-13.02362 Y-19.14421
G01 X-12.88458 Y-19.19671
G01 X-12.71171 Y-19.25269
G01 X-12.59274 Y-19.28452
G01 X-12.41979 Y-19.32163
G01 X-12.31285 Y-19.33796
G01 X-12.14559 Y-19.35554
G01 X-12.03871 Y-19.36184
G01 X-11.87148 Y-19.36115
G01 X-11.77046 Y-19.35599
G01 X-11.59723 Y-19.33849
G01 X-11.48469 Y-19.32005
G01 X-11.29548 Y-19.27911
G01 X-11.03993 Y-19.45010
G01 X-10.99226 Y-19.47316
G01 X-10.25959 Y-19.47316
G01 X-9.12678 Y-18.34035
G01 X-9.12678 Y-15.22801
G01 X-9.36323 Y-14.14000
G01 X-9.40653 Y-14.00269
G01 X-9.42678 Y-13.80998
G01 X-9.41024 Y-13.64074
G01 X-9.40039 Y-13.59436
G01 X-9.34667 Y-13.43302
G01 X-9.26272 Y-13.28514
G01 X-9.23486 Y-13.24676
G01 X-9.12015 Y-13.12123
G01 X-8.96338 Y-13.00737
G01 X-8.78639 Y-12.92852
G01 X-8.62030 Y-12.89195
G01 X-8.57316 Y-12.88702
G01 X-8.42681 Y-12.88702
G01 X-8.37966 Y-12.89195
G01 X-8.23651 Y-12.92240
G01 X-8.17738 Y-12.94331
G01 X-7.08099 Y-13.18316
G01 X-5.76961 Y-13.18316
G01 X-4.62679 Y-12.04034
G01 X-4.62679 Y-10.83302
G01 X-5.04619 Y-10.04407
G01 X-5.05953 Y-10.01677
G01 X-5.07243 Y-9.97422
G01 X-5.07680 Y-9.92998
G01 X-5.07680 Y-8.22998
G01 X-5.07243 Y-8.18573
G01 X-5.05953 Y-8.14319
G01 X-5.03857 Y-8.10397
G01 X-5.01035 Y-8.06961
G01 X-4.97599 Y-8.04141
G01 X-4.93677 Y-8.02046
G01 X-4.89422 Y-8.00755
G01 X-4.84998 Y-8.00318
G01 X-3.39481 Y-8.00318
G01 X-4.75889 Y-8.00318
G01 X-4.61035 Y-7.89269
G01 X-4.58013 Y-7.86552
G01 X-4.36712 Y-7.89706
G01 X-4.18943 Y-7.91573
G01 X-4.08884 Y-7.92150
G01 X-3.91112 Y-7.92102
G01 X-3.81643 Y-7.91647
G01 X-3.58356 Y-7.88962
G01 X-3.45653 Y-7.97154
G01 X-3.39481 Y-8.00318
G01 X-3.14998 Y-8.00318
G01 X-3.10573 Y-8.00755
G01 X-3.06319 Y-8.02046
G01 X-3.02397 Y-8.04141
G01 X-2.98961 Y-8.06961
G01 X-2.96141 Y-8.10397
G01 X-2.94046 Y-8.14319
G01 X-2.92755 Y-8.18573
G01 X-2.92318 Y-8.22998
G01 X-2.92318 Y-9.92998
G01 X-2.92755 Y-9.97422
G01 X-2.94046 Y-10.01677
G01 X-2.95372 Y-10.04402
G01 X-3.37317 Y-10.83356
G01 X-3.37426 Y-12.32220
G01 X-3.38196 Y-12.40023
G01 X-3.39062 Y-12.44384
G01 X-3.42090 Y-12.53983
G01 X-3.46738 Y-12.62911
G01 X-3.49207 Y-12.66607
G01 X-3.55676 Y-12.74318
G01 X-5.06677 Y-14.25318
G01 X-5.14388 Y-14.31788
G01 X-5.18084 Y-14.34257
G01 X-5.27012 Y-14.38905
G01 X-5.36611 Y-14.41933
G01 X-5.40972 Y-14.42799
G01 X-5.51000 Y-14.43678
G01 X-7.08170 Y-14.43678
G01 X-7.73062 Y-14.57930
G01 X-7.87316 Y-15.22903
G01 X-7.87316 Y-18.59999
G01 X-7.88436 Y-18.71548
G01 X-7.91002 Y-18.81038
G01 X-7.93402 Y-18.86836
G01 X-7.98299 Y-18.95358
G01 X-8.05675 Y-19.04319
G01 X-9.55675 Y-20.54319
G01 X-9.63386 Y-20.60788
G01 X-9.67082 Y-20.63257
G01 X-9.76010 Y-20.67905
G01 X-9.85609 Y-20.70933
G01 X-9.89970 Y-20.71799
G01 X-9.99998 Y-20.72678
G01 X-14.00000 Y-20.72678
G01 X-14.08036 Y-20.72114
G01 X-14.11552 Y-20.71558
G01 X-14.21039 Y-20.68993
G01 X-14.30010 Y-20.64974
G01 X-14.38239 Y-20.59602
G01 X-14.44320 Y-20.54316
G01 X-14.89829 Y-20.08805
G01 X-14.96299 Y-20.01096
G01 X-14.98770 Y-19.97398
G01 X-15.02466 Y-19.90484
G01 X-15.04168 Y-19.86377
G01 X-15.06444 Y-19.78873
G01 X-15.07310 Y-19.74512
G01 X-15.08188 Y-19.64487
G01 X-15.08188 Y-19.02678
G01 X-15.25511 Y-19.02678
G01 X-15.29933 Y-19.02244
G01 X-15.34190 Y-19.00951
G01 X-15.38110 Y-18.98856
G01 X-15.41546 Y-18.96036
G01 X-15.44368 Y-18.92600
G01 X-15.46464 Y-18.88678
G01 X-15.47754 Y-18.84423
G01 X-15.48191 Y-18.79999
G01 X-15.48191 Y-17.85958
G01 X-15.81569 Y-17.52580
G01 X-15.88038 Y-17.44868
G01 X-15.90507 Y-17.41173
G01 X-15.94206 Y-17.34256
G01 X-15.95905 Y-17.30149
G01 X-15.98183 Y-17.22646
G01 X-15.99049 Y-17.18285
G01 X-15.99928 Y-17.08259
G01 X-15.99928 Y-15.48823
G01 X-16.52915 Y-13.85042
G04 P0 ( dwell for no time -- G64 should not smooth over this point )
G00 Z2.00000 ( retract )

G00 X-13.21877 Y-17.62270 ( rapid move to begin. )
G01 F60.00000
( Mill infeed pass 1/1 )
G01 Z-0.10000
G04 P0 ( dwell for no time -- G64 should not smooth over this point )
G01 F120.00000
G01 X-13.21877 Y-17.62270
G01 X-12.96967 Y-17.87180
G01 X-12.98189 Y-17.99999
G01 X-12.96314 Y-18.19003
G01 X-12.95331 Y-18.23641
G01 X-12.90163 Y-18.39547
G01 X-12.88235 Y-18.43877
G01 X-12.78580 Y-18.60352
G01 X-12.65895 Y-18.74627
G01 X-12.62372 Y-18.77799
G01 X-12.46850 Y-18.88922
G01 X-12.27239 Y-18.97654
G01 X-12.06243 Y-19.02117
G01 X-11.87148 Y-19.02242
G01 X-11.82433 Y-19.01744
G01 X-11.63780 Y-18.97654
G01 X-11.44171 Y-18.88922
G01 X-11.26805 Y-18.76306
G01 X-11.13935 Y-18.62198
G01 X-11.11148 Y-18.58361
G01 X-11.01707 Y-18.41762
G01 X-10.95073 Y-18.21348
G01 X-10.92830 Y-17.99999
G01 X-10.94052 Y-17.87182
G01 X-10.64466 Y-17.57599
G01 X-10.59459 Y-17.78450
G01 X-10.57763 Y-17.99999
G01 X-10.59459 Y-18.21546
G01 X-10.64506 Y-18.42564
G01 X-10.72777 Y-18.62531
G01 X-10.84072 Y-18.80961
G01 X-10.89241 Y-18.87370
G01 X-10.93627 Y-18.96593
G01 X-10.95009 Y-19.00679
G01 X-10.95591 Y-19.04952
G01 X-10.94311 Y-19.16168
G01 X-10.93264 Y-19.20349
G01 X-10.91446 Y-19.24258
G01 X-10.88921 Y-19.27753
G01 X-10.81187 Y-19.35937
G01 X-10.77570 Y-19.38236
G01 X-10.73584 Y-19.39811
G01 X-10.63831 Y-19.42401
G01 X-10.39205 Y-19.42396
G01 X-10.29340 Y-19.39740
G01 X-10.25218 Y-19.38076
G01 X-10.21502 Y-19.35640
G01 X-10.17628 Y-19.32351
G01 X-9.25523 Y-18.39920
G01 X-9.20425 Y-18.31066
G01 X-9.18690 Y-18.26979
G01 X-9.17783 Y-18.22630
G01 X-9.17367 Y-18.17563
G01 X-9.17367 Y-15.30073
G01 X-9.18172 Y-15.22603
G01 X-9.41596 Y-14.15115
G01 X-9.46117 Y-13.98981
G01 X-9.47783 Y-13.80998
G01 X-9.46120 Y-13.63027
G01 X-9.41182 Y-13.45674
G01 X-9.33138 Y-13.29517
G01 X-9.22264 Y-13.15118
G01 X-9.08926 Y-13.02962
G01 X-8.93587 Y-12.93462
G01 X-8.76760 Y-12.86944
G01 X-8.59020 Y-12.83630
G01 X-8.40976 Y-12.83630
G01 X-8.22985 Y-12.86988
G01 X-8.15546 Y-12.89469
G01 X-7.08393 Y-13.12824
G01 X-7.03354 Y-13.13495
G01 X-5.93435 Y-13.13630
G01 X-5.87045 Y-13.12710
G01 X-5.77550 Y-13.09721
G01 X-5.72488 Y-13.06632
G01 X-5.68630 Y-13.03353
G01 X-4.75521 Y-12.09919
G01 X-4.69174 Y-11.98369
G01 X-4.68287 Y-11.95535
G01 X-4.67497 Y-11.89972
G01 X-4.67535 Y-10.91824
G01 X-4.69476 Y-10.83310
G01 X-4.71447 Y-10.78161
G01 X-5.08643 Y-10.07920
G01 X-5.12161 Y-9.98489
G01 X-5.12366 Y-9.96572
G01 X-5.12161 Y-8.17504
G01 X-5.09267 Y-8.09744
G01 X-5.04551 Y-8.03448
G01 X-4.98663 Y-7.98751
G01 X-4.92359 Y-7.90712
G01 X-4.90113 Y-7.87029
G01 X-4.88325 Y-7.81307
G01 X-4.77911 Y-7.73562
G01 X-4.89102 Y-7.61637
G01 X-4.87500 Y-7.67458
G01 X-4.87396 Y-7.71769
G01 X-4.88325 Y-7.81307
G01 X-4.87396 Y-7.71769
G01 X-4.87500 Y-7.67458
G01 X-4.88414 Y-7.63247
G01 X-4.90111 Y-7.59285
G01 X-4.95734 Y-7.49755
G01 X-4.98584 Y-7.46818
G01 X-5.07337 Y-7.41271
G01 X-5.12669 Y-7.39010
G01 X-5.74004 Y-7.22038
G01 X-5.80438 Y-7.21368
G01 X-7.19366 Y-7.21368
G01 X-7.24571 Y-7.21744
G01 X-7.34949 Y-7.21368
G01 X-8.21619 Y-7.21368
G01 X-8.40796 Y-7.17530
G01 X-8.58512 Y-7.16463
G01 X-8.76757 Y-7.13054
G01 X-8.81804 Y-7.11096
G01 X-9.88372 Y-6.76595
G01 X-9.95680 Y-6.75150
G01 X-9.99249 Y-6.74865
G01 X-11.00884 Y-6.75053
G01 X-11.06917 Y-6.76026
G01 X-12.49243 Y-7.13636
G01 X-12.67998 Y-7.15277
G01 X-12.86713 Y-7.13638
G01 X-13.04861 Y-7.08779
G01 X-13.21887 Y-7.00837
G01 X-13.37277 Y-6.90062
G01 X-13.50561 Y-6.76778
G01 X-13.61338 Y-6.61386
G01 X-13.69278 Y-6.44360
G01 X-13.74140 Y-6.26214
G01 X-13.75776 Y-6.07499
G01 X-13.74140 Y-5.88782
G01 X-13.69278 Y-5.70634
G01 X-13.61338 Y-5.53608
G01 X-13.50561 Y-5.38218
G01 X-13.35982 Y-5.23636
G01 X-13.32111 Y-5.18467
G01 X-13.27066 Y-5.08373
G01 X-13.26152 Y-5.04162
G01 X-13.26063 Y-4.99656
G01 X-13.20841 Y-4.92526
G01 X-13.09436 Y-4.74469
G01 X-13.06906 Y-4.71635
G01 X-13.09436 Y-4.74469
G01 X-13.08920 Y-4.73781
G01 X-13.10432 Y-4.71300
G01 X-13.47020 Y-4.40799
G01 X-13.10432 Y-4.71300
G01 X-13.07671 Y-4.72359
G01 X-13.05321 Y-4.70576
G01 X-13.01735 Y-4.69318
G01 X-13.01890 Y-4.68668
G01 X-13.01735 Y-4.69318
G01 X-12.26132 Y-4.69158
G01 X-12.22243 Y-4.69864
G01 X-12.13622 Y-4.66029
G01 X-11.90221 Y-4.40624
G01 X-12.13622 Y-4.66029
G01 X-12.14582 Y-4.67858
G01 X-12.16558 Y-4.74419
G01 X-12.17803 Y-4.72806
G01 X-12.17539 Y-4.72526
G01 X-12.17803 Y-4.72806
G01 X-12.19180 Y-4.71541
G01 X-12.22243 Y-4.69864
G01 X-12.19180 Y-4.71541
G01 X-12.17803 Y-4.72806
G01 X-12.09535 Y-4.84198
G01 X-11.93879 Y-4.99890
G01 X-12.09535 Y-4.84198
G01 X-12.17803 Y-4.72806
G01 X-12.19180 Y-4.71541
G01 X-12.22243 Y-4.69864
G01 X-12.26132 Y-4.69158
G01 X-12.99835 Y-4.69158
G01 X-13.03581 Y-4.69796
G01 X-13.05321 Y-4.70576
G01 X-13.07671 Y-4.72359
G01 X-13.10432 Y-4.71300
G01 X-13.08920 Y-4.73781
G01 X-13.20841 Y-4.92526
G01 X-13.26063 Y-4.99656
G01 X-13.27262 Y-4.88627
G01 X-13.28765 Y-4.84586
G01 X-13.31011 Y-4.80903
G01 X-13.35202 Y-4.75310
G01 X-13.38039 Y-4.72181
G01 X-13.41407 Y-4.69631
G01 X-13.48915 Y-4.64972
G01 X-13.65397 Y-4.50898
G01 X-13.79433 Y-4.34462
G01 X-13.90640 Y-4.16179
G01 X-13.49141 Y-4.16179
G01 X-13.36705 Y-4.29806
G01 X-13.19340 Y-4.42422
G01 X-12.99728 Y-4.51152
G01 X-12.81074 Y-4.55244
G01 X-12.76358 Y-4.55739
G01 X-12.57267 Y-4.55615
G01 X-12.38562 Y-4.51767
G01 X-12.34051 Y-4.50301
G01 X-12.18773 Y-4.43499
G01 X-12.14669 Y-4.41129
G01 X-11.99291 Y-4.29806
G01 X-11.86856 Y-4.16179
G01 X-11.45355 Y-4.16179
G01 X-11.56561 Y-4.34462
G01 X-11.70597 Y-4.50898
G01 X-11.85812 Y-4.64195
G01 X-11.91590 Y-4.72620
G01 X-11.93594 Y-4.76438
G01 X-11.94839 Y-4.80568
G01 X-11.95329 Y-4.91846
G01 X-11.94951 Y-4.96141
G01 X-11.93767 Y-5.00289
G01 X-11.91816 Y-5.04137
G01 X-11.85713 Y-5.13154
G01 X-11.82845 Y-5.15813
G01 X-11.79563 Y-5.17939
G01 X-11.72124 Y-5.21721
G01 X-11.06871 Y-5.38980
G01 X-11.00884 Y-5.39940
G01 X-9.95599 Y-5.40128
G01 X-8.68708 Y-5.23390
G01 X-8.59041 Y-5.21630
G01 X-8.40976 Y-5.21630
G01 X-8.23234 Y-5.24944
G01 X-8.06407 Y-5.31462
G01 X-7.95111 Y-5.38442
G01 X-7.20613 Y-5.81856
G01 X-7.15109 Y-5.84157
G01 X-7.08866 Y-5.85843
G01 X-7.02953 Y-5.86628
G01 X-5.77352 Y-5.86417
G01 X-5.70969 Y-5.85325
G01 X-5.04129 Y-5.66354
G01 X-4.95346 Y-5.61129
G01 X-4.91924 Y-5.58508
G01 X-4.89064 Y-5.55285
G01 X-4.86862 Y-5.51581
G01 X-4.83761 Y-5.44924
G01 X-4.80789 Y-5.42412
G01 X-4.63273 Y-5.22140
G01 X-4.61124 Y-5.19128
G01 X-4.62343 Y-5.14335
G01 X-4.81597 Y-4.91112
G01 X-4.62343 Y-5.14335
G01 X-4.57738 Y-5.16473
G01 X-4.55762 Y-5.15684
G01 X-4.51810 Y-5.15150
G01 X-4.46420 Y-5.15661
G01 X-3.55262 Y-5.15851
G01 X-3.55026 Y-5.15018
G01 X-3.55262 Y-5.15851
G01 X-3.51404 Y-5.17332
G01 X-3.48333 Y-5.20098
G01 X-3.47807 Y-5.19587
G01 X-3.48333 Y-5.20098
G01 X-3.39888 Y-5.35780
G01 X-3.33952 Y-5.45247
G01 X-3.39888 Y-5.35780
G01 X-3.48333 Y-5.20098
G01 X-3.51404 Y-5.17332
G01 X-3.55262 Y-5.15851
G01 X-4.46420 Y-5.15661
G01 X-4.51797 Y-5.15269
G01 X-4.55762 Y-5.15684
G01 X-4.57738 Y-5.16473
G01 X-4.62343 Y-5.14335
G01 X-4.57629 Y-5.16407
G01 X-4.60840 Y-5.18770
G01 X-4.61010 Y-5.18564
G01 X-4.63273 Y-5.22140
G01 X-4.80789 Y-5.42412
G01 X-4.83761 Y-5.44924
G01 X-4.82420 Y-5.41203
G01 X-4.81752 Y-5.36941
G01 X-4.81904 Y-5.32630
G01 X-4.83636 Y-5.21945
G01 X-4.85084 Y-5.18381
G01 X-4.87111 Y-5.15109
G01 X-4.92026 Y-5.08747
G01 X-5.00944 Y-5.00944
G01 X-5.15493 Y-4.83911
G01 X-5.27197 Y-4.64807
G01 X-5.28079 Y-4.62679
G01 X-4.87512 Y-4.62679
G01 X-4.72051 Y-4.80019
G01 X-4.53840 Y-4.93253
G01 X-4.33273 Y-5.02409
G01 X-4.13598 Y-5.06717
G01 X-4.08884 Y-5.07213
G01 X-3.88742 Y-5.07088
G01 X-3.69016 Y-5.03024
G01 X-3.64508 Y-5.01559
G01 X-3.48275 Y-4.94330
G01 X-3.44167 Y-4.91960
G01 X-3.27947 Y-4.80019
G01 X-3.12486 Y-4.62679
G01 X-2.71915 Y-4.62679
G01 X-2.72796 Y-4.64807
G01 X-2.84503 Y-4.83911
G01 X-2.99052 Y-5.00944
G01 X-3.16083 Y-5.15490
G01 X-3.20142 Y-5.18251
G01 X-3.27175 Y-5.25676
G01 X-3.29748 Y-5.29133
G01 X-3.31622 Y-5.33014
G01 X-3.33870 Y-5.44073
G01 X-3.34170 Y-5.48376
G01 X-3.33647 Y-5.52656
G01 X-3.29557 Y-5.63176
G01 X-3.27518 Y-5.66905
G01 X-3.24815 Y-5.70187
G01 X-3.13609 Y-5.81464
G01 X-3.02311 Y-5.97598
G01 X-2.94000 Y-6.15419
G01 X-2.88912 Y-6.34411
G01 X-2.87198 Y-6.53999
G01 X-2.88912 Y-6.73585
G01 X-2.94000 Y-6.92577
G01 X-3.02311 Y-7.10397
G01 X-3.13588 Y-7.26503
G01 X-3.24371 Y-7.37293
G01 X-3.28242 Y-7.42455
G01 X-3.31592 Y-7.48586
G01 X-3.33291 Y-7.52554
G01 X-3.34211 Y-7.56770
G01 X-3.34188 Y-7.62810
G01 X-3.40771 Y-7.73321
G01 X-3.33880 Y-7.77763
G01 X-3.29331 Y-7.80039
G01 X-3.31589 Y-7.76341
G01 X-3.33096 Y-7.72305
G01 X-3.34188 Y-7.62810
G01 X-3.33096 Y-7.72305
G01 X-3.31589 Y-7.76341
G01 X-3.25156 Y-7.85614
G01 X-3.20594 Y-7.90181
G01 X-3.17871 Y-7.91931
G01 X-3.11831 Y-7.94967
G01 X-3.01747 Y-7.98728
G01 X-2.95448 Y-8.03445
G01 X-2.90728 Y-8.09747
G01 X-2.87835 Y-8.17504
G01 X-2.87630 Y-9.96572
G01 X-2.87835 Y-9.98492
G01 X-2.91353 Y-10.07920
G01 X-3.28549 Y-10.78161
G01 X-3.30515 Y-10.83310
G01 X-3.31960 Y-10.89111
G01 X-3.32623 Y-10.94577
G01 X-3.32623 Y-12.36632
G01 X-3.35216 Y-12.49647
G01 X-3.40294 Y-12.61908
G01 X-3.47668 Y-12.72944
G01 X-5.08053 Y-14.33327
G01 X-5.19087 Y-14.40701
G01 X-5.31345 Y-14.45778
G01 X-5.44363 Y-14.48366
G01 X-7.00926 Y-14.48366
G01 X-7.05993 Y-14.48783
G01 X-7.49785 Y-14.58427
G01 X-7.58861 Y-14.63129
G01 X-7.62424 Y-14.65544
G01 X-7.65467 Y-14.68587
G01 X-7.71225 Y-14.78277
G01 X-7.73481 Y-14.84320
G01 X-7.81822 Y-15.22600
G01 X-7.82627 Y-15.30073
G01 X-7.82627 Y-18.66633
G01 X-7.85216 Y-18.79648
G01 X-7.90296 Y-18.91909
G01 X-7.97667 Y-19.02945
G01 X-9.09587 Y-20.15190
G01 X-9.14684 Y-20.24045
G01 X-9.16381 Y-20.28007
G01 X-9.17296 Y-20.32218
G01 X-9.17400 Y-20.36529
G01 X-9.16902 Y-20.43499
G01 X-9.16188 Y-20.47751
G01 X-9.14682 Y-20.51789
G01 X-9.08251 Y-20.61065
G01 X-9.05350 Y-20.64258
G01 X-9.01896 Y-20.66841
G01 X-8.98014 Y-20.68726
G01 X-8.87570 Y-20.72236
G01 X-8.83547 Y-20.72597
G01 X-4.49674 Y-20.72612
G01 X-4.14406 Y-20.70595
G01 X-3.81137 Y-20.65132
G01 X-3.49855 Y-20.56628
G01 X-3.18308 Y-20.44456
G01 X-2.87084 Y-20.28403
G01 X-2.58874 Y-20.09846
G01 X-2.32761 Y-19.88447
G01 X-2.09027 Y-19.64433
G01 X-1.89321 Y-19.39994
G01 X-1.71567 Y-19.12871
G01 X-1.67188 Y-19.04700
G01 X-1.54572 Y-18.79519
G01 X-1.43787 Y-18.51421
G01 X-1.34092 Y-18.15216
G01 X-1.29248 Y-17.84200
G01 X-1.27396 Y-17.50847
G01 X-1.27366 Y-3.00441
G01 X-1.29319 Y-2.74851
G01 X-1.33741 Y-2.53926
G01 X-1.41991 Y-2.30734
G01 X-1.53459 Y-2.08953
G01 X-1.69141 Y-1.87584
G01 X-1.86568 Y-1.70010
G01 X-2.08953 Y-1.53459
G01 X-2.30734 Y-1.41991
G01 X-2.53926 Y-1.33741
G01 X-2.77957 Y-1.28885
G01 X-3.00441 Y-1.27366
G01 X-16.27599 Y-1.27366
G01 X-16.33987 Y-1.28285
G01 X-16.44693 Y-1.31856
G01 X-16.48320 Y-1.34186
G01 X-16.53583 Y-1.39637
G01 X-16.53891 Y-1.11224
G01 X-16.47081 Y-1.08496
G01 X-16.40378 Y-1.06528
G01 X-16.34053 Y-1.05153
G01 X-16.27599 Y-1.04691
G01 X-3.00441 Y-1.04691
G01 X-2.76375 Y-1.06266
G01 X-2.70162 Y-1.07135
G01 X-2.49238 Y-1.11557
G01 X-2.43017 Y-1.13342
G01 X-2.22936 Y-1.20698
G01 X-2.17030 Y-1.23355
G01 X-1.98201 Y-1.33495
G01 X-1.92740 Y-1.36959
G01 X-1.75544 Y-1.49675
G01 X-1.70630 Y-1.53881
G01 X-1.55418 Y-1.68913
G01 X-1.50988 Y-1.73995
G01 X-1.37117 Y-1.92527
G01 X-1.33495 Y-1.98201
G01 X-1.23355 Y-2.17030
G01 X-1.20698 Y-2.22936
G01 X-1.13342 Y-2.43017
G01 X-1.11557 Y-2.49238
G01 X-1.07135 Y-2.70162
G01 X-1.06266 Y-2.76375
G01 X-1.04691 Y-3.00441
G01 X-1.04691 Y-17.49674
G01 X-1.06363 Y-17.83052
G01 X-1.11689 Y-18.18716
G01 X-1.21150 Y-18.55033
G01 X-1.33403 Y-18.87644
G01 X-1.50383 Y-19.21513
G01 X-1.68940 Y-19.50461
G01 X-1.94544 Y-19.82201
G01 X-2.20213 Y-20.07629
G01 X-2.48402 Y-20.30237
G01 X-2.78884 Y-20.49821
G01 X-3.12443 Y-20.66628
G01 X-3.46197 Y-20.79247
G01 X-3.79819 Y-20.88007
G01 X-4.10812 Y-20.92983
G01 X-4.47200 Y-20.95221
G01 X-8.83547 Y-20.95271
G01 X-8.91596 Y-20.94553
G01 X-8.99389 Y-20.92414
G01 X-9.05937 Y-20.89973
G01 X-9.13696 Y-20.86206
G01 X-9.20603 Y-20.81035
G01 X-9.23521 Y-20.77824
G01 X-9.23178 Y-20.73478
G01 X-9.17882 Y-20.47481
G01 X-9.16744 Y-20.44431
G01 X-9.17882 Y-20.47481
G01 X-9.23178 Y-20.73478
G01 X-9.25210 Y-20.99998
G01 X-4.49999 Y-20.99998
G01 X-3.81716 Y-20.93272
G01 X-3.16060 Y-20.73356
G01 X-2.55549 Y-20.41012
G01 X-2.02512 Y-19.97486
G01 X-1.58979 Y-19.44449
G01 X-1.26642 Y-18.83938
G01 X-1.06723 Y-18.18279
G01 X-1.00000 Y-17.49999
G01 X-1.04691 Y-17.49674
G01 X-1.27366 Y-17.49674
G01 X-1.04691 Y-17.49674
G01 X-1.00000 Y-17.49999
G01 X-1.00000 Y-2.99999
G01 X-1.03843 Y-2.60980
G01 X-1.15222 Y-2.23462
G01 X-1.33706 Y-1.88885
G01 X-1.58577 Y-1.58577
G01 X-1.88885 Y-1.33706
G01 X-2.23462 Y-1.15222
G01 X-2.60980 Y-1.03843
G01 X-2.99999 Y-1.00000
G01 X-16.53741 Y-1.00000
G01 X-16.53583 Y-1.39637
G01 X-16.58244 Y-1.45491
G01 X-16.59933 Y-1.48867
G01 X-16.62161 Y-1.57627
G01 X-16.62679 Y-1.62448
G01 X-16.62679 Y-12.10213
G01 X-16.61759 Y-12.16602
G01 X-16.59791 Y-12.23307
G01 X-16.58188 Y-12.27310
G01 X-16.55856 Y-12.30940
G01 X-16.54045 Y-12.32837
G01 X-16.54114 Y-12.49007
G01 X-16.41246 Y-12.45461
G01 X-16.36621 Y-12.43787
G01 X-16.40164 Y-12.42926
G01 X-16.44086 Y-12.41135
G01 X-16.47599 Y-12.38634
G01 X-16.54045 Y-12.32837
G01 X-16.47599 Y-12.38634
G01 X-16.44086 Y-12.41135
G01 X-16.40164 Y-12.42926
G01 X-16.35973 Y-12.43942
G01 X-16.24947 Y-12.45149
G01 X-16.20868 Y-12.44615
G01 X-16.16954 Y-12.43355
G01 X-16.09115 Y-12.39904
G01 X-15.88552 Y-12.28695
G01 X-15.68623 Y-12.21852
G01 X-15.47802 Y-12.18380
G01 X-15.26692 Y-12.18380
G01 X-15.05872 Y-12.21852
G01 X-14.85905 Y-12.28707
G01 X-14.77787 Y-12.32837
G01 X-14.67848 Y-12.35197
G01 X-14.63563 Y-12.35695
G01 X-14.59263 Y-12.35370
G01 X-14.50650 Y-12.32560
G01 X-14.25689 Y-12.37178
G01 X-14.25504 Y-12.36723
G01 X-14.25689 Y-12.37178
G01 X-14.23894 Y-12.37983
G01 X-14.20848 Y-12.40457
G01 X-14.20119 Y-12.39855
G01 X-14.20848 Y-12.40457
G01 X-14.18829 Y-12.43823
G01 X-14.14358 Y-12.55380
G01 X-14.11641 Y-12.63871
G01 X-14.05928 Y-12.85126
G01 X-14.11468 Y-12.64450
G01 X-14.14402 Y-12.55395
G01 X-14.18829 Y-12.43823
G01 X-14.20848 Y-12.40457
G01 X-14.23894 Y-12.37983
G01 X-14.25689 Y-12.37178
G01 X-14.50650 Y-12.32560
G01 X-14.45367 Y-12.30272
G01 X-14.42443 Y-12.28296
G01 X-14.36830 Y-12.22586
G01 X-14.34333 Y-12.19314
G01 X-14.28346 Y-12.09782
G01 X-14.19215 Y-12.00650
G01 X-14.08275 Y-11.93777
G01 X-13.96083 Y-11.89512
G01 X-13.86467 Y-11.88428
G01 X-13.45928 Y-11.88428
G01 X-13.45928 Y-12.23068
G01 X-13.83248 Y-12.23068
G01 X-13.87673 Y-12.23505
G01 X-13.91928 Y-12.24796
G01 X-13.95849 Y-12.26891
G01 X-13.99286 Y-12.29711
G01 X-14.02105 Y-12.33147
G01 X-14.04203 Y-12.37069
G01 X-14.05494 Y-12.41323
G01 X-14.05928 Y-12.45748
G01 X-14.05928 Y-14.09456
G01 X-14.11806 Y-14.46741
G01 X-14.12237 Y-14.69517
G01 X-14.12979 Y-14.73345
G01 X-14.11422 Y-14.74041
G01 X-14.12979 Y-14.73345
G01 X-14.13833 Y-14.75105
G01 X-14.16375 Y-14.78062
G01 X-14.28956 Y-14.88399
G01 X-14.33667 Y-14.93030
G01 X-14.35372 Y-14.95237
G01 X-14.33667 Y-14.93030
G01 X-14.28956 Y-14.88399
G01 X-14.16375 Y-14.78062
G01 X-14.13833 Y-14.75105
G01 X-14.12979 Y-14.73345
G01 X-14.12237 Y-14.69517
G01 X-14.11806 Y-14.46741
G01 X-14.05928 Y-14.09456
G01 X-14.05928 Y-14.45748
G01 X-14.05494 Y-14.50172
G01 X-14.04203 Y-14.54427
G01 X-14.02105 Y-14.58349
G01 X-13.99286 Y-14.61785
G01 X-13.95849 Y-14.64607
G01 X-13.91928 Y-14.66703
G01 X-13.87673 Y-14.67993
G01 X-13.83248 Y-14.68430
G01 X-13.45928 Y-14.68430
G01 X-13.45928 Y-15.03065
G01 X-13.86467 Y-15.03065
G01 X-13.95976 Y-15.01996
G01 X-14.11155 Y-14.96522
G01 X-14.19403 Y-14.94135
G01 X-14.23647 Y-14.93363
G01 X-14.27958 Y-14.93406
G01 X-14.32184 Y-14.94264
G01 X-14.42852 Y-14.97945
G01 X-14.46456 Y-15.00312
G01 X-14.54066 Y-15.08646
G01 X-14.56279 Y-15.11747
G01 X-14.58819 Y-15.17548
G01 X-14.68171 Y-15.46423
G01 X-14.69601 Y-15.53703
G01 X-14.69878 Y-15.57233
G01 X-14.69878 Y-16.57548
G01 X-14.68958 Y-16.63936
G01 X-14.66990 Y-16.70642
G01 X-14.65387 Y-16.74645
G01 X-14.63055 Y-16.78275
G01 X-14.60078 Y-16.81394
G01 X-14.51750 Y-16.88193
G01 X-14.48374 Y-16.89882
G01 X-14.44767 Y-16.90990
G01 X-14.39616 Y-16.92110
G01 X-14.34798 Y-16.92628
G01 X-13.61935 Y-16.92628
G01 X-13.60018 Y-16.92834
G01 X-13.52258 Y-16.95729
G01 X-13.45956 Y-17.00446
G01 X-13.41239 Y-17.06745
G01 X-13.38346 Y-17.14503
G01 X-13.37909 Y-17.34706
G01 X-13.34232 Y-17.47363
G01 X-13.32855 Y-17.49994
G01 X-13.29479 Y-17.54487
G01 X-13.21877 Y-17.62270
G01 X-13.09276 Y-17.93260
G01 X-13.08971 Y-17.93192
G01 X-13.09276 Y-17.93260
G01 X-13.09045 Y-18.04411
G01 X-13.08202 Y-18.20545
G01 X-13.07239 Y-18.29679
G01 X-13.04684 Y-18.45818
G01 X-13.02542 Y-18.55856
G01 X-12.98354 Y-18.71480
G01 X-12.93937 Y-18.77370
G01 X-12.79388 Y-18.93156
G01 X-12.66167 Y-19.03070
G01 X-12.65006 Y-19.03448
G01 X-12.66167 Y-19.03070
G01 X-12.79388 Y-18.93156
G01 X-12.93937 Y-18.77370
G01 X-12.98354 Y-18.71480
G01 X-12.91979 Y-18.94032
G01 X-12.81163 Y-18.98198
G01 X-12.65006 Y-19.03448
G01 X-12.54265 Y-19.06333
G01 X-12.38123 Y-19.09765
G01 X-12.28618 Y-19.11274
G01 X-12.12484 Y-19.12971
G01 X-12.03571 Y-19.13438
G01 X-11.87445 Y-19.13438
G01 X-11.78532 Y-19.12971
G01 X-11.62398 Y-19.11274
G01 X-11.52893 Y-19.09765
G01 X-11.27211 Y-19.04167
G01 X-11.22947 Y-19.04756
G01 X-11.20976 Y-19.05645
G01 X-11.18037 Y-19.07901
G01 X-11.20976 Y-19.05645
G01 X-11.25050 Y-19.04258
G01 X-11.24798 Y-19.03031
G01 X-11.25050 Y-19.04258
G01 X-11.27211 Y-19.04167
G01 X-11.26409 Y-19.04200
G01 X-11.17376 Y-18.97637
G01 X-11.02581 Y-18.70773
G01 X-11.17376 Y-18.97637
G01 X-11.18248 Y-19.04035
G01 X-11.18037 Y-19.07901
G01 X-11.14270 Y-19.11142
G01 X-10.92291 Y-19.25566
G01 X-10.89632 Y-19.26770
G04 P0 ( dwell for no time -- G64 should not smooth over this point )
G00 Z2.00000 ( retract )

G00 X-11.53109 Y-16.68955 ( rapid move to begin. )
G01 F60.00000
( Mill infeed pass 1/1 )
G01 Z-0.10000
G04 P0 ( dwell for no time -- G64 should not smooth over this point )
G01 F120.00000
G01 X-11.53109 Y-16.68955
G01 X-11.82411 Y-16.98257
G01 X-11.87148 Y-16.97756
G01 X-12.03871 Y-16.97756
G01 X-12.08588 Y-16.98252
G01 X-12.37907 Y-16.68955
G01 X-12.17056 Y-16.63949
G01 X-11.95509 Y-16.62252
G01 X-11.73960 Y-16.63949
G01 X-11.53109 Y-16.68955
G04 P0 ( dwell for no time -- G64 should not smooth over this point )
G00 Z2.00000 ( retract )

G00 X-11.25929 Y-14.48966 ( rapid move to begin. )
G01 F60.00000
( Mill infeed pass 1/1 )
G01 Z-0.10000
G04 P0 ( dwell for no time -- G64 should not smooth over this point )
G01 F120.00000
G01 X-11.25929 Y-14.48966
G01 X-11.25929 Y-14.08427
G01 X-11.60569 Y-14.08427
G01 X-11.60569 Y-14.45748
G01 X-11.61004 Y-14.50172
G01 X-11.62296 Y-14.54427
G01 X-11.64392 Y-14.58349
G01 X-11.67211 Y-14.61785
G01 X-11.70648 Y-14.64607
G01 X-11.74570 Y-14.66703
G01 X-11.78824 Y-14.67993
G01 X-11.83249 Y-14.68430
G01 X-12.20567 Y-14.68430
G01 X-12.20567 Y-15.03065
G01 X-11.80028 Y-15.03065
G01 X-11.70412 Y-15.01983
G01 X-11.58220 Y-14.97719
G01 X-11.47282 Y-14.90845
G01 X-11.38151 Y-14.81712
G01 X-11.31275 Y-14.70772
G01 X-11.27011 Y-14.58582
G01 X-11.25929 Y-14.48966
G04 P0 ( dwell for no time -- G64 should not smooth over this point )
G00 Z2.00000 ( retract )

G00 X-11.25929 Y-12.83066 ( rapid move to begin. )
G01 F60.00000
( Mill infeed pass 1/1 )
G01 Z-0.10000
G04 P0 ( dwell for no time -- G64 should not smooth over this point )
G01 F120.00000
G01 X-11.25929 Y-12.83066
G01 X-11.25929 Y-12.42527
G01 X-11.27011 Y-12.32911
G01 X-11.31275 Y-12.20721
G01 X-11.38149 Y-12.09782
G01 X-11.47282 Y-12.00650
G01 X-11.58220 Y-11.93777
G01 X-11.70412 Y-11.89512
G01 X-11.80028 Y-11.88428
G01 X-12.20567 Y-11.88428
G01 X-12.20567 Y-12.23068
G01 X-11.83249 Y-12.23068
G01 X-11.78824 Y-12.23505
G01 X-11.74570 Y-12.24796
G01 X-11.70648 Y-12.26891
G01 X-11.67211 Y-12.29711
G01 X-11.64392 Y-12.33147
G01 X-11.62296 Y-12.37069
G01 X-11.61004 Y-12.41323
G01 X-11.60569 Y-12.45748
G01 X-11.60569 Y-12.83066
G01 X-11.25929 Y-12.83066
G04 P0 ( dwell for no time -- G64 should not smooth over this point )
G00 Z2.00000 ( retract )

G00 X-4.74487 Y-7.44289 ( rapid move to begin. )
G01 F60.00000
( Mill infeed pass 1/1 )
G01 Z-0.10000
G04 P0 ( dwell for no time -- G64 should not smooth over this point )
G01 F120.00000
G01 X-4.74487 Y-7.44289
G01 X-5.72679 Y-7.16679
G01 X-8.15000 Y-7.16679
G01 X-8.25025 Y-7.15800
G01 X-8.29386 Y-7.14934
G01 X-8.38317 Y-7.12145
G01 X-8.59686 Y-7.11172
G01 X-8.78639 Y-7.07144
G01 X-8.82899 Y-7.05381
G01 X-9.90948 Y-6.70179
G01 X-11.05634 Y-6.70179
G01 X-12.31768 Y-7.03285
G01 X-12.38562 Y-7.05767
G01 X-12.57267 Y-7.09615
G01 X-12.76358 Y-7.09739
G01 X-12.81074 Y-7.09244
G01 X-12.99728 Y-7.05152
G01 X-13.19340 Y-6.96422
G01 X-13.36705 Y-6.83806
G01 X-13.51069 Y-6.67852
G01 X-13.61801 Y-6.49260
G01 X-13.68435 Y-6.28848
G01 X-13.70678 Y-6.07499
G01 X-13.68435 Y-5.86151
G01 X-13.61801 Y-5.65734
G01 X-13.52362 Y-5.49135
G01 X-13.49576 Y-5.45300
G01 X-13.36705 Y-5.31193
G01 X-13.21331 Y-5.19869
G01 X-13.17224 Y-5.17497
G01 X-13.01943 Y-5.10695
G01 X-12.97432 Y-5.09229
G01 X-12.78733 Y-5.05381
G01 X-12.57267 Y-5.05381
G01 X-12.38562 Y-5.09229
G01 X-12.31793 Y-5.11701
G01 X-12.07884 Y-5.17896
G01 X-12.31793 Y-5.11701
G01 X-12.38562 Y-5.09229
G01 X-12.54920 Y-5.05752
G01 X-12.59637 Y-5.05257
G01 X-12.76358 Y-5.05257
G01 X-12.81074 Y-5.05752
G01 X-12.99728 Y-5.09844
G01 X-13.17224 Y-5.17497
G01 X-13.08021 Y-5.13400
G01 X-13.02238 Y-5.05503
G01 X-12.93584 Y-4.91835
G01 X-12.32230 Y-4.91835
G01 X-12.26114 Y-4.99687
G01 X-12.07884 Y-5.17896
G01 X-11.05538 Y-5.44817
G01 X-9.88456 Y-5.44817
G01 X-8.68843 Y-5.28645
G01 X-8.59686 Y-5.26826
G01 X-8.42681 Y-5.26702
G01 X-8.37966 Y-5.27197
G01 X-8.21360 Y-5.30855
G01 X-8.03659 Y-5.38737
G01 X-7.97476 Y-5.43075
G01 X-7.14949 Y-5.91317
G01 X-5.72579 Y-5.91317
G01 X-4.69052 Y-5.62186
G01 X-4.64210 Y-5.57908
G01 X-4.47286 Y-5.38320
G01 X-3.64254 Y-5.38335
G01 X-3.59364 Y-5.47398
G01 X-3.53024 Y-5.57553
G01 X-3.66723 Y-5.51589
G01 X-3.86397 Y-5.47281
G01 X-3.91114 Y-5.46783
G01 X-4.08884 Y-5.46783
G01 X-4.13598 Y-5.47281
G01 X-4.30980 Y-5.50974
G01 X-4.38153 Y-5.53626
G01 X-4.69052 Y-5.62186
G01 X-4.38153 Y-5.53626
G01 X-4.33273 Y-5.51589
G01 X-4.13598 Y-5.47281
G01 X-4.08884 Y-5.46783
G01 X-3.88742 Y-5.46908
G01 X-3.66723 Y-5.51589
G01 X-3.48275 Y-5.59666
G01 X-3.44167 Y-5.62038
G01 X-3.27947 Y-5.73977
G01 X-3.12885 Y-5.90705
G01 X-3.02707 Y-6.08086
G01 X-3.00777 Y-6.12417
G01 X-2.94673 Y-6.31612
G01 X-2.92318 Y-6.53999
G01 X-2.94300 Y-6.74042
G01 X-2.95285 Y-6.78680
G01 X-3.00777 Y-6.95579
G01 X-3.02707 Y-6.99912
G01 X-3.12885 Y-7.17291
G01 X-3.26268 Y-7.32343
G01 X-3.29791 Y-7.35515
G01 X-3.44167 Y-7.45960
G01 X-3.48275 Y-7.48330
G01 X-3.53291 Y-7.50565
G01 X-3.63121 Y-7.66752
G01 X-3.83129 Y-7.68990
G01 X-3.91411 Y-7.69427
G01 X-4.08584 Y-7.69427
G01 X-4.16867 Y-7.68990
G01 X-4.34043 Y-7.67187
G01 X-4.55953 Y-7.63946
G01 X-4.72120 Y-7.46349
G01 X-4.74487 Y-7.44289
G01 X-4.38132 Y-7.54383
G01 X-4.30980 Y-7.57024
G01 X-4.13598 Y-7.60717
G01 X-4.08884 Y-7.61213
G01 X-3.91114 Y-7.61213
G01 X-3.86397 Y-7.60717
G01 X-3.66723 Y-7.56409
G01 X-3.53291 Y-7.50565
G04 P0 ( dwell for no time -- G64 should not smooth over this point )
G00 Z2.00000 ( retract )

G00 X-4.46359 Y-17.50240 ( rapid move to begin. )
G01 F60.00000
( Mill infeed pass 1/1 )
G01 Z-0.10000
G04 P0 ( dwell for no time -- G64 should not smooth over this point )
G01 F120.00000
G01 X-4.46359 Y-17.50240
G01 X-4.46725 Y-17.51607
G01 X-4.47591 Y-17.52740
G01 X-4.46357 Y-17.54147
G01 X-4.47591 Y-17.52740
G01 X-4.48828 Y-17.53453
G01 X-4.50243 Y-17.53636
G01 X-4.50365 Y-17.55501
G01 X-4.50243 Y-17.53636
G01 X-4.51609 Y-17.53271
G01 X-4.52740 Y-17.52402
G01 X-4.54144 Y-17.53631
G01 X-4.52740 Y-17.52402
G01 X-4.53453 Y-17.51165
G01 X-4.53636 Y-17.49753
G01 X-4.55496 Y-17.49631
G01 X-4.53636 Y-17.49753
G01 X-4.53271 Y-17.48386
G01 X-4.52407 Y-17.47258
G01 X-4.53641 Y-17.45851
G01 X-4.52407 Y-17.47258
G01 X-4.51165 Y-17.46542
G01 X-4.49753 Y-17.46359
G01 X-4.49631 Y-17.44495
G01 X-4.49753 Y-17.46359
G01 X-4.48386 Y-17.46725
G01 X-4.47256 Y-17.47591
G01 X-4.45846 Y-17.46359
G01 X-4.47256 Y-17.47591
G01 X-4.46545 Y-17.48820
G01 X-4.46359 Y-17.50240
G01 X-4.23682 Y-17.51726
G01 X-4.25026 Y-17.58475
G01 X-4.24604 Y-17.58617
G01 X-4.25026 Y-17.58475
G01 X-4.26344 Y-17.61658
G01 X-4.30174 Y-17.67390
G01 X-4.29839 Y-17.67683
G01 X-4.30174 Y-17.67390
G01 X-4.35343 Y-17.71924
G01 X-4.38333 Y-17.73652
G01 X-4.38137 Y-17.74048
G01 X-4.38333 Y-17.73652
G01 X-4.41523 Y-17.74972
G01 X-4.48269 Y-17.76313
G01 X-4.48239 Y-17.76755
G01 X-4.48269 Y-17.76313
G01 X-4.51726 Y-17.76313
G01 X-4.58470 Y-17.74972
G01 X-4.58612 Y-17.75394
G01 X-4.58470 Y-17.74972
G01 X-4.64647 Y-17.71927
G01 X-4.67385 Y-17.69824
G01 X-4.67678 Y-17.70159
G01 X-4.67385 Y-17.69824
G01 X-4.71927 Y-17.64647
G01 X-4.73652 Y-17.61660
G01 X-4.74048 Y-17.61856
G01 X-4.73652 Y-17.61660
G01 X-4.75864 Y-17.55145
G01 X-4.76313 Y-17.51726
G01 X-4.76755 Y-17.51757
G01 X-4.76313 Y-17.51726
G01 X-4.76313 Y-17.48269
G01 X-4.74972 Y-17.41523
G01 X-4.75394 Y-17.41381
G01 X-4.74972 Y-17.41523
G01 X-4.73652 Y-17.38333
G01 X-4.69824 Y-17.32608
G01 X-4.70159 Y-17.32313
G01 X-4.69824 Y-17.32608
G01 X-4.64655 Y-17.28076
G01 X-4.61655 Y-17.26344
G01 X-4.61853 Y-17.25945
G01 X-4.61655 Y-17.26344
G01 X-4.58470 Y-17.25023
G01 X-4.51726 Y-17.23682
G01 X-4.51754 Y-17.23240
G01 X-4.51726 Y-17.23682
G01 X-4.48269 Y-17.23682
G01 X-4.41523 Y-17.25023
G01 X-4.41381 Y-17.24604
G01 X-4.41523 Y-17.25023
G01 X-4.38333 Y-17.26344
G01 X-4.32608 Y-17.30172
G01 X-4.32316 Y-17.29837
G01 X-4.32608 Y-17.30172
G01 X-4.30169 Y-17.32608
G01 X-4.26344 Y-17.38333
G01 X-4.25945 Y-17.38137
G01 X-4.26344 Y-17.38333
G01 X-4.25026 Y-17.41515
G01 X-4.23682 Y-17.48269
G01 X-4.23240 Y-17.48239
G01 X-4.23682 Y-17.48269
G01 X-4.23682 Y-17.51726
G01 X-4.01008 Y-17.53212
G01 X-4.01846 Y-17.59577
G01 X-4.01409 Y-17.59666
G01 X-4.01846 Y-17.59577
G01 X-4.03507 Y-17.65778
G01 X-4.05963 Y-17.71708
G01 X-4.09179 Y-17.77276
G01 X-4.08808 Y-17.77522
G01 X-4.09179 Y-17.77276
G01 X-4.13088 Y-17.82374
G01 X-4.17624 Y-17.86910
G01 X-4.22719 Y-17.90819
G01 X-4.22473 Y-17.91188
G01 X-4.22719 Y-17.90819
G01 X-4.28282 Y-17.94030
G01 X-4.34218 Y-17.96489
G01 X-4.40416 Y-17.98150
G01 X-4.40329 Y-17.98587
G01 X-4.40416 Y-17.98150
G01 X-4.46783 Y-17.98988
G01 X-4.53212 Y-17.98988
G01 X-4.59577 Y-17.98150
G01 X-4.59664 Y-17.98587
G01 X-4.59577 Y-17.98150
G01 X-4.65775 Y-17.96489
G01 X-4.71711 Y-17.94030
G01 X-4.77271 Y-17.90822
G01 X-4.77517 Y-17.91190
G01 X-4.77271 Y-17.90822
G01 X-4.82369 Y-17.86910
G01 X-4.86910 Y-17.82369
G01 X-4.90822 Y-17.77271
G01 X-4.91190 Y-17.77517
G01 X-4.90822 Y-17.77271
G01 X-4.94030 Y-17.71711
G01 X-4.96489 Y-17.65775
G01 X-4.98150 Y-17.59577
G01 X-4.98587 Y-17.59664
G01 X-4.98150 Y-17.59577
G01 X-4.98988 Y-17.53212
G01 X-4.98988 Y-17.46783
G01 X-4.98150 Y-17.40416
G01 X-4.98587 Y-17.40329
G01 X-4.98150 Y-17.40416
G01 X-4.96489 Y-17.34218
G01 X-4.94030 Y-17.28282
G01 X-4.90819 Y-17.22719
G01 X-4.91188 Y-17.22473
G01 X-4.90819 Y-17.22719
G01 X-4.86910 Y-17.17624
G01 X-4.82374 Y-17.13088
G01 X-4.77279 Y-17.09179
G01 X-4.77525 Y-17.08810
G01 X-4.77279 Y-17.09179
G01 X-4.71708 Y-17.05963
G01 X-4.65775 Y-17.03507
G01 X-4.59577 Y-17.01846
G01 X-4.59666 Y-17.01409
G01 X-4.59577 Y-17.01846
G01 X-4.53212 Y-17.01008
G01 X-4.46783 Y-17.01008
G01 X-4.40416 Y-17.01846
G01 X-4.40329 Y-17.01409
G01 X-4.40416 Y-17.01846
G01 X-4.34218 Y-17.03507
G01 X-4.28282 Y-17.05966
G01 X-4.22719 Y-17.09176
G01 X-4.22473 Y-17.08808
G01 X-4.22719 Y-17.09176
G01 X-4.17624 Y-17.13085
G01 X-4.13085 Y-17.17627
G01 X-4.09174 Y-17.22722
G01 X-4.08805 Y-17.22476
G01 X-4.09174 Y-17.22722
G01 X-4.05963 Y-17.28282
G01 X-4.03507 Y-17.34213
G01 X-4.01846 Y-17.40416
G01 X-4.01409 Y-17.40329
G01 X-4.01846 Y-17.40416
G01 X-4.01008 Y-17.46783
G01 X-4.01008 Y-17.53212
G01 X-3.78330 Y-17.54698
G01 X-3.79364 Y-17.64050
G01 X-3.81988 Y-17.73083
G01 X-3.85483 Y-17.81805
G01 X-3.90243 Y-17.89928
G01 X-3.95922 Y-17.97431
G01 X-4.02641 Y-18.03994
G01 X-4.10030 Y-18.09803
G01 X-4.18188 Y-18.14513
G01 X-4.26913 Y-18.18008
G01 X-4.35958 Y-18.20545
G01 X-4.45292 Y-18.21774
G01 X-4.54698 Y-18.21665
G01 X-4.64050 Y-18.20631
G01 X-4.73080 Y-18.18008
G01 X-4.81808 Y-18.14513
G01 X-4.89923 Y-18.09755
G01 X-4.97426 Y-18.04076
G01 X-5.03994 Y-17.97352
G01 X-5.09803 Y-17.89961
G01 X-5.14513 Y-17.81807
G01 X-5.18008 Y-17.73080
G01 X-5.20631 Y-17.64050
G01 X-5.21665 Y-17.54698
G01 X-5.21774 Y-17.45292
G01 X-5.20545 Y-17.35958
G01 X-5.18008 Y-17.26913
G01 X-5.14513 Y-17.18188
G01 X-5.09803 Y-17.10030
G01 X-5.03994 Y-17.02641
G01 X-4.97431 Y-16.95922
G01 X-4.89930 Y-16.90243
G01 X-4.81805 Y-16.85483
G01 X-4.73083 Y-16.81988
G01 X-4.64050 Y-16.79364
G01 X-4.54698 Y-16.78330
G01 X-4.45292 Y-16.78221
G01 X-4.35958 Y-16.79451
G01 X-4.26913 Y-16.81988
G01 X-4.18188 Y-16.85483
G01 X-4.10030 Y-16.90192
G01 X-4.02641 Y-16.96001
G01 X-3.95920 Y-17.02567
G01 X-3.90241 Y-17.10070
G01 X-3.85483 Y-17.18188
G01 X-3.81988 Y-17.26908
G01 X-3.79451 Y-17.35958
G01 X-3.78221 Y-17.45292
G01 X-3.78330 Y-17.54698
G01 X-3.55656 Y-17.56184
G01 X-3.57162 Y-17.68467
G01 X-3.60469 Y-17.80388
G01 X-3.65026 Y-17.91899
G01 X-3.71389 Y-18.02526
G01 X-3.78831 Y-18.12407
G01 X-3.87627 Y-18.21117
G01 X-3.97411 Y-18.28701
G01 X-4.08181 Y-18.34792
G01 X-4.19570 Y-18.39628
G01 X-4.31533 Y-18.42833
G01 X-4.43812 Y-18.44340
G01 X-4.56187 Y-18.44449
G01 X-4.68470 Y-18.42833
G01 X-4.80385 Y-18.39526
G01 X-4.91899 Y-18.34967
G01 X-5.02521 Y-18.28609
G01 X-5.12404 Y-18.21165
G01 X-5.21165 Y-18.12404
G01 X-5.28610 Y-18.02521
G01 X-5.34888 Y-17.91866
G01 X-5.39572 Y-17.80400
G01 X-5.42836 Y-17.68462
G01 X-5.44340 Y-17.56184
G01 X-5.44449 Y-17.43809
G01 X-5.42834 Y-17.31526
G01 X-5.39526 Y-17.19608
G01 X-5.34894 Y-17.08137
G01 X-5.28698 Y-16.97406
G01 X-5.21081 Y-16.87657
G01 X-5.12412 Y-16.78836
G01 X-5.02585 Y-16.71297
G01 X-4.91810 Y-16.65201
G01 X-4.80426 Y-16.60368
G01 X-4.68462 Y-16.57162
G01 X-4.56184 Y-16.55656
G01 X-4.43809 Y-16.55547
G01 X-4.31526 Y-16.57162
G01 X-4.19608 Y-16.60469
G01 X-4.08137 Y-16.65102
G01 X-3.97406 Y-16.71297
G01 X-3.87657 Y-16.78915
G01 X-3.78767 Y-16.87530
G01 X-3.71386 Y-16.97472
G01 X-3.65105 Y-17.08130
G01 X-3.60423 Y-17.19588
G01 X-3.57162 Y-17.31533
G01 X-3.55656 Y-17.43812
G01 X-3.55656 Y-17.56184
G01 X-3.32981 Y-17.57670
G01 X-3.34980 Y-17.72877
G01 X-3.38846 Y-17.87726
G01 X-3.44724 Y-18.01914
G01 X-3.52494 Y-18.15150
G01 X-3.61744 Y-18.27390
G01 X-3.72643 Y-18.38201
G01 X-3.84787 Y-18.47596
G01 X-3.98130 Y-18.55173
G01 X-4.12265 Y-18.61147
G01 X-4.27098 Y-18.65122
G01 X-4.42326 Y-18.67014
G01 X-4.57672 Y-18.67126
G01 X-4.72902 Y-18.65122
G01 X-4.87690 Y-18.61045
G01 X-5.01952 Y-18.55348
G01 X-5.15148 Y-18.47505
G01 X-5.27388 Y-18.38249
G01 X-5.38249 Y-18.27388
G01 X-5.47505 Y-18.15147
G01 X-5.55269 Y-18.01917
G01 X-5.61091 Y-17.87705
G01 X-5.65122 Y-17.72895
G01 X-5.67014 Y-17.57670
G01 X-5.67126 Y-17.42323
G01 X-5.65122 Y-17.27093
G01 X-5.61045 Y-17.12303
G01 X-5.55274 Y-16.98087
G01 X-5.47594 Y-16.84779
G01 X-5.38165 Y-16.72674
G01 X-5.27395 Y-16.61749
G01 X-5.15209 Y-16.52402
G01 X-5.01861 Y-16.44823
G01 X-4.87731 Y-16.38849
G01 X-4.72895 Y-16.34874
G01 X-4.57670 Y-16.32981
G01 X-4.42323 Y-16.32869
G01 X-4.27093 Y-16.34874
G01 X-4.12303 Y-16.38950
G01 X-3.98087 Y-16.44721
G01 X-3.84780 Y-16.52402
G01 X-3.72674 Y-16.61831
G01 X-3.61681 Y-16.72547
G01 X-3.52491 Y-16.84846
G01 X-3.44724 Y-16.98079
G01 X-3.38907 Y-17.12285
G01 X-3.34874 Y-17.27098
G01 X-3.32981 Y-17.42326
G01 X-3.32981 Y-17.57670
G01 X-3.10304 Y-17.59156
G01 X-3.12646 Y-17.77319
G01 X-3.17388 Y-17.95013
G01 X-3.24399 Y-18.11937
G01 X-3.33558 Y-18.27802
G01 X-3.44708 Y-18.42336
G01 X-3.57660 Y-18.55287
G01 X-3.72194 Y-18.66438
G01 X-3.88059 Y-18.75597
G01 X-4.04983 Y-18.82610
G01 X-4.22674 Y-18.87350
G01 X-4.40837 Y-18.89740
G01 X-4.59158 Y-18.89740
G01 X-4.77319 Y-18.87350
G01 X-4.95010 Y-18.82610
G01 X-5.11937 Y-18.75597
G01 X-5.27799 Y-18.66438
G01 X-5.42333 Y-18.55287
G01 X-5.55287 Y-18.42333
G01 X-5.66438 Y-18.27799
G01 X-5.75597 Y-18.11937
G01 X-5.82610 Y-17.95010
G01 X-5.87350 Y-17.77319
G01 X-5.89740 Y-17.59158
G01 X-5.89740 Y-17.40837
G01 X-5.87350 Y-17.22674
G01 X-5.82610 Y-17.04983
G01 X-5.75597 Y-16.88059
G01 X-5.66438 Y-16.72194
G01 X-5.55287 Y-16.57660
G01 X-5.42336 Y-16.44708
G01 X-5.27802 Y-16.33558
G01 X-5.11934 Y-16.24399
G01 X-4.95013 Y-16.17386
G01 X-4.77319 Y-16.12646
G01 X-4.59158 Y-16.10256
G01 X-4.40837 Y-16.10256
G01 X-4.22674 Y-16.12646
G01 X-4.04983 Y-16.17386
G01 X-3.88059 Y-16.24399
G01 X-3.72194 Y-16.33558
G01 X-3.57660 Y-16.44708
G01 X-3.44706 Y-16.57662
G01 X-3.33555 Y-16.72194
G01 X-3.24396 Y-16.88059
G01 X-3.17388 Y-17.04980
G01 X-3.12646 Y-17.22674
G01 X-3.10256 Y-17.40837
G01 X-3.10304 Y-17.59156
G01 X-2.87630 Y-17.60639
G01 X-2.90406 Y-17.81741
G01 X-2.95915 Y-18.02303
G01 X-3.04061 Y-18.21967
G01 X-3.14703 Y-18.40398
G01 X-3.27657 Y-18.57286
G01 X-3.42709 Y-18.72336
G01 X-3.59595 Y-18.85292
G01 X-3.78028 Y-18.95935
G01 X-3.97693 Y-19.04081
G01 X-4.18252 Y-19.09590
G01 X-4.39354 Y-19.12366
G01 X-4.60642 Y-19.12366
G01 X-4.81744 Y-19.09590
G01 X-5.02300 Y-19.04081
G01 X-5.21967 Y-18.95935
G01 X-5.40398 Y-18.85292
G01 X-5.57284 Y-18.72336
G01 X-5.72336 Y-18.57284
G01 X-5.85292 Y-18.40398
G01 X-5.95935 Y-18.21967
G01 X-6.04081 Y-18.02300
G01 X-6.09590 Y-17.81744
G01 X-6.12366 Y-17.60642
G01 X-6.12366 Y-17.39354
G01 X-6.09590 Y-17.18252
G01 X-6.04081 Y-16.97693
G01 X-5.95935 Y-16.78028
G01 X-5.85292 Y-16.59595
G01 X-5.72336 Y-16.42709
G01 X-5.57286 Y-16.27657
G01 X-5.40400 Y-16.14703
G01 X-5.21965 Y-16.04061
G01 X-5.02303 Y-15.95915
G01 X-4.81741 Y-15.90406
G01 X-4.60639 Y-15.87630
G01 X-4.39354 Y-15.87630
G01 X-4.18252 Y-15.90406
G01 X-3.97693 Y-15.95915
G01 X-3.78028 Y-16.04061
G01 X-3.59595 Y-16.14703
G01 X-3.42709 Y-16.27660
G01 X-3.27657 Y-16.42709
G01 X-3.14703 Y-16.59595
G01 X-3.04058 Y-16.78028
G01 X-2.95915 Y-16.97693
G01 X-2.90406 Y-17.18252
G01 X-2.87630 Y-17.39354
G01 X-2.87630 Y-17.60639

G04 P0 ( dwell for no time -- G64 should not smooth over this point )
G00 Z15.000000 ( retract )

M5 ( Spindle off. )
G04 P1.000000
M9 ( Coolant off. )
M2 ( Program end. )

