( pcb2gcode 2.5.0 )
( Software-independent Gcode )

G94 ( Millimeters per minute feed rate. )
G21 ( Units == Millimeters. )

G90 ( Absolute coordinates. )
G00 S13000 ( RPM spindle speed. )
G01 F120.00000 ( Feedrate. )


G00 Z15.00000 (Retract to tool change height)
T0
M5      (Spindle stop.)
G04 P1.00000 (Wait for spindle to stop)
(MSG, Change tool bit to cutter diameter 1.00000mm)
M6      (Tool change.)
M0      (Temporary machine stop.)
M3 ( Spindle on clockwise. )
G04 P1.00000 (Wait for spindle to get up to speed)
G04 P0 ( dwell for no time -- G64 should not smooth over this point )
G00 Z2.00000 ( retract )

G00 X-0.49997 Y-17.49999 ( rapid move to begin. )
G01 Z-0.50000 F60.00000 ( plunge. )
G04 P0 ( dwell for no time -- G64 should not smooth over this point )
G01 F120.00000
G01 X-0.50239 Y-2.95097
G01 X-0.54082 Y-2.56078
G01 X-0.55994 Y-2.46466
G01 X-0.67373 Y-2.08948
G01 X-0.71125 Y-1.99888
G01 X-0.89609 Y-1.65311
G01 X-0.95054 Y-1.57165
G01 X-1.19926 Y-1.26858
G01 X-1.26858 Y-1.19926
G01 X-1.57165 Y-0.95054
G01 X-1.65311 Y-0.89609
G01 X-1.99888 Y-0.71125
G01 X-2.08948 Y-0.67373
G01 X-2.46466 Y-0.55994
G01 X-2.56078 Y-0.54082
G01 X-2.99999 Y-0.49997
G01 X-29.99999 Y-0.49997
G01 X-30.43916 Y-0.54082
G01 X-30.53527 Y-0.55994
G01 X-30.95666 Y-0.69027
G01 X-31.34683 Y-0.89609
G01 X-31.42831 Y-0.95054
G01 X-31.73138 Y-1.19926
G01 X-31.80070 Y-1.26858
G01 X-32.07865 Y-1.61105
G01 X-32.28868 Y-1.99890
G01 X-32.32620 Y-2.08945
G01 X-32.45193 Y-2.51224
G01 X-32.49999 Y-2.99999
G01 X-32.49999 Y-17.49999
G01 X-32.43031 Y-18.23179
G01 X-32.41119 Y-18.32790
G01 X-32.19549 Y-19.03072
G01 X-31.85107 Y-19.68017
G01 X-31.79661 Y-19.76166
G01 X-31.36135 Y-20.29203
G01 X-31.29204 Y-20.36135
G01 X-30.76166 Y-20.79661
G01 X-30.68018 Y-20.85106
G01 X-30.07507 Y-21.17451
G01 X-29.98450 Y-21.21202
G01 X-29.32791 Y-21.41118
G01 X-29.23179 Y-21.43031
G01 X-28.49999 Y-21.49998
G01 X-4.49999 Y-21.49998
G01 X-3.76814 Y-21.43031
G01 X-3.67200 Y-21.41118
G01 X-3.01544 Y-21.21202
G01 X-2.92489 Y-21.17451
G01 X-2.31978 Y-20.85106
G01 X-2.23830 Y-20.79661
G01 X-1.70792 Y-20.36135
G01 X-1.63860 Y-20.29206
G01 X-1.17409 Y-19.72226
G01 X-0.82545 Y-19.07507
G01 X-0.78793 Y-18.98452
G01 X-0.57683 Y-18.28033
G01 X-0.49997 Y-17.49999
G01 Z-1.00000 F60.00000 ( plunge. )
G04 P0 ( dwell for no time -- G64 should not smooth over this point )
G01 F120.00000
G01 X-0.50239 Y-2.95097
G01 X-0.54082 Y-2.56078
G01 X-0.55994 Y-2.46466
G01 X-0.67373 Y-2.08948
G01 X-0.71125 Y-1.99888
G01 X-0.89609 Y-1.65311
G01 X-0.95054 Y-1.57165
G01 X-1.19926 Y-1.26858
G01 X-1.26858 Y-1.19926
G01 X-1.57165 Y-0.95054
G01 X-1.65311 Y-0.89609
G01 X-1.99888 Y-0.71125
G01 X-2.08948 Y-0.67373
G01 X-2.46466 Y-0.55994
G01 X-2.56078 Y-0.54082
G01 X-2.99999 Y-0.49997
G01 X-29.99999 Y-0.49997
G01 X-30.43916 Y-0.54082
G01 X-30.53527 Y-0.55994
G01 X-30.95666 Y-0.69027
G01 X-31.34683 Y-0.89609
G01 X-31.42831 Y-0.95054
G01 X-31.73138 Y-1.19926
G01 X-31.80070 Y-1.26858
G01 X-32.07865 Y-1.61105
G01 X-32.28868 Y-1.99890
G01 X-32.32620 Y-2.08945
G01 X-32.45193 Y-2.51224
G01 X-32.49999 Y-2.99999
G01 X-32.49999 Y-17.49999
G01 X-32.43031 Y-18.23179
G01 X-32.41119 Y-18.32790
G01 X-32.19549 Y-19.03072
G01 X-31.85107 Y-19.68017
G01 X-31.79661 Y-19.76166
G01 X-31.36135 Y-20.29203
G01 X-31.29204 Y-20.36135
G01 X-30.76166 Y-20.79661
G01 X-30.68018 Y-20.85106
G01 X-30.07507 Y-21.17451
G01 X-29.98450 Y-21.21202
G01 X-29.32791 Y-21.41118
G01 X-29.23179 Y-21.43031
G01 X-28.49999 Y-21.49998
G01 X-4.49999 Y-21.49998
G01 X-3.76814 Y-21.43031
G01 X-3.67200 Y-21.41118
G01 X-3.01544 Y-21.21202
G01 X-2.92489 Y-21.17451
G01 X-2.31978 Y-20.85106
G01 X-2.23830 Y-20.79661
G01 X-1.70792 Y-20.36135
G01 X-1.63860 Y-20.29206
G01 X-1.17409 Y-19.72226
G01 X-0.82545 Y-19.07507
G01 X-0.78793 Y-18.98452
G01 X-0.57683 Y-18.28033
G01 X-0.49997 Y-17.49999
G01 Z-1.50000 F60.00000 ( plunge. )
G04 P0 ( dwell for no time -- G64 should not smooth over this point )
G01 F120.00000
G01 X-0.50239 Y-2.95097
G01 X-0.54082 Y-2.56078
G01 X-0.55994 Y-2.46466
G01 X-0.67373 Y-2.08948
G01 X-0.71125 Y-1.99888
G01 X-0.89609 Y-1.65311
G01 X-0.95054 Y-1.57165
G01 X-1.19926 Y-1.26858
G01 X-1.26858 Y-1.19926
G01 X-1.57165 Y-0.95054
G01 X-1.65311 Y-0.89609
G01 X-1.99888 Y-0.71125
G01 X-2.08948 Y-0.67373
G01 X-2.46466 Y-0.55994
G01 X-2.56078 Y-0.54082
G01 X-2.99999 Y-0.49997
G01 X-29.99999 Y-0.49997
G01 X-30.43916 Y-0.54082
G01 X-30.53527 Y-0.55994
G01 X-30.95666 Y-0.69027
G01 X-31.34683 Y-0.89609
G01 X-31.42831 Y-0.95054
G01 X-31.73138 Y-1.19926
G01 X-31.80070 Y-1.26858
G01 X-32.07865 Y-1.61105
G01 X-32.28868 Y-1.99890
G01 X-32.32620 Y-2.08945
G01 X-32.45193 Y-2.51224
G01 X-32.49999 Y-2.99999
G01 X-32.49999 Y-17.49999
G01 X-32.43031 Y-18.23179
G01 X-32.41119 Y-18.32790
G01 X-32.19549 Y-19.03072
G01 X-31.85107 Y-19.68017
G01 X-31.79661 Y-19.76166
G01 X-31.36135 Y-20.29203
G01 X-31.29204 Y-20.36135
G01 X-30.76166 Y-20.79661
G01 X-30.68018 Y-20.85106
G01 X-30.07507 Y-21.17451
G01 X-29.98450 Y-21.21202
G01 X-29.32791 Y-21.41118
G01 X-29.23179 Y-21.43031
G01 X-28.49999 Y-21.49998
G01 X-4.49999 Y-21.49998
G01 X-3.76814 Y-21.43031
G01 X-3.67200 Y-21.41118
G01 X-3.01544 Y-21.21202
G01 X-2.92489 Y-21.17451
G01 X-2.31978 Y-20.85106
G01 X-2.23830 Y-20.79661
G01 X-1.70792 Y-20.36135
G01 X-1.63860 Y-20.29206
G01 X-1.17409 Y-19.72226
G01 X-0.82545 Y-19.07507
G01 X-0.78793 Y-18.98452
G01 X-0.57683 Y-18.28033
G01 X-0.49997 Y-17.49999
G01 Z-2.00000 F60.00000 ( plunge. )
G04 P0 ( dwell for no time -- G64 should not smooth over this point )
G01 F120.00000
G01 X-0.50239 Y-2.95097
G01 X-0.54082 Y-2.56078
G01 X-0.55994 Y-2.46466
G01 X-0.67373 Y-2.08948
G01 X-0.71125 Y-1.99888
G01 X-0.89609 Y-1.65311
G01 X-0.95054 Y-1.57165
G01 X-1.19926 Y-1.26858
G01 X-1.26858 Y-1.19926
G01 X-1.57165 Y-0.95054
G01 X-1.65311 Y-0.89609
G01 X-1.99888 Y-0.71125
G01 X-2.08948 Y-0.67373
G01 X-2.46466 Y-0.55994
G01 X-2.56078 Y-0.54082
G01 X-2.99999 Y-0.49997
G01 X-29.99999 Y-0.49997
G01 X-30.43916 Y-0.54082
G01 X-30.53527 Y-0.55994
G01 X-30.95666 Y-0.69027
G01 X-31.34683 Y-0.89609
G01 X-31.42831 Y-0.95054
G01 X-31.73138 Y-1.19926
G01 X-31.80070 Y-1.26858
G01 X-32.07865 Y-1.61105
G01 X-32.28868 Y-1.99890
G01 X-32.32620 Y-2.08945
G01 X-32.45193 Y-2.51224
G01 X-32.49999 Y-2.99999
G01 X-32.49999 Y-17.49999
G01 X-32.43031 Y-18.23179
G01 X-32.41119 Y-18.32790
G01 X-32.19549 Y-19.03072
G01 X-31.85107 Y-19.68017
G01 X-31.79661 Y-19.76166
G01 X-31.36135 Y-20.29203
G01 X-31.29204 Y-20.36135
G01 X-30.76166 Y-20.79661
G01 X-30.68018 Y-20.85106
G01 X-30.07507 Y-21.17451
G01 X-29.98450 Y-21.21202
G01 X-29.32791 Y-21.41118
G01 X-29.23179 Y-21.43031
G01 X-28.49999 Y-21.49998
G01 X-4.49999 Y-21.49998
G01 X-3.76814 Y-21.43031
G01 X-3.67200 Y-21.41118
G01 X-3.01544 Y-21.21202
G01 X-2.92489 Y-21.17451
G01 X-2.31978 Y-20.85106
G01 X-2.23830 Y-20.79661
G01 X-1.70792 Y-20.36135
G01 X-1.63860 Y-20.29206
G01 X-1.17409 Y-19.72226
G01 X-0.82545 Y-19.07507
G01 X-0.78793 Y-18.98452
G01 X-0.57683 Y-18.28033
G01 X-0.49997 Y-17.49999
G01 Z-2.50000 F60.00000 ( plunge. )
G04 P0 ( dwell for no time -- G64 should not smooth over this point )
G01 F120.00000
G01 X-0.50239 Y-2.95097
G01 X-0.54082 Y-2.56078
G01 X-0.55994 Y-2.46466
G01 X-0.67373 Y-2.08948
G01 X-0.71125 Y-1.99888
G01 X-0.89609 Y-1.65311
G01 X-0.95054 Y-1.57165
G01 X-1.19926 Y-1.26858
G01 X-1.26858 Y-1.19926
G01 X-1.57165 Y-0.95054
G01 X-1.65311 Y-0.89609
G01 X-1.99888 Y-0.71125
G01 X-2.08948 Y-0.67373
G01 X-2.46466 Y-0.55994
G01 X-2.56078 Y-0.54082
G01 X-2.99999 Y-0.49997
G01 X-29.99999 Y-0.49997
G01 X-30.43916 Y-0.54082
G01 X-30.53527 Y-0.55994
G01 X-30.95666 Y-0.69027
G01 X-31.34683 Y-0.89609
G01 X-31.42831 Y-0.95054
G01 X-31.73138 Y-1.19926
G01 X-31.80070 Y-1.26858
G01 X-32.07865 Y-1.61105
G01 X-32.28868 Y-1.99890
G01 X-32.32620 Y-2.08945
G01 X-32.45193 Y-2.51224
G01 X-32.49999 Y-2.99999
G01 X-32.49999 Y-17.49999
G01 X-32.43031 Y-18.23179
G01 X-32.41119 Y-18.32790
G01 X-32.19549 Y-19.03072
G01 X-31.85107 Y-19.68017
G01 X-31.79661 Y-19.76166
G01 X-31.36135 Y-20.29203
G01 X-31.29204 Y-20.36135
G01 X-30.76166 Y-20.79661
G01 X-30.68018 Y-20.85106
G01 X-30.07507 Y-21.17451
G01 X-29.98450 Y-21.21202
G01 X-29.32791 Y-21.41118
G01 X-29.23179 Y-21.43031
G01 X-28.49999 Y-21.49998
G01 X-4.49999 Y-21.49998
G01 X-3.76814 Y-21.43031
G01 X-3.67200 Y-21.41118
G01 X-3.01544 Y-21.21202
G01 X-2.92489 Y-21.17451
G01 X-2.31978 Y-20.85106
G01 X-2.23830 Y-20.79661
G01 X-1.70792 Y-20.36135
G01 X-1.63860 Y-20.29206
G01 X-1.17409 Y-19.72226
G01 X-0.82545 Y-19.07507
G01 X-0.78793 Y-18.98452
G01 X-0.57683 Y-18.28033
G01 X-0.49997 Y-17.49999

G04 P0 ( dwell for no time -- G64 should not smooth over this point )
G00 Z15.000000 ( retract )

M5 ( Spindle off. )
G04 P1.000000
M9 ( Coolant off. )
M2 ( Program end. )

