; generated by Gcodify V1.0.0
; GCODE HEADER
G21                ; set units to mm
G90                ; set distance mode to absolute positioning 
G94                ; set feedrate mode to mm/min 
G0 Z2.0000         ; goto safe z position for rapid moves
G0 X0.0000 Y0.0000 ; goto min xy position 
M03 S12000         ; turn on spindle
;  
; GCODE BODY
G0 X0.0000 Y0.0000
G1 Z-0.5000 F20
G1 X-280.0000 Y0.0000 F200
G0 Z2.0000
G0 X0.0000 Y-18.0000
G1 Z-0.5000 F20
G1 X-280.0000 Y-18.0000 F200
G0 Z2.0000
G0 X0.0000 Y-36.0000
G1 Z-0.5000 F20
G1 X-280.0000 Y-36.0000 F200
G0 Z2.0000
G0 X0.0000 Y-54.0000
G1 Z-0.5000 F20
G1 X-280.0000 Y-54.0000 F200
G0 Z2.0000
G0 X0.0000 Y-72.0000
G1 Z-0.5000 F20
G1 X-280.0000 Y-72.0000 F200
G0 Z2.0000
G0 X0.0000 Y-90.0000
G1 Z-0.5000 F20
G1 X-280.0000 Y-90.0000 F200
G0 Z2.0000
G0 X0.0000 Y-108.0000
G1 Z-0.5000 F20
G1 X-280.0000 Y-108.0000 F200
G0 Z2.0000
G0 X0.0000 Y-126.0000
G1 Z-0.5000 F20
G1 X-280.0000 Y-126.0000 F200
G0 Z2.0000
G0 X0.0000 Y-144.0000
G1 Z-0.5000 F20
G1 X-280.0000 Y-144.0000 F200
G0 Z2.0000
G0 X0.0000 Y-162.0000
G1 Z-0.5000 F20
G1 X-280.0000 Y-162.0000 F200
G0 Z2.0000
G0 X0.0000 Y-172.0000
G1 Z-0.5000 F20
G1 X-280.0000 Y-172.0000 F200
G0 Z2.0000
G0 Z2.0000
G0 X0.0000 Y0.0000
G0 X0.0000 Y0.0000
G1 Z-0.5000 F20
G1 X0.0000 Y-172.0000 F200
G0 Z2.0000
G0 X-18.0000 Y0.0000
G1 Z-0.5000 F20
G1 X-18.0000 Y-172.0000 F200
G0 Z2.0000
G0 X-36.0000 Y0.0000
G1 Z-0.5000 F20
G1 X-36.0000 Y-172.0000 F200
G0 Z2.0000
G0 X-54.0000 Y0.0000
G1 Z-0.5000 F20
G1 X-54.0000 Y-172.0000 F200
G0 Z2.0000
G0 X-72.0000 Y0.0000
G1 Z-0.5000 F20
G1 X-72.0000 Y-172.0000 F200
G0 Z2.0000
G0 X-90.0000 Y0.0000
G1 Z-0.5000 F20
G1 X-90.0000 Y-172.0000 F200
G0 Z2.0000
G0 X-108.0000 Y0.0000
G1 Z-0.5000 F20
G1 X-108.0000 Y-172.0000 F200
G0 Z2.0000
G0 X-126.0000 Y0.0000
G1 Z-0.5000 F20
G1 X-126.0000 Y-172.0000 F200
G0 Z2.0000
G0 X-144.0000 Y0.0000
G1 Z-0.5000 F20
G1 X-144.0000 Y-172.0000 F200
G0 Z2.0000
G0 X-162.0000 Y0.0000
G1 Z-0.5000 F20
G1 X-162.0000 Y-172.0000 F200
G0 Z2.0000
G0 X-180.0000 Y0.0000
G1 Z-0.5000 F20
G1 X-180.0000 Y-172.0000 F200
G0 Z2.0000
G0 X-198.0000 Y0.0000
G1 Z-0.5000 F20
G1 X-198.0000 Y-172.0000 F200
G0 Z2.0000
G0 X-216.0000 Y0.0000
G1 Z-0.5000 F20
G1 X-216.0000 Y-172.0000 F200
G0 Z2.0000
G0 X-234.0000 Y0.0000
G1 Z-0.5000 F20
G1 X-234.0000 Y-172.0000 F200
G0 Z2.0000
G0 X-252.0000 Y0.0000
G1 Z-0.5000 F20
G1 X-252.0000 Y-172.0000 F200
G0 Z2.0000
G0 X-270.0000 Y0.0000
G1 Z-0.5000 F20
G1 X-270.0000 Y-172.0000 F200
G0 Z2.0000
G0 X-280.0000 Y0.0000
G1 Z-0.5000 F20
G1 X-280.0000 Y-172.0000 F200
G0 Z2.0000
;  
; GCODE FOOTER
G0 Z2.0000
M05                ; turn off spindle 
G0 X0.0000 Y0.0000
