(Exported by FreeCAD)
(Post Processor: script_module)
(Output Time:2024-12-11 13:39:11.470608)
(Begin preamble)
G17 G90
G21
(Begin operation: Fixture)
(Path: Fixture)
G54
(Finish operation: Fixture)
(Begin operation: eighth_endmill001)
(Path: eighth_endmill001)
(eighth_endmill001)
(Begin toolchange)
( M6 T1 )
M3 S1300
(Finish operation: eighth_endmill001)
(Begin operation: Helix)
(Path: Helix)
(Helix)
(helix cut operation)
G0 Z6.000
G0 Z6.000
G0 X-12.500 Y-12.500 Z6.000
G0 X-12.500 Y-12.500 Z1.000
G0 X-4.460 Y-12.500
G1 Z1.000 F800.000
G2 X-20.540 Y-12.500 Z0.312 I-8.040 J0.000 F800.000
G2 X-4.460 Y-12.500 Z-0.375 I8.040 J0.000 F800.000
G2 X-20.540 Y-12.500 Z-1.062 I-8.040 J0.000 F800.000
G2 X-4.460 Y-12.500 Z-1.750 I8.040 J0.000 F800.000
G2 X-20.540 Y-12.500 Z-1.750 I-8.040 J0.000 F800.000
G2 X-4.460 Y-12.500 Z-1.750 I8.040 J0.000 F800.000
G0 Z1.000
G0 X-5.751 Y-12.500
G1 Z1.000 F800.000
G2 X-19.249 Y-12.500 Z0.312 I-6.749 J0.000 F800.000
G2 X-5.751 Y-12.500 Z-0.375 I6.749 J0.000 F800.000
G2 X-19.249 Y-12.500 Z-1.062 I-6.749 J0.000 F800.000
G2 X-5.751 Y-12.500 Z-1.750 I6.749 J0.000 F800.000
G2 X-19.249 Y-12.500 Z-1.750 I-6.749 J0.000 F800.000
G2 X-5.751 Y-12.500 Z-1.750 I6.749 J0.000 F800.000
G0 Z1.000
G0 X-7.042 Y-12.500
G1 Z1.000 F800.000
G2 X-17.958 Y-12.500 Z0.312 I-5.458 J0.000 F800.000
G2 X-7.042 Y-12.500 Z-0.375 I5.458 J0.000 F800.000
G2 X-17.958 Y-12.500 Z-1.062 I-5.458 J0.000 F800.000
G2 X-7.042 Y-12.500 Z-1.750 I5.458 J0.000 F800.000
G2 X-17.958 Y-12.500 Z-1.750 I-5.458 J0.000 F800.000
G2 X-7.042 Y-12.500 Z-1.750 I5.458 J0.000 F800.000
G0 Z1.000
G0 X-8.333 Y-12.500
G1 Z1.000 F800.000
G2 X-16.667 Y-12.500 Z0.312 I-4.167 J0.000 F800.000
G2 X-8.333 Y-12.500 Z-0.375 I4.167 J0.000 F800.000
G2 X-16.667 Y-12.500 Z-1.062 I-4.167 J0.000 F800.000
G2 X-8.333 Y-12.500 Z-1.750 I4.167 J0.000 F800.000
G2 X-16.667 Y-12.500 Z-1.750 I-4.167 J0.000 F800.000
G2 X-8.333 Y-12.500 Z-1.750 I4.167 J0.000 F800.000
G0 Z1.000
G0 X-9.624 Y-12.500
G1 Z1.000 F800.000
G2 X-15.376 Y-12.500 Z0.312 I-2.876 J0.000 F800.000
G2 X-9.624 Y-12.500 Z-0.375 I2.876 J0.000 F800.000
G2 X-15.376 Y-12.500 Z-1.062 I-2.876 J0.000 F800.000
G2 X-9.624 Y-12.500 Z-1.750 I2.876 J0.000 F800.000
G2 X-15.376 Y-12.500 Z-1.750 I-2.876 J0.000 F800.000
G2 X-9.624 Y-12.500 Z-1.750 I2.876 J0.000 F800.000
G0 Z1.000
G0 X-10.915 Y-12.500
G1 Z1.000 F800.000
G2 X-14.085 Y-12.500 Z0.312 I-1.585 J0.000 F800.000
G2 X-10.915 Y-12.500 Z-0.375 I1.585 J0.000 F800.000
G2 X-14.085 Y-12.500 Z-1.062 I-1.585 J0.000 F800.000
G2 X-10.915 Y-12.500 Z-1.750 I1.585 J0.000 F800.000
G2 X-14.085 Y-12.500 Z-1.750 I-1.585 J0.000 F800.000
G2 X-10.915 Y-12.500 Z-1.750 I1.585 J0.000 F800.000
G0 Z1.000
G0 Z6.000
G0 X-12.500 Y-37.500 Z6.000
G0 X-12.500 Y-37.500 Z1.000
G0 X-4.460 Y-37.500
G1 Z1.000 F800.000
G2 X-20.540 Y-37.500 Z0.312 I-8.040 J0.000 F800.000
G2 X-4.460 Y-37.500 Z-0.375 I8.040 J0.000 F800.000
G2 X-20.540 Y-37.500 Z-1.062 I-8.040 J0.000 F800.000
G2 X-4.460 Y-37.500 Z-1.750 I8.040 J0.000 F800.000
G2 X-20.540 Y-37.500 Z-1.750 I-8.040 J0.000 F800.000
G2 X-4.460 Y-37.500 Z-1.750 I8.040 J0.000 F800.000
G0 Z1.000
G0 X-5.751 Y-37.500
G1 Z1.000 F800.000
G2 X-19.249 Y-37.500 Z0.312 I-6.749 J0.000 F800.000
G2 X-5.751 Y-37.500 Z-0.375 I6.749 J0.000 F800.000
G2 X-19.249 Y-37.500 Z-1.062 I-6.749 J0.000 F800.000
G2 X-5.751 Y-37.500 Z-1.750 I6.749 J0.000 F800.000
G2 X-19.249 Y-37.500 Z-1.750 I-6.749 J0.000 F800.000
G2 X-5.751 Y-37.500 Z-1.750 I6.749 J0.000 F800.000
G0 Z1.000
G0 X-7.042 Y-37.500
G1 Z1.000 F800.000
G2 X-17.958 Y-37.500 Z0.312 I-5.458 J0.000 F800.000
G2 X-7.042 Y-37.500 Z-0.375 I5.458 J0.000 F800.000
G2 X-17.958 Y-37.500 Z-1.062 I-5.458 J0.000 F800.000
G2 X-7.042 Y-37.500 Z-1.750 I5.458 J0.000 F800.000
G2 X-17.958 Y-37.500 Z-1.750 I-5.458 J0.000 F800.000
G2 X-7.042 Y-37.500 Z-1.750 I5.458 J0.000 F800.000
G0 Z1.000
G0 X-8.333 Y-37.500
G1 Z1.000 F800.000
G2 X-16.667 Y-37.500 Z0.312 I-4.167 J0.000 F800.000
G2 X-8.333 Y-37.500 Z-0.375 I4.167 J0.000 F800.000
G2 X-16.667 Y-37.500 Z-1.062 I-4.167 J0.000 F800.000
G2 X-8.333 Y-37.500 Z-1.750 I4.167 J0.000 F800.000
G2 X-16.667 Y-37.500 Z-1.750 I-4.167 J0.000 F800.000
G2 X-8.333 Y-37.500 Z-1.750 I4.167 J0.000 F800.000
G0 Z1.000
G0 X-9.624 Y-37.500
G1 Z1.000 F800.000
G2 X-15.376 Y-37.500 Z0.312 I-2.876 J0.000 F800.000
G2 X-9.624 Y-37.500 Z-0.375 I2.876 J0.000 F800.000
G2 X-15.376 Y-37.500 Z-1.062 I-2.876 J0.000 F800.000
G2 X-9.624 Y-37.500 Z-1.750 I2.876 J0.000 F800.000
G2 X-15.376 Y-37.500 Z-1.750 I-2.876 J0.000 F800.000
G2 X-9.624 Y-37.500 Z-1.750 I2.876 J0.000 F800.000
G0 Z1.000
G0 X-10.915 Y-37.500
G1 Z1.000 F800.000
G2 X-14.085 Y-37.500 Z0.312 I-1.585 J0.000 F800.000
G2 X-10.915 Y-37.500 Z-0.375 I1.585 J0.000 F800.000
G2 X-14.085 Y-37.500 Z-1.062 I-1.585 J0.000 F800.000
G2 X-10.915 Y-37.500 Z-1.750 I1.585 J0.000 F800.000
G2 X-14.085 Y-37.500 Z-1.750 I-1.585 J0.000 F800.000
G2 X-10.915 Y-37.500 Z-1.750 I1.585 J0.000 F800.000
G0 Z1.000
G0 Z6.000
G0 X-12.500 Y-62.500 Z6.000
G0 X-12.500 Y-62.500 Z1.000
G0 X-4.460 Y-62.500
G1 Z1.000 F800.000
G2 X-20.540 Y-62.500 Z0.312 I-8.040 J0.000 F800.000
G2 X-4.460 Y-62.500 Z-0.375 I8.040 J0.000 F800.000
G2 X-20.540 Y-62.500 Z-1.062 I-8.040 J0.000 F800.000
G2 X-4.460 Y-62.500 Z-1.750 I8.040 J0.000 F800.000
G2 X-20.540 Y-62.500 Z-1.750 I-8.040 J0.000 F800.000
G2 X-4.460 Y-62.500 Z-1.750 I8.040 J0.000 F800.000
G0 Z1.000
G0 X-5.751 Y-62.500
G1 Z1.000 F800.000
G2 X-19.249 Y-62.500 Z0.312 I-6.749 J0.000 F800.000
G2 X-5.751 Y-62.500 Z-0.375 I6.749 J0.000 F800.000
G2 X-19.249 Y-62.500 Z-1.062 I-6.749 J0.000 F800.000
G2 X-5.751 Y-62.500 Z-1.750 I6.749 J0.000 F800.000
G2 X-19.249 Y-62.500 Z-1.750 I-6.749 J0.000 F800.000
G2 X-5.751 Y-62.500 Z-1.750 I6.749 J0.000 F800.000
G0 Z1.000
G0 X-7.042 Y-62.500
G1 Z1.000 F800.000
G2 X-17.958 Y-62.500 Z0.312 I-5.458 J0.000 F800.000
G2 X-7.042 Y-62.500 Z-0.375 I5.458 J0.000 F800.000
G2 X-17.958 Y-62.500 Z-1.062 I-5.458 J0.000 F800.000
G2 X-7.042 Y-62.500 Z-1.750 I5.458 J0.000 F800.000
G2 X-17.958 Y-62.500 Z-1.750 I-5.458 J0.000 F800.000
G2 X-7.042 Y-62.500 Z-1.750 I5.458 J0.000 F800.000
G0 Z1.000
G0 X-8.333 Y-62.500
G1 Z1.000 F800.000
G2 X-16.667 Y-62.500 Z0.312 I-4.167 J0.000 F800.000
G2 X-8.333 Y-62.500 Z-0.375 I4.167 J0.000 F800.000
G2 X-16.667 Y-62.500 Z-1.062 I-4.167 J0.000 F800.000
G2 X-8.333 Y-62.500 Z-1.750 I4.167 J0.000 F800.000
G2 X-16.667 Y-62.500 Z-1.750 I-4.167 J0.000 F800.000
G2 X-8.333 Y-62.500 Z-1.750 I4.167 J0.000 F800.000
G0 Z1.000
G0 X-9.624 Y-62.500
G1 Z1.000 F800.000
G2 X-15.376 Y-62.500 Z0.312 I-2.876 J0.000 F800.000
G2 X-9.624 Y-62.500 Z-0.375 I2.876 J0.000 F800.000
G2 X-15.376 Y-62.500 Z-1.062 I-2.876 J0.000 F800.000
G2 X-9.624 Y-62.500 Z-1.750 I2.876 J0.000 F800.000
G2 X-15.376 Y-62.500 Z-1.750 I-2.876 J0.000 F800.000
G2 X-9.624 Y-62.500 Z-1.750 I2.876 J0.000 F800.000
G0 Z1.000
G0 X-10.915 Y-62.500
G1 Z1.000 F800.000
G2 X-14.085 Y-62.500 Z0.312 I-1.585 J0.000 F800.000
G2 X-10.915 Y-62.500 Z-0.375 I1.585 J0.000 F800.000
G2 X-14.085 Y-62.500 Z-1.062 I-1.585 J0.000 F800.000
G2 X-10.915 Y-62.500 Z-1.750 I1.585 J0.000 F800.000
G2 X-14.085 Y-62.500 Z-1.750 I-1.585 J0.000 F800.000
G2 X-10.915 Y-62.500 Z-1.750 I1.585 J0.000 F800.000
G0 Z1.000
G0 Z6.000
G0 X12.500 Y-62.500 Z6.000
G0 X12.500 Y-62.500 Z1.000
G0 X20.540 Y-62.500
G1 Z1.000 F800.000
G2 X4.460 Y-62.500 Z0.312 I-8.040 J0.000 F800.000
G2 X20.540 Y-62.500 Z-0.375 I8.040 J0.000 F800.000
G2 X4.460 Y-62.500 Z-1.062 I-8.040 J0.000 F800.000
G2 X20.540 Y-62.500 Z-1.750 I8.040 J0.000 F800.000
G2 X4.460 Y-62.500 Z-1.750 I-8.040 J0.000 F800.000
G2 X20.540 Y-62.500 Z-1.750 I8.040 J0.000 F800.000
G0 Z1.000
G0 X19.249 Y-62.500
G1 Z1.000 F800.000
G2 X5.751 Y-62.500 Z0.312 I-6.749 J0.000 F800.000
G2 X19.249 Y-62.500 Z-0.375 I6.749 J0.000 F800.000
G2 X5.751 Y-62.500 Z-1.062 I-6.749 J0.000 F800.000
G2 X19.249 Y-62.500 Z-1.750 I6.749 J0.000 F800.000
G2 X5.751 Y-62.500 Z-1.750 I-6.749 J0.000 F800.000
G2 X19.249 Y-62.500 Z-1.750 I6.749 J0.000 F800.000
G0 Z1.000
G0 X17.958 Y-62.500
G1 Z1.000 F800.000
G2 X7.042 Y-62.500 Z0.312 I-5.458 J0.000 F800.000
G2 X17.958 Y-62.500 Z-0.375 I5.458 J0.000 F800.000
G2 X7.042 Y-62.500 Z-1.062 I-5.458 J0.000 F800.000
G2 X17.958 Y-62.500 Z-1.750 I5.458 J0.000 F800.000
G2 X7.042 Y-62.500 Z-1.750 I-5.458 J0.000 F800.000
G2 X17.958 Y-62.500 Z-1.750 I5.458 J0.000 F800.000
G0 Z1.000
G0 X16.667 Y-62.500
G1 Z1.000 F800.000
G2 X8.333 Y-62.500 Z0.312 I-4.167 J0.000 F800.000
G2 X16.667 Y-62.500 Z-0.375 I4.167 J0.000 F800.000
G2 X8.333 Y-62.500 Z-1.062 I-4.167 J0.000 F800.000
G2 X16.667 Y-62.500 Z-1.750 I4.167 J0.000 F800.000
G2 X8.333 Y-62.500 Z-1.750 I-4.167 J0.000 F800.000
G2 X16.667 Y-62.500 Z-1.750 I4.167 J0.000 F800.000
G0 Z1.000
G0 X15.376 Y-62.500
G1 Z1.000 F800.000
G2 X9.624 Y-62.500 Z0.312 I-2.876 J0.000 F800.000
G2 X15.376 Y-62.500 Z-0.375 I2.876 J0.000 F800.000
G2 X9.624 Y-62.500 Z-1.062 I-2.876 J0.000 F800.000
G2 X15.376 Y-62.500 Z-1.750 I2.876 J0.000 F800.000
G2 X9.624 Y-62.500 Z-1.750 I-2.876 J0.000 F800.000
G2 X15.376 Y-62.500 Z-1.750 I2.876 J0.000 F800.000
G0 Z1.000
G0 X14.085 Y-62.500
G1 Z1.000 F800.000
G2 X10.915 Y-62.500 Z0.312 I-1.585 J0.000 F800.000
G2 X14.085 Y-62.500 Z-0.375 I1.585 J0.000 F800.000
G2 X10.915 Y-62.500 Z-1.062 I-1.585 J0.000 F800.000
G2 X14.085 Y-62.500 Z-1.750 I1.585 J0.000 F800.000
G2 X10.915 Y-62.500 Z-1.750 I-1.585 J0.000 F800.000
G2 X14.085 Y-62.500 Z-1.750 I1.585 J0.000 F800.000
G0 Z1.000
G0 Z6.000
G0 X12.500 Y-37.500 Z6.000
G0 X12.500 Y-37.500 Z1.000
G0 X20.540 Y-37.500
G1 Z1.000 F800.000
G2 X4.460 Y-37.500 Z0.312 I-8.040 J0.000 F800.000
G2 X20.540 Y-37.500 Z-0.375 I8.040 J0.000 F800.000
G2 X4.460 Y-37.500 Z-1.062 I-8.040 J0.000 F800.000
G2 X20.540 Y-37.500 Z-1.750 I8.040 J0.000 F800.000
G2 X4.460 Y-37.500 Z-1.750 I-8.040 J0.000 F800.000
G2 X20.540 Y-37.500 Z-1.750 I8.040 J0.000 F800.000
G0 Z1.000
G0 X19.249 Y-37.500
G1 Z1.000 F800.000
G2 X5.751 Y-37.500 Z0.312 I-6.749 J0.000 F800.000
G2 X19.249 Y-37.500 Z-0.375 I6.749 J0.000 F800.000
G2 X5.751 Y-37.500 Z-1.062 I-6.749 J0.000 F800.000
G2 X19.249 Y-37.500 Z-1.750 I6.749 J0.000 F800.000
G2 X5.751 Y-37.500 Z-1.750 I-6.749 J0.000 F800.000
G2 X19.249 Y-37.500 Z-1.750 I6.749 J0.000 F800.000
G0 Z1.000
G0 X17.958 Y-37.500
G1 Z1.000 F800.000
G2 X7.042 Y-37.500 Z0.312 I-5.458 J0.000 F800.000
G2 X17.958 Y-37.500 Z-0.375 I5.458 J0.000 F800.000
G2 X7.042 Y-37.500 Z-1.062 I-5.458 J0.000 F800.000
G2 X17.958 Y-37.500 Z-1.750 I5.458 J0.000 F800.000
G2 X7.042 Y-37.500 Z-1.750 I-5.458 J0.000 F800.000
G2 X17.958 Y-37.500 Z-1.750 I5.458 J0.000 F800.000
G0 Z1.000
G0 X16.667 Y-37.500
G1 Z1.000 F800.000
G2 X8.333 Y-37.500 Z0.312 I-4.167 J0.000 F800.000
G2 X16.667 Y-37.500 Z-0.375 I4.167 J0.000 F800.000
G2 X8.333 Y-37.500 Z-1.062 I-4.167 J0.000 F800.000
G2 X16.667 Y-37.500 Z-1.750 I4.167 J0.000 F800.000
G2 X8.333 Y-37.500 Z-1.750 I-4.167 J0.000 F800.000
G2 X16.667 Y-37.500 Z-1.750 I4.167 J0.000 F800.000
G0 Z1.000
G0 X15.376 Y-37.500
G1 Z1.000 F800.000
G2 X9.624 Y-37.500 Z0.312 I-2.876 J0.000 F800.000
G2 X15.376 Y-37.500 Z-0.375 I2.876 J0.000 F800.000
G2 X9.624 Y-37.500 Z-1.062 I-2.876 J0.000 F800.000
G2 X15.376 Y-37.500 Z-1.750 I2.876 J0.000 F800.000
G2 X9.624 Y-37.500 Z-1.750 I-2.876 J0.000 F800.000
G2 X15.376 Y-37.500 Z-1.750 I2.876 J0.000 F800.000
G0 Z1.000
G0 X14.085 Y-37.500
G1 Z1.000 F800.000
G2 X10.915 Y-37.500 Z0.312 I-1.585 J0.000 F800.000
G2 X14.085 Y-37.500 Z-0.375 I1.585 J0.000 F800.000
G2 X10.915 Y-37.500 Z-1.062 I-1.585 J0.000 F800.000
G2 X14.085 Y-37.500 Z-1.750 I1.585 J0.000 F800.000
G2 X10.915 Y-37.500 Z-1.750 I-1.585 J0.000 F800.000
G2 X14.085 Y-37.500 Z-1.750 I1.585 J0.000 F800.000
G0 Z1.000
G0 Z6.000
G0 X12.500 Y-12.500 Z6.000
G0 X12.500 Y-12.500 Z1.000
G0 X20.540 Y-12.500
G1 Z1.000 F800.000
G2 X4.460 Y-12.500 Z0.312 I-8.040 J0.000 F800.000
G2 X20.540 Y-12.500 Z-0.375 I8.040 J0.000 F800.000
G2 X4.460 Y-12.500 Z-1.062 I-8.040 J0.000 F800.000
G2 X20.540 Y-12.500 Z-1.750 I8.040 J0.000 F800.000
G2 X4.460 Y-12.500 Z-1.750 I-8.040 J0.000 F800.000
G2 X20.540 Y-12.500 Z-1.750 I8.040 J0.000 F800.000
G0 Z1.000
G0 X19.249 Y-12.500
G1 Z1.000 F800.000
G2 X5.751 Y-12.500 Z0.312 I-6.749 J0.000 F800.000
G2 X19.249 Y-12.500 Z-0.375 I6.749 J0.000 F800.000
G2 X5.751 Y-12.500 Z-1.062 I-6.749 J0.000 F800.000
G2 X19.249 Y-12.500 Z-1.750 I6.749 J0.000 F800.000
G2 X5.751 Y-12.500 Z-1.750 I-6.749 J0.000 F800.000
G2 X19.249 Y-12.500 Z-1.750 I6.749 J0.000 F800.000
G0 Z1.000
G0 X17.958 Y-12.500
G1 Z1.000 F800.000
G2 X7.042 Y-12.500 Z0.312 I-5.458 J0.000 F800.000
G2 X17.958 Y-12.500 Z-0.375 I5.458 J0.000 F800.000
G2 X7.042 Y-12.500 Z-1.062 I-5.458 J0.000 F800.000
G2 X17.958 Y-12.500 Z-1.750 I5.458 J0.000 F800.000
G2 X7.042 Y-12.500 Z-1.750 I-5.458 J0.000 F800.000
G2 X17.958 Y-12.500 Z-1.750 I5.458 J0.000 F800.000
G0 Z1.000
G0 X16.667 Y-12.500
G1 Z1.000 F800.000
G2 X8.333 Y-12.500 Z0.312 I-4.167 J0.000 F800.000
G2 X16.667 Y-12.500 Z-0.375 I4.167 J0.000 F800.000
G2 X8.333 Y-12.500 Z-1.062 I-4.167 J0.000 F800.000
G2 X16.667 Y-12.500 Z-1.750 I4.167 J0.000 F800.000
G2 X8.333 Y-12.500 Z-1.750 I-4.167 J0.000 F800.000
G2 X16.667 Y-12.500 Z-1.750 I4.167 J0.000 F800.000
G0 Z1.000
G0 X15.376 Y-12.500
G1 Z1.000 F800.000
G2 X9.624 Y-12.500 Z0.312 I-2.876 J0.000 F800.000
G2 X15.376 Y-12.500 Z-0.375 I2.876 J0.000 F800.000
G2 X9.624 Y-12.500 Z-1.062 I-2.876 J0.000 F800.000
G2 X15.376 Y-12.500 Z-1.750 I2.876 J0.000 F800.000
G2 X9.624 Y-12.500 Z-1.750 I-2.876 J0.000 F800.000
G2 X15.376 Y-12.500 Z-1.750 I2.876 J0.000 F800.000
G0 Z1.000
G0 X14.085 Y-12.500
G1 Z1.000 F800.000
G2 X10.915 Y-12.500 Z0.312 I-1.585 J0.000 F800.000
G2 X14.085 Y-12.500 Z-0.375 I1.585 J0.000 F800.000
G2 X10.915 Y-12.500 Z-1.062 I-1.585 J0.000 F800.000
G2 X14.085 Y-12.500 Z-1.750 I1.585 J0.000 F800.000
G2 X10.915 Y-12.500 Z-1.750 I-1.585 J0.000 F800.000
G2 X14.085 Y-12.500 Z-1.750 I1.585 J0.000 F800.000
G0 Z1.000
G0 Z6.000
G0 X12.500 Y12.500 Z6.000
G0 X12.500 Y12.500 Z1.000
G0 X20.540 Y12.500
G1 Z1.000 F800.000
G2 X4.460 Y12.500 Z0.312 I-8.040 J0.000 F800.000
G2 X20.540 Y12.500 Z-0.375 I8.040 J0.000 F800.000
G2 X4.460 Y12.500 Z-1.062 I-8.040 J0.000 F800.000
G2 X20.540 Y12.500 Z-1.750 I8.040 J0.000 F800.000
G2 X4.460 Y12.500 Z-1.750 I-8.040 J0.000 F800.000
G2 X20.540 Y12.500 Z-1.750 I8.040 J0.000 F800.000
G0 Z1.000
G0 X19.249 Y12.500
G1 Z1.000 F800.000
G2 X5.751 Y12.500 Z0.312 I-6.749 J0.000 F800.000
G2 X19.249 Y12.500 Z-0.375 I6.749 J0.000 F800.000
G2 X5.751 Y12.500 Z-1.062 I-6.749 J0.000 F800.000
G2 X19.249 Y12.500 Z-1.750 I6.749 J0.000 F800.000
G2 X5.751 Y12.500 Z-1.750 I-6.749 J0.000 F800.000
G2 X19.249 Y12.500 Z-1.750 I6.749 J0.000 F800.000
G0 Z1.000
G0 X17.958 Y12.500
G1 Z1.000 F800.000
G2 X7.042 Y12.500 Z0.312 I-5.458 J0.000 F800.000
G2 X17.958 Y12.500 Z-0.375 I5.458 J0.000 F800.000
G2 X7.042 Y12.500 Z-1.062 I-5.458 J0.000 F800.000
G2 X17.958 Y12.500 Z-1.750 I5.458 J0.000 F800.000
G2 X7.042 Y12.500 Z-1.750 I-5.458 J0.000 F800.000
G2 X17.958 Y12.500 Z-1.750 I5.458 J0.000 F800.000
G0 Z1.000
G0 X16.667 Y12.500
G1 Z1.000 F800.000
G2 X8.333 Y12.500 Z0.312 I-4.167 J0.000 F800.000
G2 X16.667 Y12.500 Z-0.375 I4.167 J0.000 F800.000
G2 X8.333 Y12.500 Z-1.062 I-4.167 J0.000 F800.000
G2 X16.667 Y12.500 Z-1.750 I4.167 J0.000 F800.000
G2 X8.333 Y12.500 Z-1.750 I-4.167 J0.000 F800.000
G2 X16.667 Y12.500 Z-1.750 I4.167 J0.000 F800.000
G0 Z1.000
G0 X15.376 Y12.500
G1 Z1.000 F800.000
G2 X9.624 Y12.500 Z0.312 I-2.876 J0.000 F800.000
G2 X15.376 Y12.500 Z-0.375 I2.876 J0.000 F800.000
G2 X9.624 Y12.500 Z-1.062 I-2.876 J0.000 F800.000
G2 X15.376 Y12.500 Z-1.750 I2.876 J0.000 F800.000
G2 X9.624 Y12.500 Z-1.750 I-2.876 J0.000 F800.000
G2 X15.376 Y12.500 Z-1.750 I2.876 J0.000 F800.000
G0 Z1.000
G0 X14.085 Y12.500
G1 Z1.000 F800.000
G2 X10.915 Y12.500 Z0.312 I-1.585 J0.000 F800.000
G2 X14.085 Y12.500 Z-0.375 I1.585 J0.000 F800.000
G2 X10.915 Y12.500 Z-1.062 I-1.585 J0.000 F800.000
G2 X14.085 Y12.500 Z-1.750 I1.585 J0.000 F800.000
G2 X10.915 Y12.500 Z-1.750 I-1.585 J0.000 F800.000
G2 X14.085 Y12.500 Z-1.750 I1.585 J0.000 F800.000
G0 Z1.000
G0 Z6.000
G0 X-12.500 Y12.500 Z6.000
G0 X-12.500 Y12.500 Z1.000
G0 X-4.460 Y12.500
G1 Z1.000 F800.000
G2 X-20.540 Y12.500 Z0.312 I-8.040 J0.000 F800.000
G2 X-4.460 Y12.500 Z-0.375 I8.040 J0.000 F800.000
G2 X-20.540 Y12.500 Z-1.062 I-8.040 J0.000 F800.000
G2 X-4.460 Y12.500 Z-1.750 I8.040 J0.000 F800.000
G2 X-20.540 Y12.500 Z-1.750 I-8.040 J0.000 F800.000
G2 X-4.460 Y12.500 Z-1.750 I8.040 J0.000 F800.000
G0 Z1.000
G0 X-5.751 Y12.500
G1 Z1.000 F800.000
G2 X-19.249 Y12.500 Z0.312 I-6.749 J0.000 F800.000
G2 X-5.751 Y12.500 Z-0.375 I6.749 J0.000 F800.000
G2 X-19.249 Y12.500 Z-1.062 I-6.749 J0.000 F800.000
G2 X-5.751 Y12.500 Z-1.750 I6.749 J0.000 F800.000
G2 X-19.249 Y12.500 Z-1.750 I-6.749 J0.000 F800.000
G2 X-5.751 Y12.500 Z-1.750 I6.749 J0.000 F800.000
G0 Z1.000
G0 X-7.042 Y12.500
G1 Z1.000 F800.000
G2 X-17.958 Y12.500 Z0.312 I-5.458 J0.000 F800.000
G2 X-7.042 Y12.500 Z-0.375 I5.458 J0.000 F800.000
G2 X-17.958 Y12.500 Z-1.062 I-5.458 J0.000 F800.000
G2 X-7.042 Y12.500 Z-1.750 I5.458 J0.000 F800.000
G2 X-17.958 Y12.500 Z-1.750 I-5.458 J0.000 F800.000
G2 X-7.042 Y12.500 Z-1.750 I5.458 J0.000 F800.000
G0 Z1.000
G0 X-8.333 Y12.500
G1 Z1.000 F800.000
G2 X-16.667 Y12.500 Z0.312 I-4.167 J0.000 F800.000
G2 X-8.333 Y12.500 Z-0.375 I4.167 J0.000 F800.000
G2 X-16.667 Y12.500 Z-1.062 I-4.167 J0.000 F800.000
G2 X-8.333 Y12.500 Z-1.750 I4.167 J0.000 F800.000
G2 X-16.667 Y12.500 Z-1.750 I-4.167 J0.000 F800.000
G2 X-8.333 Y12.500 Z-1.750 I4.167 J0.000 F800.000
G0 Z1.000
G0 X-9.624 Y12.500
G1 Z1.000 F800.000
G2 X-15.376 Y12.500 Z0.312 I-2.876 J0.000 F800.000
G2 X-9.624 Y12.500 Z-0.375 I2.876 J0.000 F800.000
G2 X-15.376 Y12.500 Z-1.062 I-2.876 J0.000 F800.000
G2 X-9.624 Y12.500 Z-1.750 I2.876 J0.000 F800.000
G2 X-15.376 Y12.500 Z-1.750 I-2.876 J0.000 F800.000
G2 X-9.624 Y12.500 Z-1.750 I2.876 J0.000 F800.000
G0 Z1.000
G0 X-10.915 Y12.500
G1 Z1.000 F800.000
G2 X-14.085 Y12.500 Z0.312 I-1.585 J0.000 F800.000
G2 X-10.915 Y12.500 Z-0.375 I1.585 J0.000 F800.000
G2 X-14.085 Y12.500 Z-1.062 I-1.585 J0.000 F800.000
G2 X-10.915 Y12.500 Z-1.750 I1.585 J0.000 F800.000
G2 X-14.085 Y12.500 Z-1.750 I-1.585 J0.000 F800.000
G2 X-10.915 Y12.500 Z-1.750 I1.585 J0.000 F800.000
G0 Z1.000
G0 Z6.000
G0 X-12.500 Y37.500 Z6.000
G0 X-12.500 Y37.500 Z1.000
G0 X-4.460 Y37.500
G1 Z1.000 F800.000
G2 X-20.540 Y37.500 Z0.312 I-8.040 J0.000 F800.000
G2 X-4.460 Y37.500 Z-0.375 I8.040 J0.000 F800.000
G2 X-20.540 Y37.500 Z-1.062 I-8.040 J0.000 F800.000
G2 X-4.460 Y37.500 Z-1.750 I8.040 J0.000 F800.000
G2 X-20.540 Y37.500 Z-1.750 I-8.040 J0.000 F800.000
G2 X-4.460 Y37.500 Z-1.750 I8.040 J0.000 F800.000
G0 Z1.000
G0 X-5.751 Y37.500
G1 Z1.000 F800.000
G2 X-19.249 Y37.500 Z0.312 I-6.749 J0.000 F800.000
G2 X-5.751 Y37.500 Z-0.375 I6.749 J0.000 F800.000
G2 X-19.249 Y37.500 Z-1.062 I-6.749 J0.000 F800.000
G2 X-5.751 Y37.500 Z-1.750 I6.749 J0.000 F800.000
G2 X-19.249 Y37.500 Z-1.750 I-6.749 J0.000 F800.000
G2 X-5.751 Y37.500 Z-1.750 I6.749 J0.000 F800.000
G0 Z1.000
G0 X-7.042 Y37.500
G1 Z1.000 F800.000
G2 X-17.958 Y37.500 Z0.312 I-5.458 J0.000 F800.000
G2 X-7.042 Y37.500 Z-0.375 I5.458 J0.000 F800.000
G2 X-17.958 Y37.500 Z-1.062 I-5.458 J0.000 F800.000
G2 X-7.042 Y37.500 Z-1.750 I5.458 J0.000 F800.000
G2 X-17.958 Y37.500 Z-1.750 I-5.458 J0.000 F800.000
G2 X-7.042 Y37.500 Z-1.750 I5.458 J0.000 F800.000
G0 Z1.000
G0 X-8.333 Y37.500
G1 Z1.000 F800.000
G2 X-16.667 Y37.500 Z0.312 I-4.167 J0.000 F800.000
G2 X-8.333 Y37.500 Z-0.375 I4.167 J0.000 F800.000
G2 X-16.667 Y37.500 Z-1.062 I-4.167 J0.000 F800.000
G2 X-8.333 Y37.500 Z-1.750 I4.167 J0.000 F800.000
G2 X-16.667 Y37.500 Z-1.750 I-4.167 J0.000 F800.000
G2 X-8.333 Y37.500 Z-1.750 I4.167 J0.000 F800.000
G0 Z1.000
G0 X-9.624 Y37.500
G1 Z1.000 F800.000
G2 X-15.376 Y37.500 Z0.312 I-2.876 J0.000 F800.000
G2 X-9.624 Y37.500 Z-0.375 I2.876 J0.000 F800.000
G2 X-15.376 Y37.500 Z-1.062 I-2.876 J0.000 F800.000
G2 X-9.624 Y37.500 Z-1.750 I2.876 J0.000 F800.000
G2 X-15.376 Y37.500 Z-1.750 I-2.876 J0.000 F800.000
G2 X-9.624 Y37.500 Z-1.750 I2.876 J0.000 F800.000
G0 Z1.000
G0 X-10.915 Y37.500
G1 Z1.000 F800.000
G2 X-14.085 Y37.500 Z0.312 I-1.585 J0.000 F800.000
G2 X-10.915 Y37.500 Z-0.375 I1.585 J0.000 F800.000
G2 X-14.085 Y37.500 Z-1.062 I-1.585 J0.000 F800.000
G2 X-10.915 Y37.500 Z-1.750 I1.585 J0.000 F800.000
G2 X-14.085 Y37.500 Z-1.750 I-1.585 J0.000 F800.000
G2 X-10.915 Y37.500 Z-1.750 I1.585 J0.000 F800.000
G0 Z1.000
G0 Z6.000
G0 X-12.500 Y62.500 Z6.000
G0 X-12.500 Y62.500 Z1.000
G0 X-4.460 Y62.500
G1 Z1.000 F800.000
G2 X-20.540 Y62.500 Z0.312 I-8.040 J0.000 F800.000
G2 X-4.460 Y62.500 Z-0.375 I8.040 J0.000 F800.000
G2 X-20.540 Y62.500 Z-1.062 I-8.040 J0.000 F800.000
G2 X-4.460 Y62.500 Z-1.750 I8.040 J0.000 F800.000
G2 X-20.540 Y62.500 Z-1.750 I-8.040 J0.000 F800.000
G2 X-4.460 Y62.500 Z-1.750 I8.040 J0.000 F800.000
G0 Z1.000
G0 X-5.751 Y62.500
G1 Z1.000 F800.000
G2 X-19.249 Y62.500 Z0.312 I-6.749 J0.000 F800.000
G2 X-5.751 Y62.500 Z-0.375 I6.749 J0.000 F800.000
G2 X-19.249 Y62.500 Z-1.062 I-6.749 J0.000 F800.000
G2 X-5.751 Y62.500 Z-1.750 I6.749 J0.000 F800.000
G2 X-19.249 Y62.500 Z-1.750 I-6.749 J0.000 F800.000
G2 X-5.751 Y62.500 Z-1.750 I6.749 J0.000 F800.000
G0 Z1.000
G0 X-7.042 Y62.500
G1 Z1.000 F800.000
G2 X-17.958 Y62.500 Z0.312 I-5.458 J0.000 F800.000
G2 X-7.042 Y62.500 Z-0.375 I5.458 J0.000 F800.000
G2 X-17.958 Y62.500 Z-1.062 I-5.458 J0.000 F800.000
G2 X-7.042 Y62.500 Z-1.750 I5.458 J0.000 F800.000
G2 X-17.958 Y62.500 Z-1.750 I-5.458 J0.000 F800.000
G2 X-7.042 Y62.500 Z-1.750 I5.458 J0.000 F800.000
G0 Z1.000
G0 X-8.333 Y62.500
G1 Z1.000 F800.000
G2 X-16.667 Y62.500 Z0.312 I-4.167 J0.000 F800.000
G2 X-8.333 Y62.500 Z-0.375 I4.167 J0.000 F800.000
G2 X-16.667 Y62.500 Z-1.062 I-4.167 J0.000 F800.000
G2 X-8.333 Y62.500 Z-1.750 I4.167 J0.000 F800.000
G2 X-16.667 Y62.500 Z-1.750 I-4.167 J0.000 F800.000
G2 X-8.333 Y62.500 Z-1.750 I4.167 J0.000 F800.000
G0 Z1.000
G0 X-9.624 Y62.500
G1 Z1.000 F800.000
G2 X-15.376 Y62.500 Z0.312 I-2.876 J0.000 F800.000
G2 X-9.624 Y62.500 Z-0.375 I2.876 J0.000 F800.000
G2 X-15.376 Y62.500 Z-1.062 I-2.876 J0.000 F800.000
G2 X-9.624 Y62.500 Z-1.750 I2.876 J0.000 F800.000
G2 X-15.376 Y62.500 Z-1.750 I-2.876 J0.000 F800.000
G2 X-9.624 Y62.500 Z-1.750 I2.876 J0.000 F800.000
G0 Z1.000
G0 X-10.915 Y62.500
G1 Z1.000 F800.000
G2 X-14.085 Y62.500 Z0.312 I-1.585 J0.000 F800.000
G2 X-10.915 Y62.500 Z-0.375 I1.585 J0.000 F800.000
G2 X-14.085 Y62.500 Z-1.062 I-1.585 J0.000 F800.000
G2 X-10.915 Y62.500 Z-1.750 I1.585 J0.000 F800.000
G2 X-14.085 Y62.500 Z-1.750 I-1.585 J0.000 F800.000
G2 X-10.915 Y62.500 Z-1.750 I1.585 J0.000 F800.000
G0 Z1.000
G0 Z6.000
G0 X12.500 Y62.500 Z6.000
G0 X12.500 Y62.500 Z1.000
G0 X20.540 Y62.500
G1 Z1.000 F800.000
G2 X4.460 Y62.500 Z0.312 I-8.040 J0.000 F800.000
G2 X20.540 Y62.500 Z-0.375 I8.040 J0.000 F800.000
G2 X4.460 Y62.500 Z-1.062 I-8.040 J0.000 F800.000
G2 X20.540 Y62.500 Z-1.750 I8.040 J0.000 F800.000
G2 X4.460 Y62.500 Z-1.750 I-8.040 J0.000 F800.000
G2 X20.540 Y62.500 Z-1.750 I8.040 J0.000 F800.000
G0 Z1.000
G0 X19.249 Y62.500
G1 Z1.000 F800.000
G2 X5.751 Y62.500 Z0.312 I-6.749 J0.000 F800.000
G2 X19.249 Y62.500 Z-0.375 I6.749 J0.000 F800.000
G2 X5.751 Y62.500 Z-1.062 I-6.749 J0.000 F800.000
G2 X19.249 Y62.500 Z-1.750 I6.749 J0.000 F800.000
G2 X5.751 Y62.500 Z-1.750 I-6.749 J0.000 F800.000
G2 X19.249 Y62.500 Z-1.750 I6.749 J0.000 F800.000
G0 Z1.000
G0 X17.958 Y62.500
G1 Z1.000 F800.000
G2 X7.042 Y62.500 Z0.312 I-5.458 J0.000 F800.000
G2 X17.958 Y62.500 Z-0.375 I5.458 J0.000 F800.000
G2 X7.042 Y62.500 Z-1.062 I-5.458 J0.000 F800.000
G2 X17.958 Y62.500 Z-1.750 I5.458 J0.000 F800.000
G2 X7.042 Y62.500 Z-1.750 I-5.458 J0.000 F800.000
G2 X17.958 Y62.500 Z-1.750 I5.458 J0.000 F800.000
G0 Z1.000
G0 X16.667 Y62.500
G1 Z1.000 F800.000
G2 X8.333 Y62.500 Z0.312 I-4.167 J0.000 F800.000
G2 X16.667 Y62.500 Z-0.375 I4.167 J0.000 F800.000
G2 X8.333 Y62.500 Z-1.062 I-4.167 J0.000 F800.000
G2 X16.667 Y62.500 Z-1.750 I4.167 J0.000 F800.000
G2 X8.333 Y62.500 Z-1.750 I-4.167 J0.000 F800.000
G2 X16.667 Y62.500 Z-1.750 I4.167 J0.000 F800.000
G0 Z1.000
G0 X15.376 Y62.500
G1 Z1.000 F800.000
G2 X9.624 Y62.500 Z0.312 I-2.876 J0.000 F800.000
G2 X15.376 Y62.500 Z-0.375 I2.876 J0.000 F800.000
G2 X9.624 Y62.500 Z-1.062 I-2.876 J0.000 F800.000
G2 X15.376 Y62.500 Z-1.750 I2.876 J0.000 F800.000
G2 X9.624 Y62.500 Z-1.750 I-2.876 J0.000 F800.000
G2 X15.376 Y62.500 Z-1.750 I2.876 J0.000 F800.000
G0 Z1.000
G0 X14.085 Y62.500
G1 Z1.000 F800.000
G2 X10.915 Y62.500 Z0.312 I-1.585 J0.000 F800.000
G2 X14.085 Y62.500 Z-0.375 I1.585 J0.000 F800.000
G2 X10.915 Y62.500 Z-1.062 I-1.585 J0.000 F800.000
G2 X14.085 Y62.500 Z-1.750 I1.585 J0.000 F800.000
G2 X10.915 Y62.500 Z-1.750 I-1.585 J0.000 F800.000
G2 X14.085 Y62.500 Z-1.750 I1.585 J0.000 F800.000
G0 Z1.000
G0 Z6.000
G0 X12.500 Y37.500 Z6.000
G0 X12.500 Y37.500 Z1.000
G0 X20.540 Y37.500
G1 Z1.000 F800.000
G2 X4.460 Y37.500 Z0.312 I-8.040 J0.000 F800.000
G2 X20.540 Y37.500 Z-0.375 I8.040 J0.000 F800.000
G2 X4.460 Y37.500 Z-1.062 I-8.040 J0.000 F800.000
G2 X20.540 Y37.500 Z-1.750 I8.040 J0.000 F800.000
G2 X4.460 Y37.500 Z-1.750 I-8.040 J0.000 F800.000
G2 X20.540 Y37.500 Z-1.750 I8.040 J0.000 F800.000
G0 Z1.000
G0 X19.249 Y37.500
G1 Z1.000 F800.000
G2 X5.751 Y37.500 Z0.312 I-6.749 J0.000 F800.000
G2 X19.249 Y37.500 Z-0.375 I6.749 J0.000 F800.000
G2 X5.751 Y37.500 Z-1.062 I-6.749 J0.000 F800.000
G2 X19.249 Y37.500 Z-1.750 I6.749 J0.000 F800.000
G2 X5.751 Y37.500 Z-1.750 I-6.749 J0.000 F800.000
G2 X19.249 Y37.500 Z-1.750 I6.749 J0.000 F800.000
G0 Z1.000
G0 X17.958 Y37.500
G1 Z1.000 F800.000
G2 X7.042 Y37.500 Z0.312 I-5.458 J0.000 F800.000
G2 X17.958 Y37.500 Z-0.375 I5.458 J0.000 F800.000
G2 X7.042 Y37.500 Z-1.062 I-5.458 J0.000 F800.000
G2 X17.958 Y37.500 Z-1.750 I5.458 J0.000 F800.000
G2 X7.042 Y37.500 Z-1.750 I-5.458 J0.000 F800.000
G2 X17.958 Y37.500 Z-1.750 I5.458 J0.000 F800.000
G0 Z1.000
G0 X16.667 Y37.500
G1 Z1.000 F800.000
G2 X8.333 Y37.500 Z0.312 I-4.167 J0.000 F800.000
G2 X16.667 Y37.500 Z-0.375 I4.167 J0.000 F800.000
G2 X8.333 Y37.500 Z-1.062 I-4.167 J0.000 F800.000
G2 X16.667 Y37.500 Z-1.750 I4.167 J0.000 F800.000
G2 X8.333 Y37.500 Z-1.750 I-4.167 J0.000 F800.000
G2 X16.667 Y37.500 Z-1.750 I4.167 J0.000 F800.000
G0 Z1.000
G0 X15.376 Y37.500
G1 Z1.000 F800.000
G2 X9.624 Y37.500 Z0.312 I-2.876 J0.000 F800.000
G2 X15.376 Y37.500 Z-0.375 I2.876 J0.000 F800.000
G2 X9.624 Y37.500 Z-1.062 I-2.876 J0.000 F800.000
G2 X15.376 Y37.500 Z-1.750 I2.876 J0.000 F800.000
G2 X9.624 Y37.500 Z-1.750 I-2.876 J0.000 F800.000
G2 X15.376 Y37.500 Z-1.750 I2.876 J0.000 F800.000
G0 Z1.000
G0 X14.085 Y37.500
G1 Z1.000 F800.000
G2 X10.915 Y37.500 Z0.312 I-1.585 J0.000 F800.000
G2 X14.085 Y37.500 Z-0.375 I1.585 J0.000 F800.000
G2 X10.915 Y37.500 Z-1.062 I-1.585 J0.000 F800.000
G2 X14.085 Y37.500 Z-1.750 I1.585 J0.000 F800.000
G2 X10.915 Y37.500 Z-1.750 I-1.585 J0.000 F800.000
G2 X14.085 Y37.500 Z-1.750 I1.585 J0.000 F800.000
G0 Z1.000
G0 Z6.000
G0 X37.500 Y37.500 Z6.000
G0 X37.500 Y37.500 Z1.000
G0 X45.540 Y37.500
G1 Z1.000 F800.000
G2 X29.460 Y37.500 Z0.312 I-8.040 J0.000 F800.000
G2 X45.540 Y37.500 Z-0.375 I8.040 J0.000 F800.000
G2 X29.460 Y37.500 Z-1.062 I-8.040 J0.000 F800.000
G2 X45.540 Y37.500 Z-1.750 I8.040 J0.000 F800.000
G2 X29.460 Y37.500 Z-1.750 I-8.040 J0.000 F800.000
G2 X45.540 Y37.500 Z-1.750 I8.040 J0.000 F800.000
G0 Z1.000
G0 X44.249 Y37.500
G1 Z1.000 F800.000
G2 X30.751 Y37.500 Z0.312 I-6.749 J0.000 F800.000
G2 X44.249 Y37.500 Z-0.375 I6.749 J0.000 F800.000
G2 X30.751 Y37.500 Z-1.062 I-6.749 J0.000 F800.000
G2 X44.249 Y37.500 Z-1.750 I6.749 J0.000 F800.000
G2 X30.751 Y37.500 Z-1.750 I-6.749 J0.000 F800.000
G2 X44.249 Y37.500 Z-1.750 I6.749 J0.000 F800.000
G0 Z1.000
G0 X42.958 Y37.500
G1 Z1.000 F800.000
G2 X32.042 Y37.500 Z0.312 I-5.458 J0.000 F800.000
G2 X42.958 Y37.500 Z-0.375 I5.458 J0.000 F800.000
G2 X32.042 Y37.500 Z-1.062 I-5.458 J0.000 F800.000
G2 X42.958 Y37.500 Z-1.750 I5.458 J0.000 F800.000
G2 X32.042 Y37.500 Z-1.750 I-5.458 J0.000 F800.000
G2 X42.958 Y37.500 Z-1.750 I5.458 J0.000 F800.000
G0 Z1.000
G0 X41.667 Y37.500
G1 Z1.000 F800.000
G2 X33.333 Y37.500 Z0.312 I-4.167 J0.000 F800.000
G2 X41.667 Y37.500 Z-0.375 I4.167 J0.000 F800.000
G2 X33.333 Y37.500 Z-1.062 I-4.167 J0.000 F800.000
G2 X41.667 Y37.500 Z-1.750 I4.167 J0.000 F800.000
G2 X33.333 Y37.500 Z-1.750 I-4.167 J0.000 F800.000
G2 X41.667 Y37.500 Z-1.750 I4.167 J0.000 F800.000
G0 Z1.000
G0 X40.376 Y37.500
G1 Z1.000 F800.000
G2 X34.624 Y37.500 Z0.312 I-2.876 J0.000 F800.000
G2 X40.376 Y37.500 Z-0.375 I2.876 J0.000 F800.000
G2 X34.624 Y37.500 Z-1.062 I-2.876 J0.000 F800.000
G2 X40.376 Y37.500 Z-1.750 I2.876 J0.000 F800.000
G2 X34.624 Y37.500 Z-1.750 I-2.876 J0.000 F800.000
G2 X40.376 Y37.500 Z-1.750 I2.876 J0.000 F800.000
G0 Z1.000
G0 X39.085 Y37.500
G1 Z1.000 F800.000
G2 X35.915 Y37.500 Z0.312 I-1.585 J0.000 F800.000
G2 X39.085 Y37.500 Z-0.375 I1.585 J0.000 F800.000
G2 X35.915 Y37.500 Z-1.062 I-1.585 J0.000 F800.000
G2 X39.085 Y37.500 Z-1.750 I1.585 J0.000 F800.000
G2 X35.915 Y37.500 Z-1.750 I-1.585 J0.000 F800.000
G2 X39.085 Y37.500 Z-1.750 I1.585 J0.000 F800.000
G0 Z1.000
G0 Z6.000
G0 X37.500 Y12.500 Z6.000
G0 X37.500 Y12.500 Z1.000
G0 X45.540 Y12.500
G1 Z1.000 F800.000
G2 X29.460 Y12.500 Z0.312 I-8.040 J0.000 F800.000
G2 X45.540 Y12.500 Z-0.375 I8.040 J0.000 F800.000
G2 X29.460 Y12.500 Z-1.062 I-8.040 J0.000 F800.000
G2 X45.540 Y12.500 Z-1.750 I8.040 J0.000 F800.000
G2 X29.460 Y12.500 Z-1.750 I-8.040 J0.000 F800.000
G2 X45.540 Y12.500 Z-1.750 I8.040 J0.000 F800.000
G0 Z1.000
G0 X44.249 Y12.500
G1 Z1.000 F800.000
G2 X30.751 Y12.500 Z0.312 I-6.749 J0.000 F800.000
G2 X44.249 Y12.500 Z-0.375 I6.749 J0.000 F800.000
G2 X30.751 Y12.500 Z-1.062 I-6.749 J0.000 F800.000
G2 X44.249 Y12.500 Z-1.750 I6.749 J0.000 F800.000
G2 X30.751 Y12.500 Z-1.750 I-6.749 J0.000 F800.000
G2 X44.249 Y12.500 Z-1.750 I6.749 J0.000 F800.000
G0 Z1.000
G0 X42.958 Y12.500
G1 Z1.000 F800.000
G2 X32.042 Y12.500 Z0.312 I-5.458 J0.000 F800.000
G2 X42.958 Y12.500 Z-0.375 I5.458 J0.000 F800.000
G2 X32.042 Y12.500 Z-1.062 I-5.458 J0.000 F800.000
G2 X42.958 Y12.500 Z-1.750 I5.458 J0.000 F800.000
G2 X32.042 Y12.500 Z-1.750 I-5.458 J0.000 F800.000
G2 X42.958 Y12.500 Z-1.750 I5.458 J0.000 F800.000
G0 Z1.000
G0 X41.667 Y12.500
G1 Z1.000 F800.000
G2 X33.333 Y12.500 Z0.312 I-4.167 J0.000 F800.000
G2 X41.667 Y12.500 Z-0.375 I4.167 J0.000 F800.000
G2 X33.333 Y12.500 Z-1.062 I-4.167 J0.000 F800.000
G2 X41.667 Y12.500 Z-1.750 I4.167 J0.000 F800.000
G2 X33.333 Y12.500 Z-1.750 I-4.167 J0.000 F800.000
G2 X41.667 Y12.500 Z-1.750 I4.167 J0.000 F800.000
G0 Z1.000
G0 X40.376 Y12.500
G1 Z1.000 F800.000
G2 X34.624 Y12.500 Z0.312 I-2.876 J0.000 F800.000
G2 X40.376 Y12.500 Z-0.375 I2.876 J0.000 F800.000
G2 X34.624 Y12.500 Z-1.062 I-2.876 J0.000 F800.000
G2 X40.376 Y12.500 Z-1.750 I2.876 J0.000 F800.000
G2 X34.624 Y12.500 Z-1.750 I-2.876 J0.000 F800.000
G2 X40.376 Y12.500 Z-1.750 I2.876 J0.000 F800.000
G0 Z1.000
G0 X39.085 Y12.500
G1 Z1.000 F800.000
G2 X35.915 Y12.500 Z0.312 I-1.585 J0.000 F800.000
G2 X39.085 Y12.500 Z-0.375 I1.585 J0.000 F800.000
G2 X35.915 Y12.500 Z-1.062 I-1.585 J0.000 F800.000
G2 X39.085 Y12.500 Z-1.750 I1.585 J0.000 F800.000
G2 X35.915 Y12.500 Z-1.750 I-1.585 J0.000 F800.000
G2 X39.085 Y12.500 Z-1.750 I1.585 J0.000 F800.000
G0 Z1.000
G0 Z6.000
G0 X37.500 Y-12.500 Z6.000
G0 X37.500 Y-12.500 Z1.000
G0 X45.540 Y-12.500
G1 Z1.000 F800.000
G2 X29.460 Y-12.500 Z0.312 I-8.040 J0.000 F800.000
G2 X45.540 Y-12.500 Z-0.375 I8.040 J0.000 F800.000
G2 X29.460 Y-12.500 Z-1.062 I-8.040 J0.000 F800.000
G2 X45.540 Y-12.500 Z-1.750 I8.040 J0.000 F800.000
G2 X29.460 Y-12.500 Z-1.750 I-8.040 J0.000 F800.000
G2 X45.540 Y-12.500 Z-1.750 I8.040 J0.000 F800.000
G0 Z1.000
G0 X44.249 Y-12.500
G1 Z1.000 F800.000
G2 X30.751 Y-12.500 Z0.312 I-6.749 J0.000 F800.000
G2 X44.249 Y-12.500 Z-0.375 I6.749 J0.000 F800.000
G2 X30.751 Y-12.500 Z-1.062 I-6.749 J0.000 F800.000
G2 X44.249 Y-12.500 Z-1.750 I6.749 J0.000 F800.000
G2 X30.751 Y-12.500 Z-1.750 I-6.749 J0.000 F800.000
G2 X44.249 Y-12.500 Z-1.750 I6.749 J0.000 F800.000
G0 Z1.000
G0 X42.958 Y-12.500
G1 Z1.000 F800.000
G2 X32.042 Y-12.500 Z0.312 I-5.458 J0.000 F800.000
G2 X42.958 Y-12.500 Z-0.375 I5.458 J0.000 F800.000
G2 X32.042 Y-12.500 Z-1.062 I-5.458 J0.000 F800.000
G2 X42.958 Y-12.500 Z-1.750 I5.458 J0.000 F800.000
G2 X32.042 Y-12.500 Z-1.750 I-5.458 J0.000 F800.000
G2 X42.958 Y-12.500 Z-1.750 I5.458 J0.000 F800.000
G0 Z1.000
G0 X41.667 Y-12.500
G1 Z1.000 F800.000
G2 X33.333 Y-12.500 Z0.312 I-4.167 J0.000 F800.000
G2 X41.667 Y-12.500 Z-0.375 I4.167 J0.000 F800.000
G2 X33.333 Y-12.500 Z-1.062 I-4.167 J0.000 F800.000
G2 X41.667 Y-12.500 Z-1.750 I4.167 J0.000 F800.000
G2 X33.333 Y-12.500 Z-1.750 I-4.167 J0.000 F800.000
G2 X41.667 Y-12.500 Z-1.750 I4.167 J0.000 F800.000
G0 Z1.000
G0 X40.376 Y-12.500
G1 Z1.000 F800.000
G2 X34.624 Y-12.500 Z0.312 I-2.876 J0.000 F800.000
G2 X40.376 Y-12.500 Z-0.375 I2.876 J0.000 F800.000
G2 X34.624 Y-12.500 Z-1.062 I-2.876 J0.000 F800.000
G2 X40.376 Y-12.500 Z-1.750 I2.876 J0.000 F800.000
G2 X34.624 Y-12.500 Z-1.750 I-2.876 J0.000 F800.000
G2 X40.376 Y-12.500 Z-1.750 I2.876 J0.000 F800.000
G0 Z1.000
G0 X39.085 Y-12.500
G1 Z1.000 F800.000
G2 X35.915 Y-12.500 Z0.312 I-1.585 J0.000 F800.000
G2 X39.085 Y-12.500 Z-0.375 I1.585 J0.000 F800.000
G2 X35.915 Y-12.500 Z-1.062 I-1.585 J0.000 F800.000
G2 X39.085 Y-12.500 Z-1.750 I1.585 J0.000 F800.000
G2 X35.915 Y-12.500 Z-1.750 I-1.585 J0.000 F800.000
G2 X39.085 Y-12.500 Z-1.750 I1.585 J0.000 F800.000
G0 Z1.000
G0 Z6.000
G0 X37.500 Y-37.500 Z6.000
G0 X37.500 Y-37.500 Z1.000
G0 X45.540 Y-37.500
G1 Z1.000 F800.000
G2 X29.460 Y-37.500 Z0.312 I-8.040 J0.000 F800.000
G2 X45.540 Y-37.500 Z-0.375 I8.040 J0.000 F800.000
G2 X29.460 Y-37.500 Z-1.062 I-8.040 J0.000 F800.000
G2 X45.540 Y-37.500 Z-1.750 I8.040 J0.000 F800.000
G2 X29.460 Y-37.500 Z-1.750 I-8.040 J0.000 F800.000
G2 X45.540 Y-37.500 Z-1.750 I8.040 J0.000 F800.000
G0 Z1.000
G0 X44.249 Y-37.500
G1 Z1.000 F800.000
G2 X30.751 Y-37.500 Z0.312 I-6.749 J0.000 F800.000
G2 X44.249 Y-37.500 Z-0.375 I6.749 J0.000 F800.000
G2 X30.751 Y-37.500 Z-1.062 I-6.749 J0.000 F800.000
G2 X44.249 Y-37.500 Z-1.750 I6.749 J0.000 F800.000
G2 X30.751 Y-37.500 Z-1.750 I-6.749 J0.000 F800.000
G2 X44.249 Y-37.500 Z-1.750 I6.749 J0.000 F800.000
G0 Z1.000
G0 X42.958 Y-37.500
G1 Z1.000 F800.000
G2 X32.042 Y-37.500 Z0.312 I-5.458 J0.000 F800.000
G2 X42.958 Y-37.500 Z-0.375 I5.458 J0.000 F800.000
G2 X32.042 Y-37.500 Z-1.062 I-5.458 J0.000 F800.000
G2 X42.958 Y-37.500 Z-1.750 I5.458 J0.000 F800.000
G2 X32.042 Y-37.500 Z-1.750 I-5.458 J0.000 F800.000
G2 X42.958 Y-37.500 Z-1.750 I5.458 J0.000 F800.000
G0 Z1.000
G0 X41.667 Y-37.500
G1 Z1.000 F800.000
G2 X33.333 Y-37.500 Z0.312 I-4.167 J0.000 F800.000
G2 X41.667 Y-37.500 Z-0.375 I4.167 J0.000 F800.000
G2 X33.333 Y-37.500 Z-1.062 I-4.167 J0.000 F800.000
G2 X41.667 Y-37.500 Z-1.750 I4.167 J0.000 F800.000
G2 X33.333 Y-37.500 Z-1.750 I-4.167 J0.000 F800.000
G2 X41.667 Y-37.500 Z-1.750 I4.167 J0.000 F800.000
G0 Z1.000
G0 X40.376 Y-37.500
G1 Z1.000 F800.000
G2 X34.624 Y-37.500 Z0.312 I-2.876 J0.000 F800.000
G2 X40.376 Y-37.500 Z-0.375 I2.876 J0.000 F800.000
G2 X34.624 Y-37.500 Z-1.062 I-2.876 J0.000 F800.000
G2 X40.376 Y-37.500 Z-1.750 I2.876 J0.000 F800.000
G2 X34.624 Y-37.500 Z-1.750 I-2.876 J0.000 F800.000
G2 X40.376 Y-37.500 Z-1.750 I2.876 J0.000 F800.000
G0 Z1.000
G0 X39.085 Y-37.500
G1 Z1.000 F800.000
G2 X35.915 Y-37.500 Z0.312 I-1.585 J0.000 F800.000
G2 X39.085 Y-37.500 Z-0.375 I1.585 J0.000 F800.000
G2 X35.915 Y-37.500 Z-1.062 I-1.585 J0.000 F800.000
G2 X39.085 Y-37.500 Z-1.750 I1.585 J0.000 F800.000
G2 X35.915 Y-37.500 Z-1.750 I-1.585 J0.000 F800.000
G2 X39.085 Y-37.500 Z-1.750 I1.585 J0.000 F800.000
G0 Z1.000
G0 Z6.000
G0 X37.500 Y-62.500 Z6.000
G0 X37.500 Y-62.500 Z1.000
G0 X45.540 Y-62.500
G1 Z1.000 F800.000
G2 X29.460 Y-62.500 Z0.312 I-8.040 J0.000 F800.000
G2 X45.540 Y-62.500 Z-0.375 I8.040 J0.000 F800.000
G2 X29.460 Y-62.500 Z-1.062 I-8.040 J0.000 F800.000
G2 X45.540 Y-62.500 Z-1.750 I8.040 J0.000 F800.000
G2 X29.460 Y-62.500 Z-1.750 I-8.040 J0.000 F800.000
G2 X45.540 Y-62.500 Z-1.750 I8.040 J0.000 F800.000
G0 Z1.000
G0 X44.249 Y-62.500
G1 Z1.000 F800.000
G2 X30.751 Y-62.500 Z0.312 I-6.749 J0.000 F800.000
G2 X44.249 Y-62.500 Z-0.375 I6.749 J0.000 F800.000
G2 X30.751 Y-62.500 Z-1.062 I-6.749 J0.000 F800.000
G2 X44.249 Y-62.500 Z-1.750 I6.749 J0.000 F800.000
G2 X30.751 Y-62.500 Z-1.750 I-6.749 J0.000 F800.000
G2 X44.249 Y-62.500 Z-1.750 I6.749 J0.000 F800.000
G0 Z1.000
G0 X42.958 Y-62.500
G1 Z1.000 F800.000
G2 X32.042 Y-62.500 Z0.312 I-5.458 J0.000 F800.000
G2 X42.958 Y-62.500 Z-0.375 I5.458 J0.000 F800.000
G2 X32.042 Y-62.500 Z-1.062 I-5.458 J0.000 F800.000
G2 X42.958 Y-62.500 Z-1.750 I5.458 J0.000 F800.000
G2 X32.042 Y-62.500 Z-1.750 I-5.458 J0.000 F800.000
G2 X42.958 Y-62.500 Z-1.750 I5.458 J0.000 F800.000
G0 Z1.000
G0 X41.667 Y-62.500
G1 Z1.000 F800.000
G2 X33.333 Y-62.500 Z0.312 I-4.167 J0.000 F800.000
G2 X41.667 Y-62.500 Z-0.375 I4.167 J0.000 F800.000
G2 X33.333 Y-62.500 Z-1.062 I-4.167 J0.000 F800.000
G2 X41.667 Y-62.500 Z-1.750 I4.167 J0.000 F800.000
G2 X33.333 Y-62.500 Z-1.750 I-4.167 J0.000 F800.000
G2 X41.667 Y-62.500 Z-1.750 I4.167 J0.000 F800.000
G0 Z1.000
G0 X40.376 Y-62.500
G1 Z1.000 F800.000
G2 X34.624 Y-62.500 Z0.312 I-2.876 J0.000 F800.000
G2 X40.376 Y-62.500 Z-0.375 I2.876 J0.000 F800.000
G2 X34.624 Y-62.500 Z-1.062 I-2.876 J0.000 F800.000
G2 X40.376 Y-62.500 Z-1.750 I2.876 J0.000 F800.000
G2 X34.624 Y-62.500 Z-1.750 I-2.876 J0.000 F800.000
G2 X40.376 Y-62.500 Z-1.750 I2.876 J0.000 F800.000
G0 Z1.000
G0 X39.085 Y-62.500
G1 Z1.000 F800.000
G2 X35.915 Y-62.500 Z0.312 I-1.585 J0.000 F800.000
G2 X39.085 Y-62.500 Z-0.375 I1.585 J0.000 F800.000
G2 X35.915 Y-62.500 Z-1.062 I-1.585 J0.000 F800.000
G2 X39.085 Y-62.500 Z-1.750 I1.585 J0.000 F800.000
G2 X35.915 Y-62.500 Z-1.750 I-1.585 J0.000 F800.000
G2 X39.085 Y-62.500 Z-1.750 I1.585 J0.000 F800.000
G0 Z1.000
G0 Z6.000
G0 X62.500 Y-62.500 Z6.000
G0 X62.500 Y-62.500 Z1.000
G0 X70.540 Y-62.500
G1 Z1.000 F800.000
G2 X54.460 Y-62.500 Z0.312 I-8.040 J0.000 F800.000
G2 X70.540 Y-62.500 Z-0.375 I8.040 J0.000 F800.000
G2 X54.460 Y-62.500 Z-1.062 I-8.040 J0.000 F800.000
G2 X70.540 Y-62.500 Z-1.750 I8.040 J0.000 F800.000
G2 X54.460 Y-62.500 Z-1.750 I-8.040 J0.000 F800.000
G2 X70.540 Y-62.500 Z-1.750 I8.040 J0.000 F800.000
G0 Z1.000
G0 X69.249 Y-62.500
G1 Z1.000 F800.000
G2 X55.751 Y-62.500 Z0.312 I-6.749 J0.000 F800.000
G2 X69.249 Y-62.500 Z-0.375 I6.749 J0.000 F800.000
G2 X55.751 Y-62.500 Z-1.062 I-6.749 J0.000 F800.000
G2 X69.249 Y-62.500 Z-1.750 I6.749 J0.000 F800.000
G2 X55.751 Y-62.500 Z-1.750 I-6.749 J0.000 F800.000
G2 X69.249 Y-62.500 Z-1.750 I6.749 J0.000 F800.000
G0 Z1.000
G0 X67.958 Y-62.500
G1 Z1.000 F800.000
G2 X57.042 Y-62.500 Z0.312 I-5.458 J0.000 F800.000
G2 X67.958 Y-62.500 Z-0.375 I5.458 J0.000 F800.000
G2 X57.042 Y-62.500 Z-1.062 I-5.458 J0.000 F800.000
G2 X67.958 Y-62.500 Z-1.750 I5.458 J0.000 F800.000
G2 X57.042 Y-62.500 Z-1.750 I-5.458 J0.000 F800.000
G2 X67.958 Y-62.500 Z-1.750 I5.458 J0.000 F800.000
G0 Z1.000
G0 X66.667 Y-62.500
G1 Z1.000 F800.000
G2 X58.333 Y-62.500 Z0.312 I-4.167 J0.000 F800.000
G2 X66.667 Y-62.500 Z-0.375 I4.167 J0.000 F800.000
G2 X58.333 Y-62.500 Z-1.062 I-4.167 J0.000 F800.000
G2 X66.667 Y-62.500 Z-1.750 I4.167 J0.000 F800.000
G2 X58.333 Y-62.500 Z-1.750 I-4.167 J0.000 F800.000
G2 X66.667 Y-62.500 Z-1.750 I4.167 J0.000 F800.000
G0 Z1.000
G0 X65.376 Y-62.500
G1 Z1.000 F800.000
G2 X59.624 Y-62.500 Z0.312 I-2.876 J0.000 F800.000
G2 X65.376 Y-62.500 Z-0.375 I2.876 J0.000 F800.000
G2 X59.624 Y-62.500 Z-1.062 I-2.876 J0.000 F800.000
G2 X65.376 Y-62.500 Z-1.750 I2.876 J0.000 F800.000
G2 X59.624 Y-62.500 Z-1.750 I-2.876 J0.000 F800.000
G2 X65.376 Y-62.500 Z-1.750 I2.876 J0.000 F800.000
G0 Z1.000
G0 X64.085 Y-62.500
G1 Z1.000 F800.000
G2 X60.915 Y-62.500 Z0.312 I-1.585 J0.000 F800.000
G2 X64.085 Y-62.500 Z-0.375 I1.585 J0.000 F800.000
G2 X60.915 Y-62.500 Z-1.062 I-1.585 J0.000 F800.000
G2 X64.085 Y-62.500 Z-1.750 I1.585 J0.000 F800.000
G2 X60.915 Y-62.500 Z-1.750 I-1.585 J0.000 F800.000
G2 X64.085 Y-62.500 Z-1.750 I1.585 J0.000 F800.000
G0 Z1.000
G0 Z6.000
G0 X62.500 Y-37.500 Z6.000
G0 X62.500 Y-37.500 Z1.000
G0 X70.540 Y-37.500
G1 Z1.000 F800.000
G2 X54.460 Y-37.500 Z0.312 I-8.040 J0.000 F800.000
G2 X70.540 Y-37.500 Z-0.375 I8.040 J0.000 F800.000
G2 X54.460 Y-37.500 Z-1.062 I-8.040 J0.000 F800.000
G2 X70.540 Y-37.500 Z-1.750 I8.040 J0.000 F800.000
G2 X54.460 Y-37.500 Z-1.750 I-8.040 J0.000 F800.000
G2 X70.540 Y-37.500 Z-1.750 I8.040 J0.000 F800.000
G0 Z1.000
G0 X69.249 Y-37.500
G1 Z1.000 F800.000
G2 X55.751 Y-37.500 Z0.312 I-6.749 J0.000 F800.000
G2 X69.249 Y-37.500 Z-0.375 I6.749 J0.000 F800.000
G2 X55.751 Y-37.500 Z-1.062 I-6.749 J0.000 F800.000
G2 X69.249 Y-37.500 Z-1.750 I6.749 J0.000 F800.000
G2 X55.751 Y-37.500 Z-1.750 I-6.749 J0.000 F800.000
G2 X69.249 Y-37.500 Z-1.750 I6.749 J0.000 F800.000
G0 Z1.000
G0 X67.958 Y-37.500
G1 Z1.000 F800.000
G2 X57.042 Y-37.500 Z0.312 I-5.458 J0.000 F800.000
G2 X67.958 Y-37.500 Z-0.375 I5.458 J0.000 F800.000
G2 X57.042 Y-37.500 Z-1.062 I-5.458 J0.000 F800.000
G2 X67.958 Y-37.500 Z-1.750 I5.458 J0.000 F800.000
G2 X57.042 Y-37.500 Z-1.750 I-5.458 J0.000 F800.000
G2 X67.958 Y-37.500 Z-1.750 I5.458 J0.000 F800.000
G0 Z1.000
G0 X66.667 Y-37.500
G1 Z1.000 F800.000
G2 X58.333 Y-37.500 Z0.312 I-4.167 J0.000 F800.000
G2 X66.667 Y-37.500 Z-0.375 I4.167 J0.000 F800.000
G2 X58.333 Y-37.500 Z-1.062 I-4.167 J0.000 F800.000
G2 X66.667 Y-37.500 Z-1.750 I4.167 J0.000 F800.000
G2 X58.333 Y-37.500 Z-1.750 I-4.167 J0.000 F800.000
G2 X66.667 Y-37.500 Z-1.750 I4.167 J0.000 F800.000
G0 Z1.000
G0 X65.376 Y-37.500
G1 Z1.000 F800.000
G2 X59.624 Y-37.500 Z0.312 I-2.876 J0.000 F800.000
G2 X65.376 Y-37.500 Z-0.375 I2.876 J0.000 F800.000
G2 X59.624 Y-37.500 Z-1.062 I-2.876 J0.000 F800.000
G2 X65.376 Y-37.500 Z-1.750 I2.876 J0.000 F800.000
G2 X59.624 Y-37.500 Z-1.750 I-2.876 J0.000 F800.000
G2 X65.376 Y-37.500 Z-1.750 I2.876 J0.000 F800.000
G0 Z1.000
G0 X64.085 Y-37.500
G1 Z1.000 F800.000
G2 X60.915 Y-37.500 Z0.312 I-1.585 J0.000 F800.000
G2 X64.085 Y-37.500 Z-0.375 I1.585 J0.000 F800.000
G2 X60.915 Y-37.500 Z-1.062 I-1.585 J0.000 F800.000
G2 X64.085 Y-37.500 Z-1.750 I1.585 J0.000 F800.000
G2 X60.915 Y-37.500 Z-1.750 I-1.585 J0.000 F800.000
G2 X64.085 Y-37.500 Z-1.750 I1.585 J0.000 F800.000
G0 Z1.000
G0 Z6.000
G0 X62.500 Y-12.500 Z6.000
G0 X62.500 Y-12.500 Z1.000
G0 X70.540 Y-12.500
G1 Z1.000 F800.000
G2 X54.460 Y-12.500 Z0.312 I-8.040 J0.000 F800.000
G2 X70.540 Y-12.500 Z-0.375 I8.040 J0.000 F800.000
G2 X54.460 Y-12.500 Z-1.062 I-8.040 J0.000 F800.000
G2 X70.540 Y-12.500 Z-1.750 I8.040 J0.000 F800.000
G2 X54.460 Y-12.500 Z-1.750 I-8.040 J0.000 F800.000
G2 X70.540 Y-12.500 Z-1.750 I8.040 J0.000 F800.000
G0 Z1.000
G0 X69.249 Y-12.500
G1 Z1.000 F800.000
G2 X55.751 Y-12.500 Z0.312 I-6.749 J0.000 F800.000
G2 X69.249 Y-12.500 Z-0.375 I6.749 J0.000 F800.000
G2 X55.751 Y-12.500 Z-1.062 I-6.749 J0.000 F800.000
G2 X69.249 Y-12.500 Z-1.750 I6.749 J0.000 F800.000
G2 X55.751 Y-12.500 Z-1.750 I-6.749 J0.000 F800.000
G2 X69.249 Y-12.500 Z-1.750 I6.749 J0.000 F800.000
G0 Z1.000
G0 X67.958 Y-12.500
G1 Z1.000 F800.000
G2 X57.042 Y-12.500 Z0.312 I-5.458 J0.000 F800.000
G2 X67.958 Y-12.500 Z-0.375 I5.458 J0.000 F800.000
G2 X57.042 Y-12.500 Z-1.062 I-5.458 J0.000 F800.000
G2 X67.958 Y-12.500 Z-1.750 I5.458 J0.000 F800.000
G2 X57.042 Y-12.500 Z-1.750 I-5.458 J0.000 F800.000
G2 X67.958 Y-12.500 Z-1.750 I5.458 J0.000 F800.000
G0 Z1.000
G0 X66.667 Y-12.500
G1 Z1.000 F800.000
G2 X58.333 Y-12.500 Z0.312 I-4.167 J0.000 F800.000
G2 X66.667 Y-12.500 Z-0.375 I4.167 J0.000 F800.000
G2 X58.333 Y-12.500 Z-1.062 I-4.167 J0.000 F800.000
G2 X66.667 Y-12.500 Z-1.750 I4.167 J0.000 F800.000
G2 X58.333 Y-12.500 Z-1.750 I-4.167 J0.000 F800.000
G2 X66.667 Y-12.500 Z-1.750 I4.167 J0.000 F800.000
G0 Z1.000
G0 X65.376 Y-12.500
G1 Z1.000 F800.000
G2 X59.624 Y-12.500 Z0.312 I-2.876 J0.000 F800.000
G2 X65.376 Y-12.500 Z-0.375 I2.876 J0.000 F800.000
G2 X59.624 Y-12.500 Z-1.062 I-2.876 J0.000 F800.000
G2 X65.376 Y-12.500 Z-1.750 I2.876 J0.000 F800.000
G2 X59.624 Y-12.500 Z-1.750 I-2.876 J0.000 F800.000
G2 X65.376 Y-12.500 Z-1.750 I2.876 J0.000 F800.000
G0 Z1.000
G0 X64.085 Y-12.500
G1 Z1.000 F800.000
G2 X60.915 Y-12.500 Z0.312 I-1.585 J0.000 F800.000
G2 X64.085 Y-12.500 Z-0.375 I1.585 J0.000 F800.000
G2 X60.915 Y-12.500 Z-1.062 I-1.585 J0.000 F800.000
G2 X64.085 Y-12.500 Z-1.750 I1.585 J0.000 F800.000
G2 X60.915 Y-12.500 Z-1.750 I-1.585 J0.000 F800.000
G2 X64.085 Y-12.500 Z-1.750 I1.585 J0.000 F800.000
G0 Z1.000
G0 Z6.000
G0 X62.500 Y12.500 Z6.000
G0 X62.500 Y12.500 Z1.000
G0 X70.540 Y12.500
G1 Z1.000 F800.000
G2 X54.460 Y12.500 Z0.312 I-8.040 J0.000 F800.000
G2 X70.540 Y12.500 Z-0.375 I8.040 J0.000 F800.000
G2 X54.460 Y12.500 Z-1.062 I-8.040 J0.000 F800.000
G2 X70.540 Y12.500 Z-1.750 I8.040 J0.000 F800.000
G2 X54.460 Y12.500 Z-1.750 I-8.040 J0.000 F800.000
G2 X70.540 Y12.500 Z-1.750 I8.040 J0.000 F800.000
G0 Z1.000
G0 X69.249 Y12.500
G1 Z1.000 F800.000
G2 X55.751 Y12.500 Z0.312 I-6.749 J0.000 F800.000
G2 X69.249 Y12.500 Z-0.375 I6.749 J0.000 F800.000
G2 X55.751 Y12.500 Z-1.062 I-6.749 J0.000 F800.000
G2 X69.249 Y12.500 Z-1.750 I6.749 J0.000 F800.000
G2 X55.751 Y12.500 Z-1.750 I-6.749 J0.000 F800.000
G2 X69.249 Y12.500 Z-1.750 I6.749 J0.000 F800.000
G0 Z1.000
G0 X67.958 Y12.500
G1 Z1.000 F800.000
G2 X57.042 Y12.500 Z0.312 I-5.458 J0.000 F800.000
G2 X67.958 Y12.500 Z-0.375 I5.458 J0.000 F800.000
G2 X57.042 Y12.500 Z-1.062 I-5.458 J0.000 F800.000
G2 X67.958 Y12.500 Z-1.750 I5.458 J0.000 F800.000
G2 X57.042 Y12.500 Z-1.750 I-5.458 J0.000 F800.000
G2 X67.958 Y12.500 Z-1.750 I5.458 J0.000 F800.000
G0 Z1.000
G0 X66.667 Y12.500
G1 Z1.000 F800.000
G2 X58.333 Y12.500 Z0.312 I-4.167 J0.000 F800.000
G2 X66.667 Y12.500 Z-0.375 I4.167 J0.000 F800.000
G2 X58.333 Y12.500 Z-1.062 I-4.167 J0.000 F800.000
G2 X66.667 Y12.500 Z-1.750 I4.167 J0.000 F800.000
G2 X58.333 Y12.500 Z-1.750 I-4.167 J0.000 F800.000
G2 X66.667 Y12.500 Z-1.750 I4.167 J0.000 F800.000
G0 Z1.000
G0 X65.376 Y12.500
G1 Z1.000 F800.000
G2 X59.624 Y12.500 Z0.312 I-2.876 J0.000 F800.000
G2 X65.376 Y12.500 Z-0.375 I2.876 J0.000 F800.000
G2 X59.624 Y12.500 Z-1.062 I-2.876 J0.000 F800.000
G2 X65.376 Y12.500 Z-1.750 I2.876 J0.000 F800.000
G2 X59.624 Y12.500 Z-1.750 I-2.876 J0.000 F800.000
G2 X65.376 Y12.500 Z-1.750 I2.876 J0.000 F800.000
G0 Z1.000
G0 X64.085 Y12.500
G1 Z1.000 F800.000
G2 X60.915 Y12.500 Z0.312 I-1.585 J0.000 F800.000
G2 X64.085 Y12.500 Z-0.375 I1.585 J0.000 F800.000
G2 X60.915 Y12.500 Z-1.062 I-1.585 J0.000 F800.000
G2 X64.085 Y12.500 Z-1.750 I1.585 J0.000 F800.000
G2 X60.915 Y12.500 Z-1.750 I-1.585 J0.000 F800.000
G2 X64.085 Y12.500 Z-1.750 I1.585 J0.000 F800.000
G0 Z1.000
G0 Z6.000
G0 X62.500 Y37.500 Z6.000
G0 X62.500 Y37.500 Z1.000
G0 X70.540 Y37.500
G1 Z1.000 F800.000
G2 X54.460 Y37.500 Z0.312 I-8.040 J0.000 F800.000
G2 X70.540 Y37.500 Z-0.375 I8.040 J0.000 F800.000
G2 X54.460 Y37.500 Z-1.062 I-8.040 J0.000 F800.000
G2 X70.540 Y37.500 Z-1.750 I8.040 J0.000 F800.000
G2 X54.460 Y37.500 Z-1.750 I-8.040 J0.000 F800.000
G2 X70.540 Y37.500 Z-1.750 I8.040 J0.000 F800.000
G0 Z1.000
G0 X69.249 Y37.500
G1 Z1.000 F800.000
G2 X55.751 Y37.500 Z0.312 I-6.749 J0.000 F800.000
G2 X69.249 Y37.500 Z-0.375 I6.749 J0.000 F800.000
G2 X55.751 Y37.500 Z-1.062 I-6.749 J0.000 F800.000
G2 X69.249 Y37.500 Z-1.750 I6.749 J0.000 F800.000
G2 X55.751 Y37.500 Z-1.750 I-6.749 J0.000 F800.000
G2 X69.249 Y37.500 Z-1.750 I6.749 J0.000 F800.000
G0 Z1.000
G0 X67.958 Y37.500
G1 Z1.000 F800.000
G2 X57.042 Y37.500 Z0.312 I-5.458 J0.000 F800.000
G2 X67.958 Y37.500 Z-0.375 I5.458 J0.000 F800.000
G2 X57.042 Y37.500 Z-1.062 I-5.458 J0.000 F800.000
G2 X67.958 Y37.500 Z-1.750 I5.458 J0.000 F800.000
G2 X57.042 Y37.500 Z-1.750 I-5.458 J0.000 F800.000
G2 X67.958 Y37.500 Z-1.750 I5.458 J0.000 F800.000
G0 Z1.000
G0 X66.667 Y37.500
G1 Z1.000 F800.000
G2 X58.333 Y37.500 Z0.312 I-4.167 J0.000 F800.000
G2 X66.667 Y37.500 Z-0.375 I4.167 J0.000 F800.000
G2 X58.333 Y37.500 Z-1.062 I-4.167 J0.000 F800.000
G2 X66.667 Y37.500 Z-1.750 I4.167 J0.000 F800.000
G2 X58.333 Y37.500 Z-1.750 I-4.167 J0.000 F800.000
G2 X66.667 Y37.500 Z-1.750 I4.167 J0.000 F800.000
G0 Z1.000
G0 X65.376 Y37.500
G1 Z1.000 F800.000
G2 X59.624 Y37.500 Z0.312 I-2.876 J0.000 F800.000
G2 X65.376 Y37.500 Z-0.375 I2.876 J0.000 F800.000
G2 X59.624 Y37.500 Z-1.062 I-2.876 J0.000 F800.000
G2 X65.376 Y37.500 Z-1.750 I2.876 J0.000 F800.000
G2 X59.624 Y37.500 Z-1.750 I-2.876 J0.000 F800.000
G2 X65.376 Y37.500 Z-1.750 I2.876 J0.000 F800.000
G0 Z1.000
G0 X64.085 Y37.500
G1 Z1.000 F800.000
G2 X60.915 Y37.500 Z0.312 I-1.585 J0.000 F800.000
G2 X64.085 Y37.500 Z-0.375 I1.585 J0.000 F800.000
G2 X60.915 Y37.500 Z-1.062 I-1.585 J0.000 F800.000
G2 X64.085 Y37.500 Z-1.750 I1.585 J0.000 F800.000
G2 X60.915 Y37.500 Z-1.750 I-1.585 J0.000 F800.000
G2 X64.085 Y37.500 Z-1.750 I1.585 J0.000 F800.000
G0 Z1.000
G0 Z6.000
G0 X62.500 Y62.500 Z6.000
G0 X62.500 Y62.500 Z1.000
G0 X70.540 Y62.500
G1 Z1.000 F800.000
G2 X54.460 Y62.500 Z0.312 I-8.040 J0.000 F800.000
G2 X70.540 Y62.500 Z-0.375 I8.040 J0.000 F800.000
G2 X54.460 Y62.500 Z-1.062 I-8.040 J0.000 F800.000
G2 X70.540 Y62.500 Z-1.750 I8.040 J0.000 F800.000
G2 X54.460 Y62.500 Z-1.750 I-8.040 J0.000 F800.000
G2 X70.540 Y62.500 Z-1.750 I8.040 J0.000 F800.000
G0 Z1.000
G0 X69.249 Y62.500
G1 Z1.000 F800.000
G2 X55.751 Y62.500 Z0.312 I-6.749 J0.000 F800.000
G2 X69.249 Y62.500 Z-0.375 I6.749 J0.000 F800.000
G2 X55.751 Y62.500 Z-1.062 I-6.749 J0.000 F800.000
G2 X69.249 Y62.500 Z-1.750 I6.749 J0.000 F800.000
G2 X55.751 Y62.500 Z-1.750 I-6.749 J0.000 F800.000
G2 X69.249 Y62.500 Z-1.750 I6.749 J0.000 F800.000
G0 Z1.000
G0 X67.958 Y62.500
G1 Z1.000 F800.000
G2 X57.042 Y62.500 Z0.312 I-5.458 J0.000 F800.000
G2 X67.958 Y62.500 Z-0.375 I5.458 J0.000 F800.000
G2 X57.042 Y62.500 Z-1.062 I-5.458 J0.000 F800.000
G2 X67.958 Y62.500 Z-1.750 I5.458 J0.000 F800.000
G2 X57.042 Y62.500 Z-1.750 I-5.458 J0.000 F800.000
G2 X67.958 Y62.500 Z-1.750 I5.458 J0.000 F800.000
G0 Z1.000
G0 X66.667 Y62.500
G1 Z1.000 F800.000
G2 X58.333 Y62.500 Z0.312 I-4.167 J0.000 F800.000
G2 X66.667 Y62.500 Z-0.375 I4.167 J0.000 F800.000
G2 X58.333 Y62.500 Z-1.062 I-4.167 J0.000 F800.000
G2 X66.667 Y62.500 Z-1.750 I4.167 J0.000 F800.000
G2 X58.333 Y62.500 Z-1.750 I-4.167 J0.000 F800.000
G2 X66.667 Y62.500 Z-1.750 I4.167 J0.000 F800.000
G0 Z1.000
G0 X65.376 Y62.500
G1 Z1.000 F800.000
G2 X59.624 Y62.500 Z0.312 I-2.876 J0.000 F800.000
G2 X65.376 Y62.500 Z-0.375 I2.876 J0.000 F800.000
G2 X59.624 Y62.500 Z-1.062 I-2.876 J0.000 F800.000
G2 X65.376 Y62.500 Z-1.750 I2.876 J0.000 F800.000
G2 X59.624 Y62.500 Z-1.750 I-2.876 J0.000 F800.000
G2 X65.376 Y62.500 Z-1.750 I2.876 J0.000 F800.000
G0 Z1.000
G0 X64.085 Y62.500
G1 Z1.000 F800.000
G2 X60.915 Y62.500 Z0.312 I-1.585 J0.000 F800.000
G2 X64.085 Y62.500 Z-0.375 I1.585 J0.000 F800.000
G2 X60.915 Y62.500 Z-1.062 I-1.585 J0.000 F800.000
G2 X64.085 Y62.500 Z-1.750 I1.585 J0.000 F800.000
G2 X60.915 Y62.500 Z-1.750 I-1.585 J0.000 F800.000
G2 X64.085 Y62.500 Z-1.750 I1.585 J0.000 F800.000
G0 Z1.000
G0 Z6.000
G0 X37.500 Y62.500 Z6.000
G0 X37.500 Y62.500 Z1.000
G0 X45.540 Y62.500
G1 Z1.000 F800.000
G2 X29.460 Y62.500 Z0.312 I-8.040 J0.000 F800.000
G2 X45.540 Y62.500 Z-0.375 I8.040 J0.000 F800.000
G2 X29.460 Y62.500 Z-1.062 I-8.040 J0.000 F800.000
G2 X45.540 Y62.500 Z-1.750 I8.040 J0.000 F800.000
G2 X29.460 Y62.500 Z-1.750 I-8.040 J0.000 F800.000
G2 X45.540 Y62.500 Z-1.750 I8.040 J0.000 F800.000
G0 Z1.000
G0 X44.249 Y62.500
G1 Z1.000 F800.000
G2 X30.751 Y62.500 Z0.312 I-6.749 J0.000 F800.000
G2 X44.249 Y62.500 Z-0.375 I6.749 J0.000 F800.000
G2 X30.751 Y62.500 Z-1.062 I-6.749 J0.000 F800.000
G2 X44.249 Y62.500 Z-1.750 I6.749 J0.000 F800.000
G2 X30.751 Y62.500 Z-1.750 I-6.749 J0.000 F800.000
G2 X44.249 Y62.500 Z-1.750 I6.749 J0.000 F800.000
G0 Z1.000
G0 X42.958 Y62.500
G1 Z1.000 F800.000
G2 X32.042 Y62.500 Z0.312 I-5.458 J0.000 F800.000
G2 X42.958 Y62.500 Z-0.375 I5.458 J0.000 F800.000
G2 X32.042 Y62.500 Z-1.062 I-5.458 J0.000 F800.000
G2 X42.958 Y62.500 Z-1.750 I5.458 J0.000 F800.000
G2 X32.042 Y62.500 Z-1.750 I-5.458 J0.000 F800.000
G2 X42.958 Y62.500 Z-1.750 I5.458 J0.000 F800.000
G0 Z1.000
G0 X41.667 Y62.500
G1 Z1.000 F800.000
G2 X33.333 Y62.500 Z0.312 I-4.167 J0.000 F800.000
G2 X41.667 Y62.500 Z-0.375 I4.167 J0.000 F800.000
G2 X33.333 Y62.500 Z-1.062 I-4.167 J0.000 F800.000
G2 X41.667 Y62.500 Z-1.750 I4.167 J0.000 F800.000
G2 X33.333 Y62.500 Z-1.750 I-4.167 J0.000 F800.000
G2 X41.667 Y62.500 Z-1.750 I4.167 J0.000 F800.000
G0 Z1.000
G0 X40.376 Y62.500
G1 Z1.000 F800.000
G2 X34.624 Y62.500 Z0.312 I-2.876 J0.000 F800.000
G2 X40.376 Y62.500 Z-0.375 I2.876 J0.000 F800.000
G2 X34.624 Y62.500 Z-1.062 I-2.876 J0.000 F800.000
G2 X40.376 Y62.500 Z-1.750 I2.876 J0.000 F800.000
G2 X34.624 Y62.500 Z-1.750 I-2.876 J0.000 F800.000
G2 X40.376 Y62.500 Z-1.750 I2.876 J0.000 F800.000
G0 Z1.000
G0 X39.085 Y62.500
G1 Z1.000 F800.000
G2 X35.915 Y62.500 Z0.312 I-1.585 J0.000 F800.000
G2 X39.085 Y62.500 Z-0.375 I1.585 J0.000 F800.000
G2 X35.915 Y62.500 Z-1.062 I-1.585 J0.000 F800.000
G2 X39.085 Y62.500 Z-1.750 I1.585 J0.000 F800.000
G2 X35.915 Y62.500 Z-1.750 I-1.585 J0.000 F800.000
G2 X39.085 Y62.500 Z-1.750 I1.585 J0.000 F800.000
G0 Z1.000
G0 Z6.000
G0 X87.500 Y62.500 Z6.000
G0 X87.500 Y62.500 Z1.000
G0 X95.540 Y62.500
G1 Z1.000 F800.000
G2 X79.460 Y62.500 Z0.312 I-8.040 J0.000 F800.000
G2 X95.540 Y62.500 Z-0.375 I8.040 J0.000 F800.000
G2 X79.460 Y62.500 Z-1.062 I-8.040 J0.000 F800.000
G2 X95.540 Y62.500 Z-1.750 I8.040 J0.000 F800.000
G2 X79.460 Y62.500 Z-1.750 I-8.040 J0.000 F800.000
G2 X95.540 Y62.500 Z-1.750 I8.040 J0.000 F800.000
G0 Z1.000
G0 X94.249 Y62.500
G1 Z1.000 F800.000
G2 X80.751 Y62.500 Z0.312 I-6.749 J0.000 F800.000
G2 X94.249 Y62.500 Z-0.375 I6.749 J0.000 F800.000
G2 X80.751 Y62.500 Z-1.062 I-6.749 J0.000 F800.000
G2 X94.249 Y62.500 Z-1.750 I6.749 J0.000 F800.000
G2 X80.751 Y62.500 Z-1.750 I-6.749 J0.000 F800.000
G2 X94.249 Y62.500 Z-1.750 I6.749 J0.000 F800.000
G0 Z1.000
G0 X92.958 Y62.500
G1 Z1.000 F800.000
G2 X82.042 Y62.500 Z0.312 I-5.458 J0.000 F800.000
G2 X92.958 Y62.500 Z-0.375 I5.458 J0.000 F800.000
G2 X82.042 Y62.500 Z-1.062 I-5.458 J0.000 F800.000
G2 X92.958 Y62.500 Z-1.750 I5.458 J0.000 F800.000
G2 X82.042 Y62.500 Z-1.750 I-5.458 J0.000 F800.000
G2 X92.958 Y62.500 Z-1.750 I5.458 J0.000 F800.000
G0 Z1.000
G0 X91.667 Y62.500
G1 Z1.000 F800.000
G2 X83.333 Y62.500 Z0.312 I-4.167 J0.000 F800.000
G2 X91.667 Y62.500 Z-0.375 I4.167 J0.000 F800.000
G2 X83.333 Y62.500 Z-1.062 I-4.167 J0.000 F800.000
G2 X91.667 Y62.500 Z-1.750 I4.167 J0.000 F800.000
G2 X83.333 Y62.500 Z-1.750 I-4.167 J0.000 F800.000
G2 X91.667 Y62.500 Z-1.750 I4.167 J0.000 F800.000
G0 Z1.000
G0 X90.376 Y62.500
G1 Z1.000 F800.000
G2 X84.624 Y62.500 Z0.312 I-2.876 J0.000 F800.000
G2 X90.376 Y62.500 Z-0.375 I2.876 J0.000 F800.000
G2 X84.624 Y62.500 Z-1.062 I-2.876 J0.000 F800.000
G2 X90.376 Y62.500 Z-1.750 I2.876 J0.000 F800.000
G2 X84.624 Y62.500 Z-1.750 I-2.876 J0.000 F800.000
G2 X90.376 Y62.500 Z-1.750 I2.876 J0.000 F800.000
G0 Z1.000
G0 X89.085 Y62.500
G1 Z1.000 F800.000
G2 X85.915 Y62.500 Z0.312 I-1.585 J0.000 F800.000
G2 X89.085 Y62.500 Z-0.375 I1.585 J0.000 F800.000
G2 X85.915 Y62.500 Z-1.062 I-1.585 J0.000 F800.000
G2 X89.085 Y62.500 Z-1.750 I1.585 J0.000 F800.000
G2 X85.915 Y62.500 Z-1.750 I-1.585 J0.000 F800.000
G2 X89.085 Y62.500 Z-1.750 I1.585 J0.000 F800.000
G0 Z1.000
G0 Z6.000
G0 X87.500 Y37.500 Z6.000
G0 X87.500 Y37.500 Z1.000
G0 X95.540 Y37.500
G1 Z1.000 F800.000
G2 X79.460 Y37.500 Z0.312 I-8.040 J0.000 F800.000
G2 X95.540 Y37.500 Z-0.375 I8.040 J0.000 F800.000
G2 X79.460 Y37.500 Z-1.062 I-8.040 J0.000 F800.000
G2 X95.540 Y37.500 Z-1.750 I8.040 J0.000 F800.000
G2 X79.460 Y37.500 Z-1.750 I-8.040 J0.000 F800.000
G2 X95.540 Y37.500 Z-1.750 I8.040 J0.000 F800.000
G0 Z1.000
G0 X94.249 Y37.500
G1 Z1.000 F800.000
G2 X80.751 Y37.500 Z0.312 I-6.749 J0.000 F800.000
G2 X94.249 Y37.500 Z-0.375 I6.749 J0.000 F800.000
G2 X80.751 Y37.500 Z-1.062 I-6.749 J0.000 F800.000
G2 X94.249 Y37.500 Z-1.750 I6.749 J0.000 F800.000
G2 X80.751 Y37.500 Z-1.750 I-6.749 J0.000 F800.000
G2 X94.249 Y37.500 Z-1.750 I6.749 J0.000 F800.000
G0 Z1.000
G0 X92.958 Y37.500
G1 Z1.000 F800.000
G2 X82.042 Y37.500 Z0.312 I-5.458 J0.000 F800.000
G2 X92.958 Y37.500 Z-0.375 I5.458 J0.000 F800.000
G2 X82.042 Y37.500 Z-1.062 I-5.458 J0.000 F800.000
G2 X92.958 Y37.500 Z-1.750 I5.458 J0.000 F800.000
G2 X82.042 Y37.500 Z-1.750 I-5.458 J0.000 F800.000
G2 X92.958 Y37.500 Z-1.750 I5.458 J0.000 F800.000
G0 Z1.000
G0 X91.667 Y37.500
G1 Z1.000 F800.000
G2 X83.333 Y37.500 Z0.312 I-4.167 J0.000 F800.000
G2 X91.667 Y37.500 Z-0.375 I4.167 J0.000 F800.000
G2 X83.333 Y37.500 Z-1.062 I-4.167 J0.000 F800.000
G2 X91.667 Y37.500 Z-1.750 I4.167 J0.000 F800.000
G2 X83.333 Y37.500 Z-1.750 I-4.167 J0.000 F800.000
G2 X91.667 Y37.500 Z-1.750 I4.167 J0.000 F800.000
G0 Z1.000
G0 X90.376 Y37.500
G1 Z1.000 F800.000
G2 X84.624 Y37.500 Z0.312 I-2.876 J0.000 F800.000
G2 X90.376 Y37.500 Z-0.375 I2.876 J0.000 F800.000
G2 X84.624 Y37.500 Z-1.062 I-2.876 J0.000 F800.000
G2 X90.376 Y37.500 Z-1.750 I2.876 J0.000 F800.000
G2 X84.624 Y37.500 Z-1.750 I-2.876 J0.000 F800.000
G2 X90.376 Y37.500 Z-1.750 I2.876 J0.000 F800.000
G0 Z1.000
G0 X89.085 Y37.500
G1 Z1.000 F800.000
G2 X85.915 Y37.500 Z0.312 I-1.585 J0.000 F800.000
G2 X89.085 Y37.500 Z-0.375 I1.585 J0.000 F800.000
G2 X85.915 Y37.500 Z-1.062 I-1.585 J0.000 F800.000
G2 X89.085 Y37.500 Z-1.750 I1.585 J0.000 F800.000
G2 X85.915 Y37.500 Z-1.750 I-1.585 J0.000 F800.000
G2 X89.085 Y37.500 Z-1.750 I1.585 J0.000 F800.000
G0 Z1.000
G0 Z6.000
G0 X87.500 Y12.500 Z6.000
G0 X87.500 Y12.500 Z1.000
G0 X95.540 Y12.500
G1 Z1.000 F800.000
G2 X79.460 Y12.500 Z0.312 I-8.040 J0.000 F800.000
G2 X95.540 Y12.500 Z-0.375 I8.040 J0.000 F800.000
G2 X79.460 Y12.500 Z-1.062 I-8.040 J0.000 F800.000
G2 X95.540 Y12.500 Z-1.750 I8.040 J0.000 F800.000
G2 X79.460 Y12.500 Z-1.750 I-8.040 J0.000 F800.000
G2 X95.540 Y12.500 Z-1.750 I8.040 J0.000 F800.000
G0 Z1.000
G0 X94.249 Y12.500
G1 Z1.000 F800.000
G2 X80.751 Y12.500 Z0.312 I-6.749 J0.000 F800.000
G2 X94.249 Y12.500 Z-0.375 I6.749 J0.000 F800.000
G2 X80.751 Y12.500 Z-1.062 I-6.749 J0.000 F800.000
G2 X94.249 Y12.500 Z-1.750 I6.749 J0.000 F800.000
G2 X80.751 Y12.500 Z-1.750 I-6.749 J0.000 F800.000
G2 X94.249 Y12.500 Z-1.750 I6.749 J0.000 F800.000
G0 Z1.000
G0 X92.958 Y12.500
G1 Z1.000 F800.000
G2 X82.042 Y12.500 Z0.312 I-5.458 J0.000 F800.000
G2 X92.958 Y12.500 Z-0.375 I5.458 J0.000 F800.000
G2 X82.042 Y12.500 Z-1.062 I-5.458 J0.000 F800.000
G2 X92.958 Y12.500 Z-1.750 I5.458 J0.000 F800.000
G2 X82.042 Y12.500 Z-1.750 I-5.458 J0.000 F800.000
G2 X92.958 Y12.500 Z-1.750 I5.458 J0.000 F800.000
G0 Z1.000
G0 X91.667 Y12.500
G1 Z1.000 F800.000
G2 X83.333 Y12.500 Z0.312 I-4.167 J0.000 F800.000
G2 X91.667 Y12.500 Z-0.375 I4.167 J0.000 F800.000
G2 X83.333 Y12.500 Z-1.062 I-4.167 J0.000 F800.000
G2 X91.667 Y12.500 Z-1.750 I4.167 J0.000 F800.000
G2 X83.333 Y12.500 Z-1.750 I-4.167 J0.000 F800.000
G2 X91.667 Y12.500 Z-1.750 I4.167 J0.000 F800.000
G0 Z1.000
G0 X90.376 Y12.500
G1 Z1.000 F800.000
G2 X84.624 Y12.500 Z0.312 I-2.876 J0.000 F800.000
G2 X90.376 Y12.500 Z-0.375 I2.876 J0.000 F800.000
G2 X84.624 Y12.500 Z-1.062 I-2.876 J0.000 F800.000
G2 X90.376 Y12.500 Z-1.750 I2.876 J0.000 F800.000
G2 X84.624 Y12.500 Z-1.750 I-2.876 J0.000 F800.000
G2 X90.376 Y12.500 Z-1.750 I2.876 J0.000 F800.000
G0 Z1.000
G0 X89.085 Y12.500
G1 Z1.000 F800.000
G2 X85.915 Y12.500 Z0.312 I-1.585 J0.000 F800.000
G2 X89.085 Y12.500 Z-0.375 I1.585 J0.000 F800.000
G2 X85.915 Y12.500 Z-1.062 I-1.585 J0.000 F800.000
G2 X89.085 Y12.500 Z-1.750 I1.585 J0.000 F800.000
G2 X85.915 Y12.500 Z-1.750 I-1.585 J0.000 F800.000
G2 X89.085 Y12.500 Z-1.750 I1.585 J0.000 F800.000
G0 Z1.000
G0 Z6.000
G0 X87.500 Y-12.500 Z6.000
G0 X87.500 Y-12.500 Z1.000
G0 X95.540 Y-12.500
G1 Z1.000 F800.000
G2 X79.460 Y-12.500 Z0.312 I-8.040 J0.000 F800.000
G2 X95.540 Y-12.500 Z-0.375 I8.040 J0.000 F800.000
G2 X79.460 Y-12.500 Z-1.062 I-8.040 J0.000 F800.000
G2 X95.540 Y-12.500 Z-1.750 I8.040 J0.000 F800.000
G2 X79.460 Y-12.500 Z-1.750 I-8.040 J0.000 F800.000
G2 X95.540 Y-12.500 Z-1.750 I8.040 J0.000 F800.000
G0 Z1.000
G0 X94.249 Y-12.500
G1 Z1.000 F800.000
G2 X80.751 Y-12.500 Z0.312 I-6.749 J0.000 F800.000
G2 X94.249 Y-12.500 Z-0.375 I6.749 J0.000 F800.000
G2 X80.751 Y-12.500 Z-1.062 I-6.749 J0.000 F800.000
G2 X94.249 Y-12.500 Z-1.750 I6.749 J0.000 F800.000
G2 X80.751 Y-12.500 Z-1.750 I-6.749 J0.000 F800.000
G2 X94.249 Y-12.500 Z-1.750 I6.749 J0.000 F800.000
G0 Z1.000
G0 X92.958 Y-12.500
G1 Z1.000 F800.000
G2 X82.042 Y-12.500 Z0.312 I-5.458 J0.000 F800.000
G2 X92.958 Y-12.500 Z-0.375 I5.458 J0.000 F800.000
G2 X82.042 Y-12.500 Z-1.062 I-5.458 J0.000 F800.000
G2 X92.958 Y-12.500 Z-1.750 I5.458 J0.000 F800.000
G2 X82.042 Y-12.500 Z-1.750 I-5.458 J0.000 F800.000
G2 X92.958 Y-12.500 Z-1.750 I5.458 J0.000 F800.000
G0 Z1.000
G0 X91.667 Y-12.500
G1 Z1.000 F800.000
G2 X83.333 Y-12.500 Z0.312 I-4.167 J0.000 F800.000
G2 X91.667 Y-12.500 Z-0.375 I4.167 J0.000 F800.000
G2 X83.333 Y-12.500 Z-1.062 I-4.167 J0.000 F800.000
G2 X91.667 Y-12.500 Z-1.750 I4.167 J0.000 F800.000
G2 X83.333 Y-12.500 Z-1.750 I-4.167 J0.000 F800.000
G2 X91.667 Y-12.500 Z-1.750 I4.167 J0.000 F800.000
G0 Z1.000
G0 X90.376 Y-12.500
G1 Z1.000 F800.000
G2 X84.624 Y-12.500 Z0.312 I-2.876 J0.000 F800.000
G2 X90.376 Y-12.500 Z-0.375 I2.876 J0.000 F800.000
G2 X84.624 Y-12.500 Z-1.062 I-2.876 J0.000 F800.000
G2 X90.376 Y-12.500 Z-1.750 I2.876 J0.000 F800.000
G2 X84.624 Y-12.500 Z-1.750 I-2.876 J0.000 F800.000
G2 X90.376 Y-12.500 Z-1.750 I2.876 J0.000 F800.000
G0 Z1.000
G0 X89.085 Y-12.500
G1 Z1.000 F800.000
G2 X85.915 Y-12.500 Z0.312 I-1.585 J0.000 F800.000
G2 X89.085 Y-12.500 Z-0.375 I1.585 J0.000 F800.000
G2 X85.915 Y-12.500 Z-1.062 I-1.585 J0.000 F800.000
G2 X89.085 Y-12.500 Z-1.750 I1.585 J0.000 F800.000
G2 X85.915 Y-12.500 Z-1.750 I-1.585 J0.000 F800.000
G2 X89.085 Y-12.500 Z-1.750 I1.585 J0.000 F800.000
G0 Z1.000
G0 Z6.000
G0 X87.500 Y-37.500 Z6.000
G0 X87.500 Y-37.500 Z1.000
G0 X95.540 Y-37.500
G1 Z1.000 F800.000
G2 X79.460 Y-37.500 Z0.312 I-8.040 J0.000 F800.000
G2 X95.540 Y-37.500 Z-0.375 I8.040 J0.000 F800.000
G2 X79.460 Y-37.500 Z-1.062 I-8.040 J0.000 F800.000
G2 X95.540 Y-37.500 Z-1.750 I8.040 J0.000 F800.000
G2 X79.460 Y-37.500 Z-1.750 I-8.040 J0.000 F800.000
G2 X95.540 Y-37.500 Z-1.750 I8.040 J0.000 F800.000
G0 Z1.000
G0 X94.249 Y-37.500
G1 Z1.000 F800.000
G2 X80.751 Y-37.500 Z0.312 I-6.749 J0.000 F800.000
G2 X94.249 Y-37.500 Z-0.375 I6.749 J0.000 F800.000
G2 X80.751 Y-37.500 Z-1.062 I-6.749 J0.000 F800.000
G2 X94.249 Y-37.500 Z-1.750 I6.749 J0.000 F800.000
G2 X80.751 Y-37.500 Z-1.750 I-6.749 J0.000 F800.000
G2 X94.249 Y-37.500 Z-1.750 I6.749 J0.000 F800.000
G0 Z1.000
G0 X92.958 Y-37.500
G1 Z1.000 F800.000
G2 X82.042 Y-37.500 Z0.312 I-5.458 J0.000 F800.000
G2 X92.958 Y-37.500 Z-0.375 I5.458 J0.000 F800.000
G2 X82.042 Y-37.500 Z-1.062 I-5.458 J0.000 F800.000
G2 X92.958 Y-37.500 Z-1.750 I5.458 J0.000 F800.000
G2 X82.042 Y-37.500 Z-1.750 I-5.458 J0.000 F800.000
G2 X92.958 Y-37.500 Z-1.750 I5.458 J0.000 F800.000
G0 Z1.000
G0 X91.667 Y-37.500
G1 Z1.000 F800.000
G2 X83.333 Y-37.500 Z0.312 I-4.167 J0.000 F800.000
G2 X91.667 Y-37.500 Z-0.375 I4.167 J0.000 F800.000
G2 X83.333 Y-37.500 Z-1.062 I-4.167 J0.000 F800.000
G2 X91.667 Y-37.500 Z-1.750 I4.167 J0.000 F800.000
G2 X83.333 Y-37.500 Z-1.750 I-4.167 J0.000 F800.000
G2 X91.667 Y-37.500 Z-1.750 I4.167 J0.000 F800.000
G0 Z1.000
G0 X90.376 Y-37.500
G1 Z1.000 F800.000
G2 X84.624 Y-37.500 Z0.312 I-2.876 J0.000 F800.000
G2 X90.376 Y-37.500 Z-0.375 I2.876 J0.000 F800.000
G2 X84.624 Y-37.500 Z-1.062 I-2.876 J0.000 F800.000
G2 X90.376 Y-37.500 Z-1.750 I2.876 J0.000 F800.000
G2 X84.624 Y-37.500 Z-1.750 I-2.876 J0.000 F800.000
G2 X90.376 Y-37.500 Z-1.750 I2.876 J0.000 F800.000
G0 Z1.000
G0 X89.085 Y-37.500
G1 Z1.000 F800.000
G2 X85.915 Y-37.500 Z0.312 I-1.585 J0.000 F800.000
G2 X89.085 Y-37.500 Z-0.375 I1.585 J0.000 F800.000
G2 X85.915 Y-37.500 Z-1.062 I-1.585 J0.000 F800.000
G2 X89.085 Y-37.500 Z-1.750 I1.585 J0.000 F800.000
G2 X85.915 Y-37.500 Z-1.750 I-1.585 J0.000 F800.000
G2 X89.085 Y-37.500 Z-1.750 I1.585 J0.000 F800.000
G0 Z1.000
G0 Z6.000
G0 X87.500 Y-62.500 Z6.000
G0 X87.500 Y-62.500 Z1.000
G0 X95.540 Y-62.500
G1 Z1.000 F800.000
G2 X79.460 Y-62.500 Z0.312 I-8.040 J0.000 F800.000
G2 X95.540 Y-62.500 Z-0.375 I8.040 J0.000 F800.000
G2 X79.460 Y-62.500 Z-1.062 I-8.040 J0.000 F800.000
G2 X95.540 Y-62.500 Z-1.750 I8.040 J0.000 F800.000
G2 X79.460 Y-62.500 Z-1.750 I-8.040 J0.000 F800.000
G2 X95.540 Y-62.500 Z-1.750 I8.040 J0.000 F800.000
G0 Z1.000
G0 X94.249 Y-62.500
G1 Z1.000 F800.000
G2 X80.751 Y-62.500 Z0.312 I-6.749 J0.000 F800.000
G2 X94.249 Y-62.500 Z-0.375 I6.749 J0.000 F800.000
G2 X80.751 Y-62.500 Z-1.062 I-6.749 J0.000 F800.000
G2 X94.249 Y-62.500 Z-1.750 I6.749 J0.000 F800.000
G2 X80.751 Y-62.500 Z-1.750 I-6.749 J0.000 F800.000
G2 X94.249 Y-62.500 Z-1.750 I6.749 J0.000 F800.000
G0 Z1.000
G0 X92.958 Y-62.500
G1 Z1.000 F800.000
G2 X82.042 Y-62.500 Z0.312 I-5.458 J0.000 F800.000
G2 X92.958 Y-62.500 Z-0.375 I5.458 J0.000 F800.000
G2 X82.042 Y-62.500 Z-1.062 I-5.458 J0.000 F800.000
G2 X92.958 Y-62.500 Z-1.750 I5.458 J0.000 F800.000
G2 X82.042 Y-62.500 Z-1.750 I-5.458 J0.000 F800.000
G2 X92.958 Y-62.500 Z-1.750 I5.458 J0.000 F800.000
G0 Z1.000
G0 X91.667 Y-62.500
G1 Z1.000 F800.000
G2 X83.333 Y-62.500 Z0.312 I-4.167 J0.000 F800.000
G2 X91.667 Y-62.500 Z-0.375 I4.167 J0.000 F800.000
G2 X83.333 Y-62.500 Z-1.062 I-4.167 J0.000 F800.000
G2 X91.667 Y-62.500 Z-1.750 I4.167 J0.000 F800.000
G2 X83.333 Y-62.500 Z-1.750 I-4.167 J0.000 F800.000
G2 X91.667 Y-62.500 Z-1.750 I4.167 J0.000 F800.000
G0 Z1.000
G0 X90.376 Y-62.500
G1 Z1.000 F800.000
G2 X84.624 Y-62.500 Z0.312 I-2.876 J0.000 F800.000
G2 X90.376 Y-62.500 Z-0.375 I2.876 J0.000 F800.000
G2 X84.624 Y-62.500 Z-1.062 I-2.876 J0.000 F800.000
G2 X90.376 Y-62.500 Z-1.750 I2.876 J0.000 F800.000
G2 X84.624 Y-62.500 Z-1.750 I-2.876 J0.000 F800.000
G2 X90.376 Y-62.500 Z-1.750 I2.876 J0.000 F800.000
G0 Z1.000
G0 X89.085 Y-62.500
G1 Z1.000 F800.000
G2 X85.915 Y-62.500 Z0.312 I-1.585 J0.000 F800.000
G2 X89.085 Y-62.500 Z-0.375 I1.585 J0.000 F800.000
G2 X85.915 Y-62.500 Z-1.062 I-1.585 J0.000 F800.000
G2 X89.085 Y-62.500 Z-1.750 I1.585 J0.000 F800.000
G2 X85.915 Y-62.500 Z-1.750 I-1.585 J0.000 F800.000
G2 X89.085 Y-62.500 Z-1.750 I1.585 J0.000 F800.000
G0 Z1.000
G0 Z6.000
G0 X112.500 Y-62.500 Z6.000
G0 X112.500 Y-62.500 Z1.000
G0 X120.540 Y-62.500
G1 Z1.000 F800.000
G2 X104.460 Y-62.500 Z0.312 I-8.040 J0.000 F800.000
G2 X120.540 Y-62.500 Z-0.375 I8.040 J0.000 F800.000
G2 X104.460 Y-62.500 Z-1.062 I-8.040 J0.000 F800.000
G2 X120.540 Y-62.500 Z-1.750 I8.040 J0.000 F800.000
G2 X104.460 Y-62.500 Z-1.750 I-8.040 J0.000 F800.000
G2 X120.540 Y-62.500 Z-1.750 I8.040 J0.000 F800.000
G0 Z1.000
G0 X119.249 Y-62.500
G1 Z1.000 F800.000
G2 X105.751 Y-62.500 Z0.312 I-6.749 J0.000 F800.000
G2 X119.249 Y-62.500 Z-0.375 I6.749 J0.000 F800.000
G2 X105.751 Y-62.500 Z-1.062 I-6.749 J0.000 F800.000
G2 X119.249 Y-62.500 Z-1.750 I6.749 J0.000 F800.000
G2 X105.751 Y-62.500 Z-1.750 I-6.749 J0.000 F800.000
G2 X119.249 Y-62.500 Z-1.750 I6.749 J0.000 F800.000
G0 Z1.000
G0 X117.958 Y-62.500
G1 Z1.000 F800.000
G2 X107.042 Y-62.500 Z0.312 I-5.458 J0.000 F800.000
G2 X117.958 Y-62.500 Z-0.375 I5.458 J0.000 F800.000
G2 X107.042 Y-62.500 Z-1.062 I-5.458 J0.000 F800.000
G2 X117.958 Y-62.500 Z-1.750 I5.458 J0.000 F800.000
G2 X107.042 Y-62.500 Z-1.750 I-5.458 J0.000 F800.000
G2 X117.958 Y-62.500 Z-1.750 I5.458 J0.000 F800.000
G0 Z1.000
G0 X116.667 Y-62.500
G1 Z1.000 F800.000
G2 X108.333 Y-62.500 Z0.312 I-4.167 J0.000 F800.000
G2 X116.667 Y-62.500 Z-0.375 I4.167 J0.000 F800.000
G2 X108.333 Y-62.500 Z-1.062 I-4.167 J0.000 F800.000
G2 X116.667 Y-62.500 Z-1.750 I4.167 J0.000 F800.000
G2 X108.333 Y-62.500 Z-1.750 I-4.167 J0.000 F800.000
G2 X116.667 Y-62.500 Z-1.750 I4.167 J0.000 F800.000
G0 Z1.000
G0 X115.376 Y-62.500
G1 Z1.000 F800.000
G2 X109.624 Y-62.500 Z0.312 I-2.876 J0.000 F800.000
G2 X115.376 Y-62.500 Z-0.375 I2.876 J0.000 F800.000
G2 X109.624 Y-62.500 Z-1.062 I-2.876 J0.000 F800.000
G2 X115.376 Y-62.500 Z-1.750 I2.876 J0.000 F800.000
G2 X109.624 Y-62.500 Z-1.750 I-2.876 J0.000 F800.000
G2 X115.376 Y-62.500 Z-1.750 I2.876 J0.000 F800.000
G0 Z1.000
G0 X114.085 Y-62.500
G1 Z1.000 F800.000
G2 X110.915 Y-62.500 Z0.312 I-1.585 J0.000 F800.000
G2 X114.085 Y-62.500 Z-0.375 I1.585 J0.000 F800.000
G2 X110.915 Y-62.500 Z-1.062 I-1.585 J0.000 F800.000
G2 X114.085 Y-62.500 Z-1.750 I1.585 J0.000 F800.000
G2 X110.915 Y-62.500 Z-1.750 I-1.585 J0.000 F800.000
G2 X114.085 Y-62.500 Z-1.750 I1.585 J0.000 F800.000
G0 Z1.000
G0 Z6.000
G0 X112.500 Y-37.500 Z6.000
G0 X112.500 Y-37.500 Z1.000
G0 X120.540 Y-37.500
G1 Z1.000 F800.000
G2 X104.460 Y-37.500 Z0.312 I-8.040 J0.000 F800.000
G2 X120.540 Y-37.500 Z-0.375 I8.040 J0.000 F800.000
G2 X104.460 Y-37.500 Z-1.062 I-8.040 J0.000 F800.000
G2 X120.540 Y-37.500 Z-1.750 I8.040 J0.000 F800.000
G2 X104.460 Y-37.500 Z-1.750 I-8.040 J0.000 F800.000
G2 X120.540 Y-37.500 Z-1.750 I8.040 J0.000 F800.000
G0 Z1.000
G0 X119.249 Y-37.500
G1 Z1.000 F800.000
G2 X105.751 Y-37.500 Z0.312 I-6.749 J0.000 F800.000
G2 X119.249 Y-37.500 Z-0.375 I6.749 J0.000 F800.000
G2 X105.751 Y-37.500 Z-1.062 I-6.749 J0.000 F800.000
G2 X119.249 Y-37.500 Z-1.750 I6.749 J0.000 F800.000
G2 X105.751 Y-37.500 Z-1.750 I-6.749 J0.000 F800.000
G2 X119.249 Y-37.500 Z-1.750 I6.749 J0.000 F800.000
G0 Z1.000
G0 X117.958 Y-37.500
G1 Z1.000 F800.000
G2 X107.042 Y-37.500 Z0.312 I-5.458 J0.000 F800.000
G2 X117.958 Y-37.500 Z-0.375 I5.458 J0.000 F800.000
G2 X107.042 Y-37.500 Z-1.062 I-5.458 J0.000 F800.000
G2 X117.958 Y-37.500 Z-1.750 I5.458 J0.000 F800.000
G2 X107.042 Y-37.500 Z-1.750 I-5.458 J0.000 F800.000
G2 X117.958 Y-37.500 Z-1.750 I5.458 J0.000 F800.000
G0 Z1.000
G0 X116.667 Y-37.500
G1 Z1.000 F800.000
G2 X108.333 Y-37.500 Z0.312 I-4.167 J0.000 F800.000
G2 X116.667 Y-37.500 Z-0.375 I4.167 J0.000 F800.000
G2 X108.333 Y-37.500 Z-1.062 I-4.167 J0.000 F800.000
G2 X116.667 Y-37.500 Z-1.750 I4.167 J0.000 F800.000
G2 X108.333 Y-37.500 Z-1.750 I-4.167 J0.000 F800.000
G2 X116.667 Y-37.500 Z-1.750 I4.167 J0.000 F800.000
G0 Z1.000
G0 X115.376 Y-37.500
G1 Z1.000 F800.000
G2 X109.624 Y-37.500 Z0.312 I-2.876 J0.000 F800.000
G2 X115.376 Y-37.500 Z-0.375 I2.876 J0.000 F800.000
G2 X109.624 Y-37.500 Z-1.062 I-2.876 J0.000 F800.000
G2 X115.376 Y-37.500 Z-1.750 I2.876 J0.000 F800.000
G2 X109.624 Y-37.500 Z-1.750 I-2.876 J0.000 F800.000
G2 X115.376 Y-37.500 Z-1.750 I2.876 J0.000 F800.000
G0 Z1.000
G0 X114.085 Y-37.500
G1 Z1.000 F800.000
G2 X110.915 Y-37.500 Z0.312 I-1.585 J0.000 F800.000
G2 X114.085 Y-37.500 Z-0.375 I1.585 J0.000 F800.000
G2 X110.915 Y-37.500 Z-1.062 I-1.585 J0.000 F800.000
G2 X114.085 Y-37.500 Z-1.750 I1.585 J0.000 F800.000
G2 X110.915 Y-37.500 Z-1.750 I-1.585 J0.000 F800.000
G2 X114.085 Y-37.500 Z-1.750 I1.585 J0.000 F800.000
G0 Z1.000
G0 Z6.000
G0 X112.500 Y-12.500 Z6.000
G0 X112.500 Y-12.500 Z1.000
G0 X120.540 Y-12.500
G1 Z1.000 F800.000
G2 X104.460 Y-12.500 Z0.312 I-8.040 J0.000 F800.000
G2 X120.540 Y-12.500 Z-0.375 I8.040 J0.000 F800.000
G2 X104.460 Y-12.500 Z-1.062 I-8.040 J0.000 F800.000
G2 X120.540 Y-12.500 Z-1.750 I8.040 J0.000 F800.000
G2 X104.460 Y-12.500 Z-1.750 I-8.040 J0.000 F800.000
G2 X120.540 Y-12.500 Z-1.750 I8.040 J0.000 F800.000
G0 Z1.000
G0 X119.249 Y-12.500
G1 Z1.000 F800.000
G2 X105.751 Y-12.500 Z0.312 I-6.749 J0.000 F800.000
G2 X119.249 Y-12.500 Z-0.375 I6.749 J0.000 F800.000
G2 X105.751 Y-12.500 Z-1.062 I-6.749 J0.000 F800.000
G2 X119.249 Y-12.500 Z-1.750 I6.749 J0.000 F800.000
G2 X105.751 Y-12.500 Z-1.750 I-6.749 J0.000 F800.000
G2 X119.249 Y-12.500 Z-1.750 I6.749 J0.000 F800.000
G0 Z1.000
G0 X117.958 Y-12.500
G1 Z1.000 F800.000
G2 X107.042 Y-12.500 Z0.312 I-5.458 J0.000 F800.000
G2 X117.958 Y-12.500 Z-0.375 I5.458 J0.000 F800.000
G2 X107.042 Y-12.500 Z-1.062 I-5.458 J0.000 F800.000
G2 X117.958 Y-12.500 Z-1.750 I5.458 J0.000 F800.000
G2 X107.042 Y-12.500 Z-1.750 I-5.458 J0.000 F800.000
G2 X117.958 Y-12.500 Z-1.750 I5.458 J0.000 F800.000
G0 Z1.000
G0 X116.667 Y-12.500
G1 Z1.000 F800.000
G2 X108.333 Y-12.500 Z0.312 I-4.167 J0.000 F800.000
G2 X116.667 Y-12.500 Z-0.375 I4.167 J0.000 F800.000
G2 X108.333 Y-12.500 Z-1.062 I-4.167 J0.000 F800.000
G2 X116.667 Y-12.500 Z-1.750 I4.167 J0.000 F800.000
G2 X108.333 Y-12.500 Z-1.750 I-4.167 J0.000 F800.000
G2 X116.667 Y-12.500 Z-1.750 I4.167 J0.000 F800.000
G0 Z1.000
G0 X115.376 Y-12.500
G1 Z1.000 F800.000
G2 X109.624 Y-12.500 Z0.312 I-2.876 J0.000 F800.000
G2 X115.376 Y-12.500 Z-0.375 I2.876 J0.000 F800.000
G2 X109.624 Y-12.500 Z-1.062 I-2.876 J0.000 F800.000
G2 X115.376 Y-12.500 Z-1.750 I2.876 J0.000 F800.000
G2 X109.624 Y-12.500 Z-1.750 I-2.876 J0.000 F800.000
G2 X115.376 Y-12.500 Z-1.750 I2.876 J0.000 F800.000
G0 Z1.000
G0 X114.085 Y-12.500
G1 Z1.000 F800.000
G2 X110.915 Y-12.500 Z0.312 I-1.585 J0.000 F800.000
G2 X114.085 Y-12.500 Z-0.375 I1.585 J0.000 F800.000
G2 X110.915 Y-12.500 Z-1.062 I-1.585 J0.000 F800.000
G2 X114.085 Y-12.500 Z-1.750 I1.585 J0.000 F800.000
G2 X110.915 Y-12.500 Z-1.750 I-1.585 J0.000 F800.000
G2 X114.085 Y-12.500 Z-1.750 I1.585 J0.000 F800.000
G0 Z1.000
G0 Z6.000
G0 X112.500 Y12.500 Z6.000
G0 X112.500 Y12.500 Z1.000
G0 X120.540 Y12.500
G1 Z1.000 F800.000
G2 X104.460 Y12.500 Z0.312 I-8.040 J0.000 F800.000
G2 X120.540 Y12.500 Z-0.375 I8.040 J0.000 F800.000
G2 X104.460 Y12.500 Z-1.062 I-8.040 J0.000 F800.000
G2 X120.540 Y12.500 Z-1.750 I8.040 J0.000 F800.000
G2 X104.460 Y12.500 Z-1.750 I-8.040 J0.000 F800.000
G2 X120.540 Y12.500 Z-1.750 I8.040 J0.000 F800.000
G0 Z1.000
G0 X119.249 Y12.500
G1 Z1.000 F800.000
G2 X105.751 Y12.500 Z0.312 I-6.749 J0.000 F800.000
G2 X119.249 Y12.500 Z-0.375 I6.749 J0.000 F800.000
G2 X105.751 Y12.500 Z-1.062 I-6.749 J0.000 F800.000
G2 X119.249 Y12.500 Z-1.750 I6.749 J0.000 F800.000
G2 X105.751 Y12.500 Z-1.750 I-6.749 J0.000 F800.000
G2 X119.249 Y12.500 Z-1.750 I6.749 J0.000 F800.000
G0 Z1.000
G0 X117.958 Y12.500
G1 Z1.000 F800.000
G2 X107.042 Y12.500 Z0.312 I-5.458 J0.000 F800.000
G2 X117.958 Y12.500 Z-0.375 I5.458 J0.000 F800.000
G2 X107.042 Y12.500 Z-1.062 I-5.458 J0.000 F800.000
G2 X117.958 Y12.500 Z-1.750 I5.458 J0.000 F800.000
G2 X107.042 Y12.500 Z-1.750 I-5.458 J0.000 F800.000
G2 X117.958 Y12.500 Z-1.750 I5.458 J0.000 F800.000
G0 Z1.000
G0 X116.667 Y12.500
G1 Z1.000 F800.000
G2 X108.333 Y12.500 Z0.312 I-4.167 J0.000 F800.000
G2 X116.667 Y12.500 Z-0.375 I4.167 J0.000 F800.000
G2 X108.333 Y12.500 Z-1.062 I-4.167 J0.000 F800.000
G2 X116.667 Y12.500 Z-1.750 I4.167 J0.000 F800.000
G2 X108.333 Y12.500 Z-1.750 I-4.167 J0.000 F800.000
G2 X116.667 Y12.500 Z-1.750 I4.167 J0.000 F800.000
G0 Z1.000
G0 X115.376 Y12.500
G1 Z1.000 F800.000
G2 X109.624 Y12.500 Z0.312 I-2.876 J0.000 F800.000
G2 X115.376 Y12.500 Z-0.375 I2.876 J0.000 F800.000
G2 X109.624 Y12.500 Z-1.062 I-2.876 J0.000 F800.000
G2 X115.376 Y12.500 Z-1.750 I2.876 J0.000 F800.000
G2 X109.624 Y12.500 Z-1.750 I-2.876 J0.000 F800.000
G2 X115.376 Y12.500 Z-1.750 I2.876 J0.000 F800.000
G0 Z1.000
G0 X114.085 Y12.500
G1 Z1.000 F800.000
G2 X110.915 Y12.500 Z0.312 I-1.585 J0.000 F800.000
G2 X114.085 Y12.500 Z-0.375 I1.585 J0.000 F800.000
G2 X110.915 Y12.500 Z-1.062 I-1.585 J0.000 F800.000
G2 X114.085 Y12.500 Z-1.750 I1.585 J0.000 F800.000
G2 X110.915 Y12.500 Z-1.750 I-1.585 J0.000 F800.000
G2 X114.085 Y12.500 Z-1.750 I1.585 J0.000 F800.000
G0 Z1.000
G0 Z6.000
G0 X112.500 Y37.500 Z6.000
G0 X112.500 Y37.500 Z1.000
G0 X120.540 Y37.500
G1 Z1.000 F800.000
G2 X104.460 Y37.500 Z0.312 I-8.040 J0.000 F800.000
G2 X120.540 Y37.500 Z-0.375 I8.040 J0.000 F800.000
G2 X104.460 Y37.500 Z-1.062 I-8.040 J0.000 F800.000
G2 X120.540 Y37.500 Z-1.750 I8.040 J0.000 F800.000
G2 X104.460 Y37.500 Z-1.750 I-8.040 J0.000 F800.000
G2 X120.540 Y37.500 Z-1.750 I8.040 J0.000 F800.000
G0 Z1.000
G0 X119.249 Y37.500
G1 Z1.000 F800.000
G2 X105.751 Y37.500 Z0.312 I-6.749 J0.000 F800.000
G2 X119.249 Y37.500 Z-0.375 I6.749 J0.000 F800.000
G2 X105.751 Y37.500 Z-1.062 I-6.749 J0.000 F800.000
G2 X119.249 Y37.500 Z-1.750 I6.749 J0.000 F800.000
G2 X105.751 Y37.500 Z-1.750 I-6.749 J0.000 F800.000
G2 X119.249 Y37.500 Z-1.750 I6.749 J0.000 F800.000
G0 Z1.000
G0 X117.958 Y37.500
G1 Z1.000 F800.000
G2 X107.042 Y37.500 Z0.312 I-5.458 J0.000 F800.000
G2 X117.958 Y37.500 Z-0.375 I5.458 J0.000 F800.000
G2 X107.042 Y37.500 Z-1.062 I-5.458 J0.000 F800.000
G2 X117.958 Y37.500 Z-1.750 I5.458 J0.000 F800.000
G2 X107.042 Y37.500 Z-1.750 I-5.458 J0.000 F800.000
G2 X117.958 Y37.500 Z-1.750 I5.458 J0.000 F800.000
G0 Z1.000
G0 X116.667 Y37.500
G1 Z1.000 F800.000
G2 X108.333 Y37.500 Z0.312 I-4.167 J0.000 F800.000
G2 X116.667 Y37.500 Z-0.375 I4.167 J0.000 F800.000
G2 X108.333 Y37.500 Z-1.062 I-4.167 J0.000 F800.000
G2 X116.667 Y37.500 Z-1.750 I4.167 J0.000 F800.000
G2 X108.333 Y37.500 Z-1.750 I-4.167 J0.000 F800.000
G2 X116.667 Y37.500 Z-1.750 I4.167 J0.000 F800.000
G0 Z1.000
G0 X115.376 Y37.500
G1 Z1.000 F800.000
G2 X109.624 Y37.500 Z0.312 I-2.876 J0.000 F800.000
G2 X115.376 Y37.500 Z-0.375 I2.876 J0.000 F800.000
G2 X109.624 Y37.500 Z-1.062 I-2.876 J0.000 F800.000
G2 X115.376 Y37.500 Z-1.750 I2.876 J0.000 F800.000
G2 X109.624 Y37.500 Z-1.750 I-2.876 J0.000 F800.000
G2 X115.376 Y37.500 Z-1.750 I2.876 J0.000 F800.000
G0 Z1.000
G0 X114.085 Y37.500
G1 Z1.000 F800.000
G2 X110.915 Y37.500 Z0.312 I-1.585 J0.000 F800.000
G2 X114.085 Y37.500 Z-0.375 I1.585 J0.000 F800.000
G2 X110.915 Y37.500 Z-1.062 I-1.585 J0.000 F800.000
G2 X114.085 Y37.500 Z-1.750 I1.585 J0.000 F800.000
G2 X110.915 Y37.500 Z-1.750 I-1.585 J0.000 F800.000
G2 X114.085 Y37.500 Z-1.750 I1.585 J0.000 F800.000
G0 Z1.000
G0 Z6.000
G0 X112.500 Y62.500 Z6.000
G0 X112.500 Y62.500 Z1.000
G0 X120.540 Y62.500
G1 Z1.000 F800.000
G2 X104.460 Y62.500 Z0.312 I-8.040 J0.000 F800.000
G2 X120.540 Y62.500 Z-0.375 I8.040 J0.000 F800.000
G2 X104.460 Y62.500 Z-1.062 I-8.040 J0.000 F800.000
G2 X120.540 Y62.500 Z-1.750 I8.040 J0.000 F800.000
G2 X104.460 Y62.500 Z-1.750 I-8.040 J0.000 F800.000
G2 X120.540 Y62.500 Z-1.750 I8.040 J0.000 F800.000
G0 Z1.000
G0 X119.249 Y62.500
G1 Z1.000 F800.000
G2 X105.751 Y62.500 Z0.312 I-6.749 J0.000 F800.000
G2 X119.249 Y62.500 Z-0.375 I6.749 J0.000 F800.000
G2 X105.751 Y62.500 Z-1.062 I-6.749 J0.000 F800.000
G2 X119.249 Y62.500 Z-1.750 I6.749 J0.000 F800.000
G2 X105.751 Y62.500 Z-1.750 I-6.749 J0.000 F800.000
G2 X119.249 Y62.500 Z-1.750 I6.749 J0.000 F800.000
G0 Z1.000
G0 X117.958 Y62.500
G1 Z1.000 F800.000
G2 X107.042 Y62.500 Z0.312 I-5.458 J0.000 F800.000
G2 X117.958 Y62.500 Z-0.375 I5.458 J0.000 F800.000
G2 X107.042 Y62.500 Z-1.062 I-5.458 J0.000 F800.000
G2 X117.958 Y62.500 Z-1.750 I5.458 J0.000 F800.000
G2 X107.042 Y62.500 Z-1.750 I-5.458 J0.000 F800.000
G2 X117.958 Y62.500 Z-1.750 I5.458 J0.000 F800.000
G0 Z1.000
G0 X116.667 Y62.500
G1 Z1.000 F800.000
G2 X108.333 Y62.500 Z0.312 I-4.167 J0.000 F800.000
G2 X116.667 Y62.500 Z-0.375 I4.167 J0.000 F800.000
G2 X108.333 Y62.500 Z-1.062 I-4.167 J0.000 F800.000
G2 X116.667 Y62.500 Z-1.750 I4.167 J0.000 F800.000
G2 X108.333 Y62.500 Z-1.750 I-4.167 J0.000 F800.000
G2 X116.667 Y62.500 Z-1.750 I4.167 J0.000 F800.000
G0 Z1.000
G0 X115.376 Y62.500
G1 Z1.000 F800.000
G2 X109.624 Y62.500 Z0.312 I-2.876 J0.000 F800.000
G2 X115.376 Y62.500 Z-0.375 I2.876 J0.000 F800.000
G2 X109.624 Y62.500 Z-1.062 I-2.876 J0.000 F800.000
G2 X115.376 Y62.500 Z-1.750 I2.876 J0.000 F800.000
G2 X109.624 Y62.500 Z-1.750 I-2.876 J0.000 F800.000
G2 X115.376 Y62.500 Z-1.750 I2.876 J0.000 F800.000
G0 Z1.000
G0 X114.085 Y62.500
G1 Z1.000 F800.000
G2 X110.915 Y62.500 Z0.312 I-1.585 J0.000 F800.000
G2 X114.085 Y62.500 Z-0.375 I1.585 J0.000 F800.000
G2 X110.915 Y62.500 Z-1.062 I-1.585 J0.000 F800.000
G2 X114.085 Y62.500 Z-1.750 I1.585 J0.000 F800.000
G2 X110.915 Y62.500 Z-1.750 I-1.585 J0.000 F800.000
G2 X114.085 Y62.500 Z-1.750 I1.585 J0.000 F800.000
G0 Z1.000
G0 Z6.000
G0 X-37.500 Y62.500 Z6.000
G0 X-37.500 Y62.500 Z1.000
G0 X-29.460 Y62.500
G1 Z1.000 F800.000
G2 X-45.540 Y62.500 Z0.312 I-8.040 J0.000 F800.000
G2 X-29.460 Y62.500 Z-0.375 I8.040 J0.000 F800.000
G2 X-45.540 Y62.500 Z-1.062 I-8.040 J0.000 F800.000
G2 X-29.460 Y62.500 Z-1.750 I8.040 J0.000 F800.000
G2 X-45.540 Y62.500 Z-1.750 I-8.040 J0.000 F800.000
G2 X-29.460 Y62.500 Z-1.750 I8.040 J0.000 F800.000
G0 Z1.000
G0 X-30.751 Y62.500
G1 Z1.000 F800.000
G2 X-44.249 Y62.500 Z0.312 I-6.749 J0.000 F800.000
G2 X-30.751 Y62.500 Z-0.375 I6.749 J0.000 F800.000
G2 X-44.249 Y62.500 Z-1.062 I-6.749 J0.000 F800.000
G2 X-30.751 Y62.500 Z-1.750 I6.749 J0.000 F800.000
G2 X-44.249 Y62.500 Z-1.750 I-6.749 J0.000 F800.000
G2 X-30.751 Y62.500 Z-1.750 I6.749 J0.000 F800.000
G0 Z1.000
G0 X-32.042 Y62.500
G1 Z1.000 F800.000
G2 X-42.958 Y62.500 Z0.312 I-5.458 J0.000 F800.000
G2 X-32.042 Y62.500 Z-0.375 I5.458 J0.000 F800.000
G2 X-42.958 Y62.500 Z-1.062 I-5.458 J0.000 F800.000
G2 X-32.042 Y62.500 Z-1.750 I5.458 J0.000 F800.000
G2 X-42.958 Y62.500 Z-1.750 I-5.458 J0.000 F800.000
G2 X-32.042 Y62.500 Z-1.750 I5.458 J0.000 F800.000
G0 Z1.000
G0 X-33.333 Y62.500
G1 Z1.000 F800.000
G2 X-41.667 Y62.500 Z0.312 I-4.167 J0.000 F800.000
G2 X-33.333 Y62.500 Z-0.375 I4.167 J0.000 F800.000
G2 X-41.667 Y62.500 Z-1.062 I-4.167 J0.000 F800.000
G2 X-33.333 Y62.500 Z-1.750 I4.167 J0.000 F800.000
G2 X-41.667 Y62.500 Z-1.750 I-4.167 J0.000 F800.000
G2 X-33.333 Y62.500 Z-1.750 I4.167 J0.000 F800.000
G0 Z1.000
G0 X-34.624 Y62.500
G1 Z1.000 F800.000
G2 X-40.376 Y62.500 Z0.312 I-2.876 J0.000 F800.000
G2 X-34.624 Y62.500 Z-0.375 I2.876 J0.000 F800.000
G2 X-40.376 Y62.500 Z-1.062 I-2.876 J0.000 F800.000
G2 X-34.624 Y62.500 Z-1.750 I2.876 J0.000 F800.000
G2 X-40.376 Y62.500 Z-1.750 I-2.876 J0.000 F800.000
G2 X-34.624 Y62.500 Z-1.750 I2.876 J0.000 F800.000
G0 Z1.000
G0 X-35.915 Y62.500
G1 Z1.000 F800.000
G2 X-39.085 Y62.500 Z0.312 I-1.585 J0.000 F800.000
G2 X-35.915 Y62.500 Z-0.375 I1.585 J0.000 F800.000
G2 X-39.085 Y62.500 Z-1.062 I-1.585 J0.000 F800.000
G2 X-35.915 Y62.500 Z-1.750 I1.585 J0.000 F800.000
G2 X-39.085 Y62.500 Z-1.750 I-1.585 J0.000 F800.000
G2 X-35.915 Y62.500 Z-1.750 I1.585 J0.000 F800.000
G0 Z1.000
G0 Z6.000
G0 X-37.500 Y37.500 Z6.000
G0 X-37.500 Y37.500 Z1.000
G0 X-29.460 Y37.500
G1 Z1.000 F800.000
G2 X-45.540 Y37.500 Z0.312 I-8.040 J0.000 F800.000
G2 X-29.460 Y37.500 Z-0.375 I8.040 J0.000 F800.000
G2 X-45.540 Y37.500 Z-1.062 I-8.040 J0.000 F800.000
G2 X-29.460 Y37.500 Z-1.750 I8.040 J0.000 F800.000
G2 X-45.540 Y37.500 Z-1.750 I-8.040 J0.000 F800.000
G2 X-29.460 Y37.500 Z-1.750 I8.040 J0.000 F800.000
G0 Z1.000
G0 X-30.751 Y37.500
G1 Z1.000 F800.000
G2 X-44.249 Y37.500 Z0.312 I-6.749 J0.000 F800.000
G2 X-30.751 Y37.500 Z-0.375 I6.749 J0.000 F800.000
G2 X-44.249 Y37.500 Z-1.062 I-6.749 J0.000 F800.000
G2 X-30.751 Y37.500 Z-1.750 I6.749 J0.000 F800.000
G2 X-44.249 Y37.500 Z-1.750 I-6.749 J0.000 F800.000
G2 X-30.751 Y37.500 Z-1.750 I6.749 J0.000 F800.000
G0 Z1.000
G0 X-32.042 Y37.500
G1 Z1.000 F800.000
G2 X-42.958 Y37.500 Z0.312 I-5.458 J0.000 F800.000
G2 X-32.042 Y37.500 Z-0.375 I5.458 J0.000 F800.000
G2 X-42.958 Y37.500 Z-1.062 I-5.458 J0.000 F800.000
G2 X-32.042 Y37.500 Z-1.750 I5.458 J0.000 F800.000
G2 X-42.958 Y37.500 Z-1.750 I-5.458 J0.000 F800.000
G2 X-32.042 Y37.500 Z-1.750 I5.458 J0.000 F800.000
G0 Z1.000
G0 X-33.333 Y37.500
G1 Z1.000 F800.000
G2 X-41.667 Y37.500 Z0.312 I-4.167 J0.000 F800.000
G2 X-33.333 Y37.500 Z-0.375 I4.167 J0.000 F800.000
G2 X-41.667 Y37.500 Z-1.062 I-4.167 J0.000 F800.000
G2 X-33.333 Y37.500 Z-1.750 I4.167 J0.000 F800.000
G2 X-41.667 Y37.500 Z-1.750 I-4.167 J0.000 F800.000
G2 X-33.333 Y37.500 Z-1.750 I4.167 J0.000 F800.000
G0 Z1.000
G0 X-34.624 Y37.500
G1 Z1.000 F800.000
G2 X-40.376 Y37.500 Z0.312 I-2.876 J0.000 F800.000
G2 X-34.624 Y37.500 Z-0.375 I2.876 J0.000 F800.000
G2 X-40.376 Y37.500 Z-1.062 I-2.876 J0.000 F800.000
G2 X-34.624 Y37.500 Z-1.750 I2.876 J0.000 F800.000
G2 X-40.376 Y37.500 Z-1.750 I-2.876 J0.000 F800.000
G2 X-34.624 Y37.500 Z-1.750 I2.876 J0.000 F800.000
G0 Z1.000
G0 X-35.915 Y37.500
G1 Z1.000 F800.000
G2 X-39.085 Y37.500 Z0.312 I-1.585 J0.000 F800.000
G2 X-35.915 Y37.500 Z-0.375 I1.585 J0.000 F800.000
G2 X-39.085 Y37.500 Z-1.062 I-1.585 J0.000 F800.000
G2 X-35.915 Y37.500 Z-1.750 I1.585 J0.000 F800.000
G2 X-39.085 Y37.500 Z-1.750 I-1.585 J0.000 F800.000
G2 X-35.915 Y37.500 Z-1.750 I1.585 J0.000 F800.000
G0 Z1.000
G0 Z6.000
G0 X-37.500 Y12.500 Z6.000
G0 X-37.500 Y12.500 Z1.000
G0 X-29.460 Y12.500
G1 Z1.000 F800.000
G2 X-45.540 Y12.500 Z0.312 I-8.040 J0.000 F800.000
G2 X-29.460 Y12.500 Z-0.375 I8.040 J0.000 F800.000
G2 X-45.540 Y12.500 Z-1.062 I-8.040 J0.000 F800.000
G2 X-29.460 Y12.500 Z-1.750 I8.040 J0.000 F800.000
G2 X-45.540 Y12.500 Z-1.750 I-8.040 J0.000 F800.000
G2 X-29.460 Y12.500 Z-1.750 I8.040 J0.000 F800.000
G0 Z1.000
G0 X-30.751 Y12.500
G1 Z1.000 F800.000
G2 X-44.249 Y12.500 Z0.312 I-6.749 J0.000 F800.000
G2 X-30.751 Y12.500 Z-0.375 I6.749 J0.000 F800.000
G2 X-44.249 Y12.500 Z-1.062 I-6.749 J0.000 F800.000
G2 X-30.751 Y12.500 Z-1.750 I6.749 J0.000 F800.000
G2 X-44.249 Y12.500 Z-1.750 I-6.749 J0.000 F800.000
G2 X-30.751 Y12.500 Z-1.750 I6.749 J0.000 F800.000
G0 Z1.000
G0 X-32.042 Y12.500
G1 Z1.000 F800.000
G2 X-42.958 Y12.500 Z0.312 I-5.458 J0.000 F800.000
G2 X-32.042 Y12.500 Z-0.375 I5.458 J0.000 F800.000
G2 X-42.958 Y12.500 Z-1.062 I-5.458 J0.000 F800.000
G2 X-32.042 Y12.500 Z-1.750 I5.458 J0.000 F800.000
G2 X-42.958 Y12.500 Z-1.750 I-5.458 J0.000 F800.000
G2 X-32.042 Y12.500 Z-1.750 I5.458 J0.000 F800.000
G0 Z1.000
G0 X-33.333 Y12.500
G1 Z1.000 F800.000
G2 X-41.667 Y12.500 Z0.312 I-4.167 J0.000 F800.000
G2 X-33.333 Y12.500 Z-0.375 I4.167 J0.000 F800.000
G2 X-41.667 Y12.500 Z-1.062 I-4.167 J0.000 F800.000
G2 X-33.333 Y12.500 Z-1.750 I4.167 J0.000 F800.000
G2 X-41.667 Y12.500 Z-1.750 I-4.167 J0.000 F800.000
G2 X-33.333 Y12.500 Z-1.750 I4.167 J0.000 F800.000
G0 Z1.000
G0 X-34.624 Y12.500
G1 Z1.000 F800.000
G2 X-40.376 Y12.500 Z0.312 I-2.876 J0.000 F800.000
G2 X-34.624 Y12.500 Z-0.375 I2.876 J0.000 F800.000
G2 X-40.376 Y12.500 Z-1.062 I-2.876 J0.000 F800.000
G2 X-34.624 Y12.500 Z-1.750 I2.876 J0.000 F800.000
G2 X-40.376 Y12.500 Z-1.750 I-2.876 J0.000 F800.000
G2 X-34.624 Y12.500 Z-1.750 I2.876 J0.000 F800.000
G0 Z1.000
G0 X-35.915 Y12.500
G1 Z1.000 F800.000
G2 X-39.085 Y12.500 Z0.312 I-1.585 J0.000 F800.000
G2 X-35.915 Y12.500 Z-0.375 I1.585 J0.000 F800.000
G2 X-39.085 Y12.500 Z-1.062 I-1.585 J0.000 F800.000
G2 X-35.915 Y12.500 Z-1.750 I1.585 J0.000 F800.000
G2 X-39.085 Y12.500 Z-1.750 I-1.585 J0.000 F800.000
G2 X-35.915 Y12.500 Z-1.750 I1.585 J0.000 F800.000
G0 Z1.000
G0 Z6.000
G0 X-37.500 Y-12.500 Z6.000
G0 X-37.500 Y-12.500 Z1.000
G0 X-29.460 Y-12.500
G1 Z1.000 F800.000
G2 X-45.540 Y-12.500 Z0.312 I-8.040 J0.000 F800.000
G2 X-29.460 Y-12.500 Z-0.375 I8.040 J0.000 F800.000
G2 X-45.540 Y-12.500 Z-1.062 I-8.040 J0.000 F800.000
G2 X-29.460 Y-12.500 Z-1.750 I8.040 J0.000 F800.000
G2 X-45.540 Y-12.500 Z-1.750 I-8.040 J0.000 F800.000
G2 X-29.460 Y-12.500 Z-1.750 I8.040 J0.000 F800.000
G0 Z1.000
G0 X-30.751 Y-12.500
G1 Z1.000 F800.000
G2 X-44.249 Y-12.500 Z0.312 I-6.749 J0.000 F800.000
G2 X-30.751 Y-12.500 Z-0.375 I6.749 J0.000 F800.000
G2 X-44.249 Y-12.500 Z-1.062 I-6.749 J0.000 F800.000
G2 X-30.751 Y-12.500 Z-1.750 I6.749 J0.000 F800.000
G2 X-44.249 Y-12.500 Z-1.750 I-6.749 J0.000 F800.000
G2 X-30.751 Y-12.500 Z-1.750 I6.749 J0.000 F800.000
G0 Z1.000
G0 X-32.042 Y-12.500
G1 Z1.000 F800.000
G2 X-42.958 Y-12.500 Z0.312 I-5.458 J0.000 F800.000
G2 X-32.042 Y-12.500 Z-0.375 I5.458 J0.000 F800.000
G2 X-42.958 Y-12.500 Z-1.062 I-5.458 J0.000 F800.000
G2 X-32.042 Y-12.500 Z-1.750 I5.458 J0.000 F800.000
G2 X-42.958 Y-12.500 Z-1.750 I-5.458 J0.000 F800.000
G2 X-32.042 Y-12.500 Z-1.750 I5.458 J0.000 F800.000
G0 Z1.000
G0 X-33.333 Y-12.500
G1 Z1.000 F800.000
G2 X-41.667 Y-12.500 Z0.312 I-4.167 J0.000 F800.000
G2 X-33.333 Y-12.500 Z-0.375 I4.167 J0.000 F800.000
G2 X-41.667 Y-12.500 Z-1.062 I-4.167 J0.000 F800.000
G2 X-33.333 Y-12.500 Z-1.750 I4.167 J0.000 F800.000
G2 X-41.667 Y-12.500 Z-1.750 I-4.167 J0.000 F800.000
G2 X-33.333 Y-12.500 Z-1.750 I4.167 J0.000 F800.000
G0 Z1.000
G0 X-34.624 Y-12.500
G1 Z1.000 F800.000
G2 X-40.376 Y-12.500 Z0.312 I-2.876 J0.000 F800.000
G2 X-34.624 Y-12.500 Z-0.375 I2.876 J0.000 F800.000
G2 X-40.376 Y-12.500 Z-1.062 I-2.876 J0.000 F800.000
G2 X-34.624 Y-12.500 Z-1.750 I2.876 J0.000 F800.000
G2 X-40.376 Y-12.500 Z-1.750 I-2.876 J0.000 F800.000
G2 X-34.624 Y-12.500 Z-1.750 I2.876 J0.000 F800.000
G0 Z1.000
G0 X-35.915 Y-12.500
G1 Z1.000 F800.000
G2 X-39.085 Y-12.500 Z0.312 I-1.585 J0.000 F800.000
G2 X-35.915 Y-12.500 Z-0.375 I1.585 J0.000 F800.000
G2 X-39.085 Y-12.500 Z-1.062 I-1.585 J0.000 F800.000
G2 X-35.915 Y-12.500 Z-1.750 I1.585 J0.000 F800.000
G2 X-39.085 Y-12.500 Z-1.750 I-1.585 J0.000 F800.000
G2 X-35.915 Y-12.500 Z-1.750 I1.585 J0.000 F800.000
G0 Z1.000
G0 Z6.000
G0 X-37.500 Y-37.500 Z6.000
G0 X-37.500 Y-37.500 Z1.000
G0 X-29.460 Y-37.500
G1 Z1.000 F800.000
G2 X-45.540 Y-37.500 Z0.312 I-8.040 J0.000 F800.000
G2 X-29.460 Y-37.500 Z-0.375 I8.040 J0.000 F800.000
G2 X-45.540 Y-37.500 Z-1.062 I-8.040 J0.000 F800.000
G2 X-29.460 Y-37.500 Z-1.750 I8.040 J0.000 F800.000
G2 X-45.540 Y-37.500 Z-1.750 I-8.040 J0.000 F800.000
G2 X-29.460 Y-37.500 Z-1.750 I8.040 J0.000 F800.000
G0 Z1.000
G0 X-30.751 Y-37.500
G1 Z1.000 F800.000
G2 X-44.249 Y-37.500 Z0.312 I-6.749 J0.000 F800.000
G2 X-30.751 Y-37.500 Z-0.375 I6.749 J0.000 F800.000
G2 X-44.249 Y-37.500 Z-1.062 I-6.749 J0.000 F800.000
G2 X-30.751 Y-37.500 Z-1.750 I6.749 J0.000 F800.000
G2 X-44.249 Y-37.500 Z-1.750 I-6.749 J0.000 F800.000
G2 X-30.751 Y-37.500 Z-1.750 I6.749 J0.000 F800.000
G0 Z1.000
G0 X-32.042 Y-37.500
G1 Z1.000 F800.000
G2 X-42.958 Y-37.500 Z0.312 I-5.458 J0.000 F800.000
G2 X-32.042 Y-37.500 Z-0.375 I5.458 J0.000 F800.000
G2 X-42.958 Y-37.500 Z-1.062 I-5.458 J0.000 F800.000
G2 X-32.042 Y-37.500 Z-1.750 I5.458 J0.000 F800.000
G2 X-42.958 Y-37.500 Z-1.750 I-5.458 J0.000 F800.000
G2 X-32.042 Y-37.500 Z-1.750 I5.458 J0.000 F800.000
G0 Z1.000
G0 X-33.333 Y-37.500
G1 Z1.000 F800.000
G2 X-41.667 Y-37.500 Z0.312 I-4.167 J0.000 F800.000
G2 X-33.333 Y-37.500 Z-0.375 I4.167 J0.000 F800.000
G2 X-41.667 Y-37.500 Z-1.062 I-4.167 J0.000 F800.000
G2 X-33.333 Y-37.500 Z-1.750 I4.167 J0.000 F800.000
G2 X-41.667 Y-37.500 Z-1.750 I-4.167 J0.000 F800.000
G2 X-33.333 Y-37.500 Z-1.750 I4.167 J0.000 F800.000
G0 Z1.000
G0 X-34.624 Y-37.500
G1 Z1.000 F800.000
G2 X-40.376 Y-37.500 Z0.312 I-2.876 J0.000 F800.000
G2 X-34.624 Y-37.500 Z-0.375 I2.876 J0.000 F800.000
G2 X-40.376 Y-37.500 Z-1.062 I-2.876 J0.000 F800.000
G2 X-34.624 Y-37.500 Z-1.750 I2.876 J0.000 F800.000
G2 X-40.376 Y-37.500 Z-1.750 I-2.876 J0.000 F800.000
G2 X-34.624 Y-37.500 Z-1.750 I2.876 J0.000 F800.000
G0 Z1.000
G0 X-35.915 Y-37.500
G1 Z1.000 F800.000
G2 X-39.085 Y-37.500 Z0.312 I-1.585 J0.000 F800.000
G2 X-35.915 Y-37.500 Z-0.375 I1.585 J0.000 F800.000
G2 X-39.085 Y-37.500 Z-1.062 I-1.585 J0.000 F800.000
G2 X-35.915 Y-37.500 Z-1.750 I1.585 J0.000 F800.000
G2 X-39.085 Y-37.500 Z-1.750 I-1.585 J0.000 F800.000
G2 X-35.915 Y-37.500 Z-1.750 I1.585 J0.000 F800.000
G0 Z1.000
G0 Z6.000
G0 X-37.500 Y-62.500 Z6.000
G0 X-37.500 Y-62.500 Z1.000
G0 X-29.460 Y-62.500
G1 Z1.000 F800.000
G2 X-45.540 Y-62.500 Z0.312 I-8.040 J0.000 F800.000
G2 X-29.460 Y-62.500 Z-0.375 I8.040 J0.000 F800.000
G2 X-45.540 Y-62.500 Z-1.062 I-8.040 J0.000 F800.000
G2 X-29.460 Y-62.500 Z-1.750 I8.040 J0.000 F800.000
G2 X-45.540 Y-62.500 Z-1.750 I-8.040 J0.000 F800.000
G2 X-29.460 Y-62.500 Z-1.750 I8.040 J0.000 F800.000
G0 Z1.000
G0 X-30.751 Y-62.500
G1 Z1.000 F800.000
G2 X-44.249 Y-62.500 Z0.312 I-6.749 J0.000 F800.000
G2 X-30.751 Y-62.500 Z-0.375 I6.749 J0.000 F800.000
G2 X-44.249 Y-62.500 Z-1.062 I-6.749 J0.000 F800.000
G2 X-30.751 Y-62.500 Z-1.750 I6.749 J0.000 F800.000
G2 X-44.249 Y-62.500 Z-1.750 I-6.749 J0.000 F800.000
G2 X-30.751 Y-62.500 Z-1.750 I6.749 J0.000 F800.000
G0 Z1.000
G0 X-32.042 Y-62.500
G1 Z1.000 F800.000
G2 X-42.958 Y-62.500 Z0.312 I-5.458 J0.000 F800.000
G2 X-32.042 Y-62.500 Z-0.375 I5.458 J0.000 F800.000
G2 X-42.958 Y-62.500 Z-1.062 I-5.458 J0.000 F800.000
G2 X-32.042 Y-62.500 Z-1.750 I5.458 J0.000 F800.000
G2 X-42.958 Y-62.500 Z-1.750 I-5.458 J0.000 F800.000
G2 X-32.042 Y-62.500 Z-1.750 I5.458 J0.000 F800.000
G0 Z1.000
G0 X-33.333 Y-62.500
G1 Z1.000 F800.000
G2 X-41.667 Y-62.500 Z0.312 I-4.167 J0.000 F800.000
G2 X-33.333 Y-62.500 Z-0.375 I4.167 J0.000 F800.000
G2 X-41.667 Y-62.500 Z-1.062 I-4.167 J0.000 F800.000
G2 X-33.333 Y-62.500 Z-1.750 I4.167 J0.000 F800.000
G2 X-41.667 Y-62.500 Z-1.750 I-4.167 J0.000 F800.000
G2 X-33.333 Y-62.500 Z-1.750 I4.167 J0.000 F800.000
G0 Z1.000
G0 X-34.624 Y-62.500
G1 Z1.000 F800.000
G2 X-40.376 Y-62.500 Z0.312 I-2.876 J0.000 F800.000
G2 X-34.624 Y-62.500 Z-0.375 I2.876 J0.000 F800.000
G2 X-40.376 Y-62.500 Z-1.062 I-2.876 J0.000 F800.000
G2 X-34.624 Y-62.500 Z-1.750 I2.876 J0.000 F800.000
G2 X-40.376 Y-62.500 Z-1.750 I-2.876 J0.000 F800.000
G2 X-34.624 Y-62.500 Z-1.750 I2.876 J0.000 F800.000
G0 Z1.000
G0 X-35.915 Y-62.500
G1 Z1.000 F800.000
G2 X-39.085 Y-62.500 Z0.312 I-1.585 J0.000 F800.000
G2 X-35.915 Y-62.500 Z-0.375 I1.585 J0.000 F800.000
G2 X-39.085 Y-62.500 Z-1.062 I-1.585 J0.000 F800.000
G2 X-35.915 Y-62.500 Z-1.750 I1.585 J0.000 F800.000
G2 X-39.085 Y-62.500 Z-1.750 I-1.585 J0.000 F800.000
G2 X-35.915 Y-62.500 Z-1.750 I1.585 J0.000 F800.000
G0 Z1.000
G0 Z6.000
G0 X-62.500 Y-62.500 Z6.000
G0 X-62.500 Y-62.500 Z1.000
G0 X-54.460 Y-62.500
G1 Z1.000 F800.000
G2 X-70.540 Y-62.500 Z0.312 I-8.040 J0.000 F800.000
G2 X-54.460 Y-62.500 Z-0.375 I8.040 J0.000 F800.000
G2 X-70.540 Y-62.500 Z-1.062 I-8.040 J0.000 F800.000
G2 X-54.460 Y-62.500 Z-1.750 I8.040 J0.000 F800.000
G2 X-70.540 Y-62.500 Z-1.750 I-8.040 J0.000 F800.000
G2 X-54.460 Y-62.500 Z-1.750 I8.040 J0.000 F800.000
G0 Z1.000
G0 X-55.751 Y-62.500
G1 Z1.000 F800.000
G2 X-69.249 Y-62.500 Z0.312 I-6.749 J0.000 F800.000
G2 X-55.751 Y-62.500 Z-0.375 I6.749 J0.000 F800.000
G2 X-69.249 Y-62.500 Z-1.062 I-6.749 J0.000 F800.000
G2 X-55.751 Y-62.500 Z-1.750 I6.749 J0.000 F800.000
G2 X-69.249 Y-62.500 Z-1.750 I-6.749 J0.000 F800.000
G2 X-55.751 Y-62.500 Z-1.750 I6.749 J0.000 F800.000
G0 Z1.000
G0 X-57.042 Y-62.500
G1 Z1.000 F800.000
G2 X-67.958 Y-62.500 Z0.312 I-5.458 J0.000 F800.000
G2 X-57.042 Y-62.500 Z-0.375 I5.458 J0.000 F800.000
G2 X-67.958 Y-62.500 Z-1.062 I-5.458 J0.000 F800.000
G2 X-57.042 Y-62.500 Z-1.750 I5.458 J0.000 F800.000
G2 X-67.958 Y-62.500 Z-1.750 I-5.458 J0.000 F800.000
G2 X-57.042 Y-62.500 Z-1.750 I5.458 J0.000 F800.000
G0 Z1.000
G0 X-58.333 Y-62.500
G1 Z1.000 F800.000
G2 X-66.667 Y-62.500 Z0.312 I-4.167 J0.000 F800.000
G2 X-58.333 Y-62.500 Z-0.375 I4.167 J0.000 F800.000
G2 X-66.667 Y-62.500 Z-1.062 I-4.167 J0.000 F800.000
G2 X-58.333 Y-62.500 Z-1.750 I4.167 J0.000 F800.000
G2 X-66.667 Y-62.500 Z-1.750 I-4.167 J0.000 F800.000
G2 X-58.333 Y-62.500 Z-1.750 I4.167 J0.000 F800.000
G0 Z1.000
G0 X-59.624 Y-62.500
G1 Z1.000 F800.000
G2 X-65.376 Y-62.500 Z0.312 I-2.876 J0.000 F800.000
G2 X-59.624 Y-62.500 Z-0.375 I2.876 J0.000 F800.000
G2 X-65.376 Y-62.500 Z-1.062 I-2.876 J0.000 F800.000
G2 X-59.624 Y-62.500 Z-1.750 I2.876 J0.000 F800.000
G2 X-65.376 Y-62.500 Z-1.750 I-2.876 J0.000 F800.000
G2 X-59.624 Y-62.500 Z-1.750 I2.876 J0.000 F800.000
G0 Z1.000
G0 X-60.915 Y-62.500
G1 Z1.000 F800.000
G2 X-64.085 Y-62.500 Z0.312 I-1.585 J0.000 F800.000
G2 X-60.915 Y-62.500 Z-0.375 I1.585 J0.000 F800.000
G2 X-64.085 Y-62.500 Z-1.062 I-1.585 J0.000 F800.000
G2 X-60.915 Y-62.500 Z-1.750 I1.585 J0.000 F800.000
G2 X-64.085 Y-62.500 Z-1.750 I-1.585 J0.000 F800.000
G2 X-60.915 Y-62.500 Z-1.750 I1.585 J0.000 F800.000
G0 Z1.000
G0 Z6.000
G0 X-62.500 Y-37.500 Z6.000
G0 X-62.500 Y-37.500 Z1.000
G0 X-54.460 Y-37.500
G1 Z1.000 F800.000
G2 X-70.540 Y-37.500 Z0.312 I-8.040 J0.000 F800.000
G2 X-54.460 Y-37.500 Z-0.375 I8.040 J0.000 F800.000
G2 X-70.540 Y-37.500 Z-1.062 I-8.040 J0.000 F800.000
G2 X-54.460 Y-37.500 Z-1.750 I8.040 J0.000 F800.000
G2 X-70.540 Y-37.500 Z-1.750 I-8.040 J0.000 F800.000
G2 X-54.460 Y-37.500 Z-1.750 I8.040 J0.000 F800.000
G0 Z1.000
G0 X-55.751 Y-37.500
G1 Z1.000 F800.000
G2 X-69.249 Y-37.500 Z0.312 I-6.749 J0.000 F800.000
G2 X-55.751 Y-37.500 Z-0.375 I6.749 J0.000 F800.000
G2 X-69.249 Y-37.500 Z-1.062 I-6.749 J0.000 F800.000
G2 X-55.751 Y-37.500 Z-1.750 I6.749 J0.000 F800.000
G2 X-69.249 Y-37.500 Z-1.750 I-6.749 J0.000 F800.000
G2 X-55.751 Y-37.500 Z-1.750 I6.749 J0.000 F800.000
G0 Z1.000
G0 X-57.042 Y-37.500
G1 Z1.000 F800.000
G2 X-67.958 Y-37.500 Z0.312 I-5.458 J0.000 F800.000
G2 X-57.042 Y-37.500 Z-0.375 I5.458 J0.000 F800.000
G2 X-67.958 Y-37.500 Z-1.062 I-5.458 J0.000 F800.000
G2 X-57.042 Y-37.500 Z-1.750 I5.458 J0.000 F800.000
G2 X-67.958 Y-37.500 Z-1.750 I-5.458 J0.000 F800.000
G2 X-57.042 Y-37.500 Z-1.750 I5.458 J0.000 F800.000
G0 Z1.000
G0 X-58.333 Y-37.500
G1 Z1.000 F800.000
G2 X-66.667 Y-37.500 Z0.312 I-4.167 J0.000 F800.000
G2 X-58.333 Y-37.500 Z-0.375 I4.167 J0.000 F800.000
G2 X-66.667 Y-37.500 Z-1.062 I-4.167 J0.000 F800.000
G2 X-58.333 Y-37.500 Z-1.750 I4.167 J0.000 F800.000
G2 X-66.667 Y-37.500 Z-1.750 I-4.167 J0.000 F800.000
G2 X-58.333 Y-37.500 Z-1.750 I4.167 J0.000 F800.000
G0 Z1.000
G0 X-59.624 Y-37.500
G1 Z1.000 F800.000
G2 X-65.376 Y-37.500 Z0.312 I-2.876 J0.000 F800.000
G2 X-59.624 Y-37.500 Z-0.375 I2.876 J0.000 F800.000
G2 X-65.376 Y-37.500 Z-1.062 I-2.876 J0.000 F800.000
G2 X-59.624 Y-37.500 Z-1.750 I2.876 J0.000 F800.000
G2 X-65.376 Y-37.500 Z-1.750 I-2.876 J0.000 F800.000
G2 X-59.624 Y-37.500 Z-1.750 I2.876 J0.000 F800.000
G0 Z1.000
G0 X-60.915 Y-37.500
G1 Z1.000 F800.000
G2 X-64.085 Y-37.500 Z0.312 I-1.585 J0.000 F800.000
G2 X-60.915 Y-37.500 Z-0.375 I1.585 J0.000 F800.000
G2 X-64.085 Y-37.500 Z-1.062 I-1.585 J0.000 F800.000
G2 X-60.915 Y-37.500 Z-1.750 I1.585 J0.000 F800.000
G2 X-64.085 Y-37.500 Z-1.750 I-1.585 J0.000 F800.000
G2 X-60.915 Y-37.500 Z-1.750 I1.585 J0.000 F800.000
G0 Z1.000
G0 Z6.000
G0 X-62.500 Y-12.500 Z6.000
G0 X-62.500 Y-12.500 Z1.000
G0 X-54.460 Y-12.500
G1 Z1.000 F800.000
G2 X-70.540 Y-12.500 Z0.312 I-8.040 J0.000 F800.000
G2 X-54.460 Y-12.500 Z-0.375 I8.040 J0.000 F800.000
G2 X-70.540 Y-12.500 Z-1.062 I-8.040 J0.000 F800.000
G2 X-54.460 Y-12.500 Z-1.750 I8.040 J0.000 F800.000
G2 X-70.540 Y-12.500 Z-1.750 I-8.040 J0.000 F800.000
G2 X-54.460 Y-12.500 Z-1.750 I8.040 J0.000 F800.000
G0 Z1.000
G0 X-55.751 Y-12.500
G1 Z1.000 F800.000
G2 X-69.249 Y-12.500 Z0.312 I-6.749 J0.000 F800.000
G2 X-55.751 Y-12.500 Z-0.375 I6.749 J0.000 F800.000
G2 X-69.249 Y-12.500 Z-1.062 I-6.749 J0.000 F800.000
G2 X-55.751 Y-12.500 Z-1.750 I6.749 J0.000 F800.000
G2 X-69.249 Y-12.500 Z-1.750 I-6.749 J0.000 F800.000
G2 X-55.751 Y-12.500 Z-1.750 I6.749 J0.000 F800.000
G0 Z1.000
G0 X-57.042 Y-12.500
G1 Z1.000 F800.000
G2 X-67.958 Y-12.500 Z0.312 I-5.458 J0.000 F800.000
G2 X-57.042 Y-12.500 Z-0.375 I5.458 J0.000 F800.000
G2 X-67.958 Y-12.500 Z-1.062 I-5.458 J0.000 F800.000
G2 X-57.042 Y-12.500 Z-1.750 I5.458 J0.000 F800.000
G2 X-67.958 Y-12.500 Z-1.750 I-5.458 J0.000 F800.000
G2 X-57.042 Y-12.500 Z-1.750 I5.458 J0.000 F800.000
G0 Z1.000
G0 X-58.333 Y-12.500
G1 Z1.000 F800.000
G2 X-66.667 Y-12.500 Z0.312 I-4.167 J0.000 F800.000
G2 X-58.333 Y-12.500 Z-0.375 I4.167 J0.000 F800.000
G2 X-66.667 Y-12.500 Z-1.062 I-4.167 J0.000 F800.000
G2 X-58.333 Y-12.500 Z-1.750 I4.167 J0.000 F800.000
G2 X-66.667 Y-12.500 Z-1.750 I-4.167 J0.000 F800.000
G2 X-58.333 Y-12.500 Z-1.750 I4.167 J0.000 F800.000
G0 Z1.000
G0 X-59.624 Y-12.500
G1 Z1.000 F800.000
G2 X-65.376 Y-12.500 Z0.312 I-2.876 J0.000 F800.000
G2 X-59.624 Y-12.500 Z-0.375 I2.876 J0.000 F800.000
G2 X-65.376 Y-12.500 Z-1.062 I-2.876 J0.000 F800.000
G2 X-59.624 Y-12.500 Z-1.750 I2.876 J0.000 F800.000
G2 X-65.376 Y-12.500 Z-1.750 I-2.876 J0.000 F800.000
G2 X-59.624 Y-12.500 Z-1.750 I2.876 J0.000 F800.000
G0 Z1.000
G0 X-60.915 Y-12.500
G1 Z1.000 F800.000
G2 X-64.085 Y-12.500 Z0.312 I-1.585 J0.000 F800.000
G2 X-60.915 Y-12.500 Z-0.375 I1.585 J0.000 F800.000
G2 X-64.085 Y-12.500 Z-1.062 I-1.585 J0.000 F800.000
G2 X-60.915 Y-12.500 Z-1.750 I1.585 J0.000 F800.000
G2 X-64.085 Y-12.500 Z-1.750 I-1.585 J0.000 F800.000
G2 X-60.915 Y-12.500 Z-1.750 I1.585 J0.000 F800.000
G0 Z1.000
G0 Z6.000
G0 X-62.500 Y12.500 Z6.000
G0 X-62.500 Y12.500 Z1.000
G0 X-54.460 Y12.500
G1 Z1.000 F800.000
G2 X-70.540 Y12.500 Z0.312 I-8.040 J0.000 F800.000
G2 X-54.460 Y12.500 Z-0.375 I8.040 J0.000 F800.000
G2 X-70.540 Y12.500 Z-1.062 I-8.040 J0.000 F800.000
G2 X-54.460 Y12.500 Z-1.750 I8.040 J0.000 F800.000
G2 X-70.540 Y12.500 Z-1.750 I-8.040 J0.000 F800.000
G2 X-54.460 Y12.500 Z-1.750 I8.040 J0.000 F800.000
G0 Z1.000
G0 X-55.751 Y12.500
G1 Z1.000 F800.000
