(Exported by FreeCAD)
(Post Processor: grbl_post)
(Output Time:2020-07-04 21:03:56.324708)
(begin preamble)
G17 G90
G21
(begin operation: T1: 1/8 inch two flute001)
(Path: T1: 1/8 inch two flute001)
(T1: 1/8 inch two flute001)
(begin toolchange)
; M6 T1
M3 S1000.0000
(finish operation: T1: 1/8 inch two flute001)
(begin operation: Helix_counterbore)
(Path: Helix_counterbore)
(Helix_counterbore)
(helix cut operation)
G0 Z6.5000
G0 X-36.2320 Y-27.5000
G0 Z7.5000
G1 Z1.5000 F816.00
G2 X-38.7680 Y-27.5000 Z0.6875 I-1.2680 J0.0000 F816.00
G2 X-36.2320 Y-27.5000 Z-0.1250 I1.2680 J0.0000 F816.00
G2 X-38.7680 Y-27.5000 Z-0.9375 I-1.2680 J0.0000 F816.00
G2 X-36.2320 Y-27.5000 Z-1.7500 I1.2680 J0.0000 F816.00
G2 X-38.7680 Y-27.5000 Z-1.7500 I-1.2680 J0.0000 F816.00
G2 X-36.2320 Y-27.5000 Z-1.7500 I1.2680 J0.0000 F816.00
G0 Z7.5000
G0 X-33.9747 Y-27.5000
G0 Z7.5000
G1 Z1.5000 F816.00
G2 X-41.0253 Y-27.5000 Z0.6875 I-3.5253 J0.0000 F816.00
G2 X-33.9747 Y-27.5000 Z-0.1250 I3.5253 J0.0000 F816.00
G2 X-41.0253 Y-27.5000 Z-0.9375 I-3.5253 J0.0000 F816.00
G2 X-33.9747 Y-27.5000 Z-1.7500 I3.5253 J0.0000 F816.00
G2 X-41.0253 Y-27.5000 Z-1.7500 I-3.5253 J0.0000 F816.00
G2 X-33.9747 Y-27.5000 Z-1.7500 I3.5253 J0.0000 F816.00
G0 Z7.5000
G0 X-31.7173 Y-27.5000
G0 Z7.5000
G1 Z1.5000 F816.00
G2 X-43.2827 Y-27.5000 Z0.6875 I-5.7827 J0.0000 F816.00
G2 X-31.7173 Y-27.5000 Z-0.1250 I5.7827 J0.0000 F816.00
G2 X-43.2827 Y-27.5000 Z-0.9375 I-5.7827 J0.0000 F816.00
G2 X-31.7173 Y-27.5000 Z-1.7500 I5.7827 J0.0000 F816.00
G2 X-43.2827 Y-27.5000 Z-1.7500 I-5.7827 J0.0000 F816.00
G2 X-31.7173 Y-27.5000 Z-1.7500 I5.7827 J0.0000 F816.00
G0 Z7.5000
G0 X-29.4600 Y-27.5000
G0 Z7.5000
G1 Z1.5000 F816.00
G2 X-45.5400 Y-27.5000 Z0.6875 I-8.0400 J0.0000 F816.00
G2 X-29.4600 Y-27.5000 Z-0.1250 I8.0400 J0.0000 F816.00
G2 X-45.5400 Y-27.5000 Z-0.9375 I-8.0400 J0.0000 F816.00
G2 X-29.4600 Y-27.5000 Z-1.7500 I8.0400 J0.0000 F816.00
G2 X-45.5400 Y-27.5000 Z-1.7500 I-8.0400 J0.0000 F816.00
G2 X-29.4600 Y-27.5000 Z-1.7500 I8.0400 J0.0000 F816.00
G0 Z7.5000
G0 X-36.2320 Y-52.5000
G0 Z7.5000
G1 Z1.5000 F816.00
G2 X-38.7680 Y-52.5000 Z0.6875 I-1.2680 J0.0000 F816.00
G2 X-36.2320 Y-52.5000 Z-0.1250 I1.2680 J0.0000 F816.00
G2 X-38.7680 Y-52.5000 Z-0.9375 I-1.2680 J0.0000 F816.00
G2 X-36.2320 Y-52.5000 Z-1.7500 I1.2680 J0.0000 F816.00
G2 X-38.7680 Y-52.5000 Z-1.7500 I-1.2680 J0.0000 F816.00
G2 X-36.2320 Y-52.5000 Z-1.7500 I1.2680 J0.0000 F816.00
G0 Z7.5000
G0 X-33.9747 Y-52.5000
G0 Z7.5000
G1 Z1.5000 F816.00
G2 X-41.0253 Y-52.5000 Z0.6875 I-3.5253 J0.0000 F816.00
G2 X-33.9747 Y-52.5000 Z-0.1250 I3.5253 J0.0000 F816.00
G2 X-41.0253 Y-52.5000 Z-0.9375 I-3.5253 J0.0000 F816.00
G2 X-33.9747 Y-52.5000 Z-1.7500 I3.5253 J0.0000 F816.00
G2 X-41.0253 Y-52.5000 Z-1.7500 I-3.5253 J0.0000 F816.00
G2 X-33.9747 Y-52.5000 Z-1.7500 I3.5253 J0.0000 F816.00
G0 Z7.5000
G0 X-31.7173 Y-52.5000
G0 Z7.5000
G1 Z1.5000 F816.00
G2 X-43.2827 Y-52.5000 Z0.6875 I-5.7827 J0.0000 F816.00
G2 X-31.7173 Y-52.5000 Z-0.1250 I5.7827 J0.0000 F816.00
G2 X-43.2827 Y-52.5000 Z-0.9375 I-5.7827 J0.0000 F816.00
G2 X-31.7173 Y-52.5000 Z-1.7500 I5.7827 J0.0000 F816.00
G2 X-43.2827 Y-52.5000 Z-1.7500 I-5.7827 J0.0000 F816.00
G2 X-31.7173 Y-52.5000 Z-1.7500 I5.7827 J0.0000 F816.00
G0 Z7.5000
G0 X-29.4600 Y-52.5000
G0 Z7.5000
G1 Z1.5000 F816.00
G2 X-45.5400 Y-52.5000 Z0.6875 I-8.0400 J0.0000 F816.00
G2 X-29.4600 Y-52.5000 Z-0.1250 I8.0400 J0.0000 F816.00
G2 X-45.5400 Y-52.5000 Z-0.9375 I-8.0400 J0.0000 F816.00
G2 X-29.4600 Y-52.5000 Z-1.7500 I8.0400 J0.0000 F816.00
G2 X-45.5400 Y-52.5000 Z-1.7500 I-8.0400 J0.0000 F816.00
G2 X-29.4600 Y-52.5000 Z-1.7500 I8.0400 J0.0000 F816.00
G0 Z7.5000
G0 X-36.2320 Y-77.5000
G0 Z7.5000
G1 Z1.5000 F816.00
G2 X-38.7680 Y-77.5000 Z0.6875 I-1.2680 J0.0000 F816.00
G2 X-36.2320 Y-77.5000 Z-0.1250 I1.2680 J0.0000 F816.00
G2 X-38.7680 Y-77.5000 Z-0.9375 I-1.2680 J0.0000 F816.00
G2 X-36.2320 Y-77.5000 Z-1.7500 I1.2680 J0.0000 F816.00
G2 X-38.7680 Y-77.5000 Z-1.7500 I-1.2680 J0.0000 F816.00
G2 X-36.2320 Y-77.5000 Z-1.7500 I1.2680 J0.0000 F816.00
G0 Z7.5000
G0 X-33.9747 Y-77.5000
G0 Z7.5000
G1 Z1.5000 F816.00
G2 X-41.0253 Y-77.5000 Z0.6875 I-3.5253 J0.0000 F816.00
G2 X-33.9747 Y-77.5000 Z-0.1250 I3.5253 J0.0000 F816.00
G2 X-41.0253 Y-77.5000 Z-0.9375 I-3.5253 J0.0000 F816.00
G2 X-33.9747 Y-77.5000 Z-1.7500 I3.5253 J0.0000 F816.00
G2 X-41.0253 Y-77.5000 Z-1.7500 I-3.5253 J0.0000 F816.00
G2 X-33.9747 Y-77.5000 Z-1.7500 I3.5253 J0.0000 F816.00
G0 Z7.5000
G0 X-31.7173 Y-77.5000
G0 Z7.5000
G1 Z1.5000 F816.00
G2 X-43.2827 Y-77.5000 Z0.6875 I-5.7827 J0.0000 F816.00
G2 X-31.7173 Y-77.5000 Z-0.1250 I5.7827 J0.0000 F816.00
G2 X-43.2827 Y-77.5000 Z-0.9375 I-5.7827 J0.0000 F816.00
G2 X-31.7173 Y-77.5000 Z-1.7500 I5.7827 J0.0000 F816.00
G2 X-43.2827 Y-77.5000 Z-1.7500 I-5.7827 J0.0000 F816.00
G2 X-31.7173 Y-77.5000 Z-1.7500 I5.7827 J0.0000 F816.00
G0 Z7.5000
G0 X-29.4600 Y-77.5000
G0 Z7.5000
G1 Z1.5000 F816.00
G2 X-45.5400 Y-77.5000 Z0.6875 I-8.0400 J0.0000 F816.00
G2 X-29.4600 Y-77.5000 Z-0.1250 I8.0400 J0.0000 F816.00
G2 X-45.5400 Y-77.5000 Z-0.9375 I-8.0400 J0.0000 F816.00
G2 X-29.4600 Y-77.5000 Z-1.7500 I8.0400 J0.0000 F816.00
G2 X-45.5400 Y-77.5000 Z-1.7500 I-8.0400 J0.0000 F816.00
G2 X-29.4600 Y-77.5000 Z-1.7500 I8.0400 J0.0000 F816.00
G0 Z7.5000
G0 X-36.2320 Y-102.5000
G0 Z7.5000
G1 Z1.5000 F816.00
G2 X-38.7680 Y-102.5000 Z0.6875 I-1.2680 J0.0000 F816.00
G2 X-36.2320 Y-102.5000 Z-0.1250 I1.2680 J0.0000 F816.00
G2 X-38.7680 Y-102.5000 Z-0.9375 I-1.2680 J0.0000 F816.00
G2 X-36.2320 Y-102.5000 Z-1.7500 I1.2680 J0.0000 F816.00
G2 X-38.7680 Y-102.5000 Z-1.7500 I-1.2680 J0.0000 F816.00
G2 X-36.2320 Y-102.5000 Z-1.7500 I1.2680 J0.0000 F816.00
G0 Z7.5000
G0 X-33.9747 Y-102.5000
G0 Z7.5000
G1 Z1.5000 F816.00
G2 X-41.0253 Y-102.5000 Z0.6875 I-3.5253 J0.0000 F816.00
G2 X-33.9747 Y-102.5000 Z-0.1250 I3.5253 J0.0000 F816.00
G2 X-41.0253 Y-102.5000 Z-0.9375 I-3.5253 J0.0000 F816.00
G2 X-33.9747 Y-102.5000 Z-1.7500 I3.5253 J0.0000 F816.00
G2 X-41.0253 Y-102.5000 Z-1.7500 I-3.5253 J0.0000 F816.00
G2 X-33.9747 Y-102.5000 Z-1.7500 I3.5253 J0.0000 F816.00
G0 Z7.5000
G0 X-31.7173 Y-102.5000
G0 Z7.5000
G1 Z1.5000 F816.00
G2 X-43.2827 Y-102.5000 Z0.6875 I-5.7827 J0.0000 F816.00
G2 X-31.7173 Y-102.5000 Z-0.1250 I5.7827 J0.0000 F816.00
G2 X-43.2827 Y-102.5000 Z-0.9375 I-5.7827 J0.0000 F816.00
G2 X-31.7173 Y-102.5000 Z-1.7500 I5.7827 J0.0000 F816.00
G2 X-43.2827 Y-102.5000 Z-1.7500 I-5.7827 J0.0000 F816.00
G2 X-31.7173 Y-102.5000 Z-1.7500 I5.7827 J0.0000 F816.00
G0 Z7.5000
G0 X-29.4600 Y-102.5000
G0 Z7.5000
G1 Z1.5000 F816.00
G2 X-45.5400 Y-102.5000 Z0.6875 I-8.0400 J0.0000 F816.00
G2 X-29.4600 Y-102.5000 Z-0.1250 I8.0400 J0.0000 F816.00
G2 X-45.5400 Y-102.5000 Z-0.9375 I-8.0400 J0.0000 F816.00
G2 X-29.4600 Y-102.5000 Z-1.7500 I8.0400 J0.0000 F816.00
G2 X-45.5400 Y-102.5000 Z-1.7500 I-8.0400 J0.0000 F816.00
G2 X-29.4600 Y-102.5000 Z-1.7500 I8.0400 J0.0000 F816.00
G0 Z7.5000
G0 X-36.2320 Y-127.5000
G0 Z7.5000
G1 Z1.5000 F816.00
G2 X-38.7680 Y-127.5000 Z0.6875 I-1.2680 J0.0000 F816.00
G2 X-36.2320 Y-127.5000 Z-0.1250 I1.2680 J0.0000 F816.00
G2 X-38.7680 Y-127.5000 Z-0.9375 I-1.2680 J0.0000 F816.00
G2 X-36.2320 Y-127.5000 Z-1.7500 I1.2680 J0.0000 F816.00
G2 X-38.7680 Y-127.5000 Z-1.7500 I-1.2680 J0.0000 F816.00
G2 X-36.2320 Y-127.5000 Z-1.7500 I1.2680 J0.0000 F816.00
G0 Z7.5000
G0 X-33.9747 Y-127.5000
G0 Z7.5000
G1 Z1.5000 F816.00
G2 X-41.0253 Y-127.5000 Z0.6875 I-3.5253 J0.0000 F816.00
G2 X-33.9747 Y-127.5000 Z-0.1250 I3.5253 J0.0000 F816.00
G2 X-41.0253 Y-127.5000 Z-0.9375 I-3.5253 J0.0000 F816.00
G2 X-33.9747 Y-127.5000 Z-1.7500 I3.5253 J0.0000 F816.00
G2 X-41.0253 Y-127.5000 Z-1.7500 I-3.5253 J0.0000 F816.00
G2 X-33.9747 Y-127.5000 Z-1.7500 I3.5253 J0.0000 F816.00
G0 Z7.5000
G0 X-31.7173 Y-127.5000
G0 Z7.5000
G1 Z1.5000 F816.00
G2 X-43.2827 Y-127.5000 Z0.6875 I-5.7827 J0.0000 F816.00
G2 X-31.7173 Y-127.5000 Z-0.1250 I5.7827 J0.0000 F816.00
G2 X-43.2827 Y-127.5000 Z-0.9375 I-5.7827 J0.0000 F816.00
G2 X-31.7173 Y-127.5000 Z-1.7500 I5.7827 J0.0000 F816.00
G2 X-43.2827 Y-127.5000 Z-1.7500 I-5.7827 J0.0000 F816.00
G2 X-31.7173 Y-127.5000 Z-1.7500 I5.7827 J0.0000 F816.00
G0 Z7.5000
G0 X-29.4600 Y-127.5000
G0 Z7.5000
G1 Z1.5000 F816.00
G2 X-45.5400 Y-127.5000 Z0.6875 I-8.0400 J0.0000 F816.00
G2 X-29.4600 Y-127.5000 Z-0.1250 I8.0400 J0.0000 F816.00
G2 X-45.5400 Y-127.5000 Z-0.9375 I-8.0400 J0.0000 F816.00
G2 X-29.4600 Y-127.5000 Z-1.7500 I8.0400 J0.0000 F816.00
G2 X-45.5400 Y-127.5000 Z-1.7500 I-8.0400 J0.0000 F816.00
G2 X-29.4600 Y-127.5000 Z-1.7500 I8.0400 J0.0000 F816.00
G0 Z7.5000
G0 X-36.2320 Y-152.5000
G0 Z7.5000
G1 Z1.5000 F816.00
G2 X-38.7680 Y-152.5000 Z0.6875 I-1.2680 J0.0000 F816.00
G2 X-36.2320 Y-152.5000 Z-0.1250 I1.2680 J0.0000 F816.00
G2 X-38.7680 Y-152.5000 Z-0.9375 I-1.2680 J0.0000 F816.00
G2 X-36.2320 Y-152.5000 Z-1.7500 I1.2680 J0.0000 F816.00
G2 X-38.7680 Y-152.5000 Z-1.7500 I-1.2680 J0.0000 F816.00
G2 X-36.2320 Y-152.5000 Z-1.7500 I1.2680 J0.0000 F816.00
G0 Z7.5000
G0 X-33.9747 Y-152.5000
G0 Z7.5000
G1 Z1.5000 F816.00
G2 X-41.0253 Y-152.5000 Z0.6875 I-3.5253 J0.0000 F816.00
G2 X-33.9747 Y-152.5000 Z-0.1250 I3.5253 J0.0000 F816.00
G2 X-41.0253 Y-152.5000 Z-0.9375 I-3.5253 J0.0000 F816.00
G2 X-33.9747 Y-152.5000 Z-1.7500 I3.5253 J0.0000 F816.00
G2 X-41.0253 Y-152.5000 Z-1.7500 I-3.5253 J0.0000 F816.00
G2 X-33.9747 Y-152.5000 Z-1.7500 I3.5253 J0.0000 F816.00
G0 Z7.5000
G0 X-31.7173 Y-152.5000
G0 Z7.5000
G1 Z1.5000 F816.00
G2 X-43.2827 Y-152.5000 Z0.6875 I-5.7827 J0.0000 F816.00
G2 X-31.7173 Y-152.5000 Z-0.1250 I5.7827 J0.0000 F816.00
G2 X-43.2827 Y-152.5000 Z-0.9375 I-5.7827 J0.0000 F816.00
G2 X-31.7173 Y-152.5000 Z-1.7500 I5.7827 J0.0000 F816.00
G2 X-43.2827 Y-152.5000 Z-1.7500 I-5.7827 J0.0000 F816.00
G2 X-31.7173 Y-152.5000 Z-1.7500 I5.7827 J0.0000 F816.00
G0 Z7.5000
G0 X-29.4600 Y-152.5000
G0 Z7.5000
G1 Z1.5000 F816.00
G2 X-45.5400 Y-152.5000 Z0.6875 I-8.0400 J0.0000 F816.00
G2 X-29.4600 Y-152.5000 Z-0.1250 I8.0400 J0.0000 F816.00
G2 X-45.5400 Y-152.5000 Z-0.9375 I-8.0400 J0.0000 F816.00
G2 X-29.4600 Y-152.5000 Z-1.7500 I8.0400 J0.0000 F816.00
G2 X-45.5400 Y-152.5000 Z-1.7500 I-8.0400 J0.0000 F816.00
G2 X-29.4600 Y-152.5000 Z-1.7500 I8.0400 J0.0000 F816.00
G0 Z7.5000
G0 X-61.2320 Y-152.5000
G0 Z7.5000
G1 Z1.5000 F816.00
G2 X-63.7680 Y-152.5000 Z0.6875 I-1.2680 J0.0000 F816.00
G2 X-61.2320 Y-152.5000 Z-0.1250 I1.2680 J0.0000 F816.00
G2 X-63.7680 Y-152.5000 Z-0.9375 I-1.2680 J0.0000 F816.00
G2 X-61.2320 Y-152.5000 Z-1.7500 I1.2680 J0.0000 F816.00
G2 X-63.7680 Y-152.5000 Z-1.7500 I-1.2680 J0.0000 F816.00
G2 X-61.2320 Y-152.5000 Z-1.7500 I1.2680 J0.0000 F816.00
G0 Z7.5000
G0 X-58.9747 Y-152.5000
G0 Z7.5000
G1 Z1.5000 F816.00
G2 X-66.0253 Y-152.5000 Z0.6875 I-3.5253 J0.0000 F816.00
G2 X-58.9747 Y-152.5000 Z-0.1250 I3.5253 J0.0000 F816.00
G2 X-66.0253 Y-152.5000 Z-0.9375 I-3.5253 J0.0000 F816.00
G2 X-58.9747 Y-152.5000 Z-1.7500 I3.5253 J0.0000 F816.00
G2 X-66.0253 Y-152.5000 Z-1.7500 I-3.5253 J0.0000 F816.00
G2 X-58.9747 Y-152.5000 Z-1.7500 I3.5253 J0.0000 F816.00
G0 Z7.5000
G0 X-56.7173 Y-152.5000
G0 Z7.5000
G1 Z1.5000 F816.00
G2 X-68.2827 Y-152.5000 Z0.6875 I-5.7827 J0.0000 F816.00
G2 X-56.7173 Y-152.5000 Z-0.1250 I5.7827 J0.0000 F816.00
G2 X-68.2827 Y-152.5000 Z-0.9375 I-5.7827 J0.0000 F816.00
G2 X-56.7173 Y-152.5000 Z-1.7500 I5.7827 J0.0000 F816.00
G2 X-68.2827 Y-152.5000 Z-1.7500 I-5.7827 J0.0000 F816.00
G2 X-56.7173 Y-152.5000 Z-1.7500 I5.7827 J0.0000 F816.00
G0 Z7.5000
G0 X-54.4600 Y-152.5000
G0 Z7.5000
G1 Z1.5000 F816.00
G2 X-70.5400 Y-152.5000 Z0.6875 I-8.0400 J0.0000 F816.00
G2 X-54.4600 Y-152.5000 Z-0.1250 I8.0400 J0.0000 F816.00
G2 X-70.5400 Y-152.5000 Z-0.9375 I-8.0400 J0.0000 F816.00
G2 X-54.4600 Y-152.5000 Z-1.7500 I8.0400 J0.0000 F816.00
G2 X-70.5400 Y-152.5000 Z-1.7500 I-8.0400 J0.0000 F816.00
G2 X-54.4600 Y-152.5000 Z-1.7500 I8.0400 J0.0000 F816.00
G0 Z7.5000
G0 X-61.2320 Y-127.5000
G0 Z7.5000
G1 Z1.5000 F816.00
G2 X-63.7680 Y-127.5000 Z0.6875 I-1.2680 J0.0000 F816.00
G2 X-61.2320 Y-127.5000 Z-0.1250 I1.2680 J0.0000 F816.00
G2 X-63.7680 Y-127.5000 Z-0.9375 I-1.2680 J0.0000 F816.00
G2 X-61.2320 Y-127.5000 Z-1.7500 I1.2680 J0.0000 F816.00
G2 X-63.7680 Y-127.5000 Z-1.7500 I-1.2680 J0.0000 F816.00
G2 X-61.2320 Y-127.5000 Z-1.7500 I1.2680 J0.0000 F816.00
G0 Z7.5000
G0 X-58.9747 Y-127.5000
G0 Z7.5000
G1 Z1.5000 F816.00
G2 X-66.0253 Y-127.5000 Z0.6875 I-3.5253 J0.0000 F816.00
G2 X-58.9747 Y-127.5000 Z-0.1250 I3.5253 J0.0000 F816.00
G2 X-66.0253 Y-127.5000 Z-0.9375 I-3.5253 J0.0000 F816.00
G2 X-58.9747 Y-127.5000 Z-1.7500 I3.5253 J0.0000 F816.00
G2 X-66.0253 Y-127.5000 Z-1.7500 I-3.5253 J0.0000 F816.00
G2 X-58.9747 Y-127.5000 Z-1.7500 I3.5253 J0.0000 F816.00
G0 Z7.5000
G0 X-56.7173 Y-127.5000
G0 Z7.5000
G1 Z1.5000 F816.00
G2 X-68.2827 Y-127.5000 Z0.6875 I-5.7827 J0.0000 F816.00
G2 X-56.7173 Y-127.5000 Z-0.1250 I5.7827 J0.0000 F816.00
G2 X-68.2827 Y-127.5000 Z-0.9375 I-5.7827 J0.0000 F816.00
G2 X-56.7173 Y-127.5000 Z-1.7500 I5.7827 J0.0000 F816.00
G2 X-68.2827 Y-127.5000 Z-1.7500 I-5.7827 J0.0000 F816.00
G2 X-56.7173 Y-127.5000 Z-1.7500 I5.7827 J0.0000 F816.00
G0 Z7.5000
G0 X-54.4600 Y-127.5000
G0 Z7.5000
G1 Z1.5000 F816.00
G2 X-70.5400 Y-127.5000 Z0.6875 I-8.0400 J0.0000 F816.00
G2 X-54.4600 Y-127.5000 Z-0.1250 I8.0400 J0.0000 F816.00
G2 X-70.5400 Y-127.5000 Z-0.9375 I-8.0400 J0.0000 F816.00
G2 X-54.4600 Y-127.5000 Z-1.7500 I8.0400 J0.0000 F816.00
G2 X-70.5400 Y-127.5000 Z-1.7500 I-8.0400 J0.0000 F816.00
G2 X-54.4600 Y-127.5000 Z-1.7500 I8.0400 J0.0000 F816.00
G0 Z7.5000
G0 X-61.2320 Y-102.5000
G0 Z7.5000
G1 Z1.5000 F816.00
G2 X-63.7680 Y-102.5000 Z0.6875 I-1.2680 J0.0000 F816.00
G2 X-61.2320 Y-102.5000 Z-0.1250 I1.2680 J0.0000 F816.00
G2 X-63.7680 Y-102.5000 Z-0.9375 I-1.2680 J0.0000 F816.00
G2 X-61.2320 Y-102.5000 Z-1.7500 I1.2680 J0.0000 F816.00
G2 X-63.7680 Y-102.5000 Z-1.7500 I-1.2680 J0.0000 F816.00
G2 X-61.2320 Y-102.5000 Z-1.7500 I1.2680 J0.0000 F816.00
G0 Z7.5000
G0 X-58.9747 Y-102.5000
G0 Z7.5000
G1 Z1.5000 F816.00
G2 X-66.0253 Y-102.5000 Z0.6875 I-3.5253 J0.0000 F816.00
G2 X-58.9747 Y-102.5000 Z-0.1250 I3.5253 J0.0000 F816.00
G2 X-66.0253 Y-102.5000 Z-0.9375 I-3.5253 J0.0000 F816.00
G2 X-58.9747 Y-102.5000 Z-1.7500 I3.5253 J0.0000 F816.00
G2 X-66.0253 Y-102.5000 Z-1.7500 I-3.5253 J0.0000 F816.00
G2 X-58.9747 Y-102.5000 Z-1.7500 I3.5253 J0.0000 F816.00
G0 Z7.5000
G0 X-56.7173 Y-102.5000
G0 Z7.5000
G1 Z1.5000 F816.00
G2 X-68.2827 Y-102.5000 Z0.6875 I-5.7827 J0.0000 F816.00
G2 X-56.7173 Y-102.5000 Z-0.1250 I5.7827 J0.0000 F816.00
G2 X-68.2827 Y-102.5000 Z-0.9375 I-5.7827 J0.0000 F816.00
G2 X-56.7173 Y-102.5000 Z-1.7500 I5.7827 J0.0000 F816.00
G2 X-68.2827 Y-102.5000 Z-1.7500 I-5.7827 J0.0000 F816.00
G2 X-56.7173 Y-102.5000 Z-1.7500 I5.7827 J0.0000 F816.00
G0 Z7.5000
G0 X-54.4600 Y-102.5000
G0 Z7.5000
G1 Z1.5000 F816.00
G2 X-70.5400 Y-102.5000 Z0.6875 I-8.0400 J0.0000 F816.00
G2 X-54.4600 Y-102.5000 Z-0.1250 I8.0400 J0.0000 F816.00
G2 X-70.5400 Y-102.5000 Z-0.9375 I-8.0400 J0.0000 F816.00
G2 X-54.4600 Y-102.5000 Z-1.7500 I8.0400 J0.0000 F816.00
G2 X-70.5400 Y-102.5000 Z-1.7500 I-8.0400 J0.0000 F816.00
G2 X-54.4600 Y-102.5000 Z-1.7500 I8.0400 J0.0000 F816.00
G0 Z7.5000
G0 X-61.2320 Y-77.5000
G0 Z7.5000
G1 Z1.5000 F816.00
G2 X-63.7680 Y-77.5000 Z0.6875 I-1.2680 J0.0000 F816.00
G2 X-61.2320 Y-77.5000 Z-0.1250 I1.2680 J0.0000 F816.00
G2 X-63.7680 Y-77.5000 Z-0.9375 I-1.2680 J0.0000 F816.00
G2 X-61.2320 Y-77.5000 Z-1.7500 I1.2680 J0.0000 F816.00
G2 X-63.7680 Y-77.5000 Z-1.7500 I-1.2680 J0.0000 F816.00
G2 X-61.2320 Y-77.5000 Z-1.7500 I1.2680 J0.0000 F816.00
G0 Z7.5000
G0 X-58.9747 Y-77.5000
G0 Z7.5000
G1 Z1.5000 F816.00
G2 X-66.0253 Y-77.5000 Z0.6875 I-3.5253 J0.0000 F816.00
G2 X-58.9747 Y-77.5000 Z-0.1250 I3.5253 J0.0000 F816.00
G2 X-66.0253 Y-77.5000 Z-0.9375 I-3.5253 J0.0000 F816.00
G2 X-58.9747 Y-77.5000 Z-1.7500 I3.5253 J0.0000 F816.00
G2 X-66.0253 Y-77.5000 Z-1.7500 I-3.5253 J0.0000 F816.00
G2 X-58.9747 Y-77.5000 Z-1.7500 I3.5253 J0.0000 F816.00
G0 Z7.5000
G0 X-56.7173 Y-77.5000
G0 Z7.5000
G1 Z1.5000 F816.00
G2 X-68.2827 Y-77.5000 Z0.6875 I-5.7827 J0.0000 F816.00
G2 X-56.7173 Y-77.5000 Z-0.1250 I5.7827 J0.0000 F816.00
G2 X-68.2827 Y-77.5000 Z-0.9375 I-5.7827 J0.0000 F816.00
G2 X-56.7173 Y-77.5000 Z-1.7500 I5.7827 J0.0000 F816.00
G2 X-68.2827 Y-77.5000 Z-1.7500 I-5.7827 J0.0000 F816.00
G2 X-56.7173 Y-77.5000 Z-1.7500 I5.7827 J0.0000 F816.00
G0 Z7.5000
G0 X-54.4600 Y-77.5000
G0 Z7.5000
G1 Z1.5000 F816.00
G2 X-70.5400 Y-77.5000 Z0.6875 I-8.0400 J0.0000 F816.00
G2 X-54.4600 Y-77.5000 Z-0.1250 I8.0400 J0.0000 F816.00
G2 X-70.5400 Y-77.5000 Z-0.9375 I-8.0400 J0.0000 F816.00
G2 X-54.4600 Y-77.5000 Z-1.7500 I8.0400 J0.0000 F816.00
G2 X-70.5400 Y-77.5000 Z-1.7500 I-8.0400 J0.0000 F816.00
G2 X-54.4600 Y-77.5000 Z-1.7500 I8.0400 J0.0000 F816.00
G0 Z7.5000
G0 X-61.2320 Y-52.5000
G0 Z7.5000
G1 Z1.5000 F816.00
G2 X-63.7680 Y-52.5000 Z0.6875 I-1.2680 J0.0000 F816.00
G2 X-61.2320 Y-52.5000 Z-0.1250 I1.2680 J0.0000 F816.00
G2 X-63.7680 Y-52.5000 Z-0.9375 I-1.2680 J0.0000 F816.00
G2 X-61.2320 Y-52.5000 Z-1.7500 I1.2680 J0.0000 F816.00
G2 X-63.7680 Y-52.5000 Z-1.7500 I-1.2680 J0.0000 F816.00
G2 X-61.2320 Y-52.5000 Z-1.7500 I1.2680 J0.0000 F816.00
G0 Z7.5000
G0 X-58.9747 Y-52.5000
G0 Z7.5000
G1 Z1.5000 F816.00
G2 X-66.0253 Y-52.5000 Z0.6875 I-3.5253 J0.0000 F816.00
G2 X-58.9747 Y-52.5000 Z-0.1250 I3.5253 J0.0000 F816.00
G2 X-66.0253 Y-52.5000 Z-0.9375 I-3.5253 J0.0000 F816.00
G2 X-58.9747 Y-52.5000 Z-1.7500 I3.5253 J0.0000 F816.00
G2 X-66.0253 Y-52.5000 Z-1.7500 I-3.5253 J0.0000 F816.00
G2 X-58.9747 Y-52.5000 Z-1.7500 I3.5253 J0.0000 F816.00
G0 Z7.5000
G0 X-56.7173 Y-52.5000
G0 Z7.5000
G1 Z1.5000 F816.00
G2 X-68.2827 Y-52.5000 Z0.6875 I-5.7827 J0.0000 F816.00
G2 X-56.7173 Y-52.5000 Z-0.1250 I5.7827 J0.0000 F816.00
G2 X-68.2827 Y-52.5000 Z-0.9375 I-5.7827 J0.0000 F816.00
G2 X-56.7173 Y-52.5000 Z-1.7500 I5.7827 J0.0000 F816.00
G2 X-68.2827 Y-52.5000 Z-1.7500 I-5.7827 J0.0000 F816.00
G2 X-56.7173 Y-52.5000 Z-1.7500 I5.7827 J0.0000 F816.00
G0 Z7.5000
G0 X-54.4600 Y-52.5000
G0 Z7.5000
G1 Z1.5000 F816.00
G2 X-70.5400 Y-52.5000 Z0.6875 I-8.0400 J0.0000 F816.00
G2 X-54.4600 Y-52.5000 Z-0.1250 I8.0400 J0.0000 F816.00
G2 X-70.5400 Y-52.5000 Z-0.9375 I-8.0400 J0.0000 F816.00
G2 X-54.4600 Y-52.5000 Z-1.7500 I8.0400 J0.0000 F816.00
G2 X-70.5400 Y-52.5000 Z-1.7500 I-8.0400 J0.0000 F816.00
G2 X-54.4600 Y-52.5000 Z-1.7500 I8.0400 J0.0000 F816.00
G0 Z7.5000
G0 X-61.2320 Y-27.5000
G0 Z7.5000
G1 Z1.5000 F816.00
G2 X-63.7680 Y-27.5000 Z0.6875 I-1.2680 J0.0000 F816.00
G2 X-61.2320 Y-27.5000 Z-0.1250 I1.2680 J0.0000 F816.00
G2 X-63.7680 Y-27.5000 Z-0.9375 I-1.2680 J0.0000 F816.00
G2 X-61.2320 Y-27.5000 Z-1.7500 I1.2680 J0.0000 F816.00
G2 X-63.7680 Y-27.5000 Z-1.7500 I-1.2680 J0.0000 F816.00
G2 X-61.2320 Y-27.5000 Z-1.7500 I1.2680 J0.0000 F816.00
G0 Z7.5000
G0 X-58.9747 Y-27.5000
G0 Z7.5000
G1 Z1.5000 F816.00
G2 X-66.0253 Y-27.5000 Z0.6875 I-3.5253 J0.0000 F816.00
G2 X-58.9747 Y-27.5000 Z-0.1250 I3.5253 J0.0000 F816.00
G2 X-66.0253 Y-27.5000 Z-0.9375 I-3.5253 J0.0000 F816.00
G2 X-58.9747 Y-27.5000 Z-1.7500 I3.5253 J0.0000 F816.00
G2 X-66.0253 Y-27.5000 Z-1.7500 I-3.5253 J0.0000 F816.00
G2 X-58.9747 Y-27.5000 Z-1.7500 I3.5253 J0.0000 F816.00
G0 Z7.5000
G0 X-56.7173 Y-27.5000
G0 Z7.5000
G1 Z1.5000 F816.00
G2 X-68.2827 Y-27.5000 Z0.6875 I-5.7827 J0.0000 F816.00
G2 X-56.7173 Y-27.5000 Z-0.1250 I5.7827 J0.0000 F816.00
G2 X-68.2827 Y-27.5000 Z-0.9375 I-5.7827 J0.0000 F816.00
G2 X-56.7173 Y-27.5000 Z-1.7500 I5.7827 J0.0000 F816.00
G2 X-68.2827 Y-27.5000 Z-1.7500 I-5.7827 J0.0000 F816.00
G2 X-56.7173 Y-27.5000 Z-1.7500 I5.7827 J0.0000 F816.00
G0 Z7.5000
G0 X-54.4600 Y-27.5000
G0 Z7.5000
G1 Z1.5000 F816.00
G2 X-70.5400 Y-27.5000 Z0.6875 I-8.0400 J0.0000 F816.00
G2 X-54.4600 Y-27.5000 Z-0.1250 I8.0400 J0.0000 F816.00
G2 X-70.5400 Y-27.5000 Z-0.9375 I-8.0400 J0.0000 F816.00
G2 X-54.4600 Y-27.5000 Z-1.7500 I8.0400 J0.0000 F816.00
G2 X-70.5400 Y-27.5000 Z-1.7500 I-8.0400 J0.0000 F816.00
G2 X-54.4600 Y-27.5000 Z-1.7500 I8.0400 J0.0000 F816.00
G0 Z7.5000
G0 X-86.2320 Y-27.5000
G0 Z7.5000
G1 Z1.5000 F816.00
G2 X-88.7680 Y-27.5000 Z0.6875 I-1.2680 J0.0000 F816.00
G2 X-86.2320 Y-27.5000 Z-0.1250 I1.2680 J0.0000 F816.00
G2 X-88.7680 Y-27.5000 Z-0.9375 I-1.2680 J0.0000 F816.00
G2 X-86.2320 Y-27.5000 Z-1.7500 I1.2680 J0.0000 F816.00
G2 X-88.7680 Y-27.5000 Z-1.7500 I-1.2680 J0.0000 F816.00
G2 X-86.2320 Y-27.5000 Z-1.7500 I1.2680 J0.0000 F816.00
G0 Z7.5000
G0 X-83.9747 Y-27.5000
G0 Z7.5000
G1 Z1.5000 F816.00
G2 X-91.0253 Y-27.5000 Z0.6875 I-3.5253 J0.0000 F816.00
G2 X-83.9747 Y-27.5000 Z-0.1250 I3.5253 J0.0000 F816.00
G2 X-91.0253 Y-27.5000 Z-0.9375 I-3.5253 J0.0000 F816.00
G2 X-83.9747 Y-27.5000 Z-1.7500 I3.5253 J0.0000 F816.00
G2 X-91.0253 Y-27.5000 Z-1.7500 I-3.5253 J0.0000 F816.00
G2 X-83.9747 Y-27.5000 Z-1.7500 I3.5253 J0.0000 F816.00
G0 Z7.5000
G0 X-81.7173 Y-27.5000
G0 Z7.5000
G1 Z1.5000 F816.00
G2 X-93.2827 Y-27.5000 Z0.6875 I-5.7827 J0.0000 F816.00
G2 X-81.7173 Y-27.5000 Z-0.1250 I5.7827 J0.0000 F816.00
G2 X-93.2827 Y-27.5000 Z-0.9375 I-5.7827 J0.0000 F816.00
G2 X-81.7173 Y-27.5000 Z-1.7500 I5.7827 J0.0000 F816.00
G2 X-93.2827 Y-27.5000 Z-1.7500 I-5.7827 J0.0000 F816.00
G2 X-81.7173 Y-27.5000 Z-1.7500 I5.7827 J0.0000 F816.00
G0 Z7.5000
G0 X-79.4600 Y-27.5000
G0 Z7.5000
G1 Z1.5000 F816.00
G2 X-95.5400 Y-27.5000 Z0.6875 I-8.0400 J0.0000 F816.00
G2 X-79.4600 Y-27.5000 Z-0.1250 I8.0400 J0.0000 F816.00
G2 X-95.5400 Y-27.5000 Z-0.9375 I-8.0400 J0.0000 F816.00
G2 X-79.4600 Y-27.5000 Z-1.7500 I8.0400 J0.0000 F816.00
G2 X-95.5400 Y-27.5000 Z-1.7500 I-8.0400 J0.0000 F816.00
G2 X-79.4600 Y-27.5000 Z-1.7500 I8.0400 J0.0000 F816.00
G0 Z7.5000
G0 X-86.2320 Y-52.5000
G0 Z7.5000
G1 Z1.5000 F816.00
G2 X-88.7680 Y-52.5000 Z0.6875 I-1.2680 J0.0000 F816.00
G2 X-86.2320 Y-52.5000 Z-0.1250 I1.2680 J0.0000 F816.00
G2 X-88.7680 Y-52.5000 Z-0.9375 I-1.2680 J0.0000 F816.00
G2 X-86.2320 Y-52.5000 Z-1.7500 I1.2680 J0.0000 F816.00
G2 X-88.7680 Y-52.5000 Z-1.7500 I-1.2680 J0.0000 F816.00
G2 X-86.2320 Y-52.5000 Z-1.7500 I1.2680 J0.0000 F816.00
G0 Z7.5000
G0 X-83.9747 Y-52.5000
G0 Z7.5000
G1 Z1.5000 F816.00
G2 X-91.0253 Y-52.5000 Z0.6875 I-3.5253 J0.0000 F816.00
G2 X-83.9747 Y-52.5000 Z-0.1250 I3.5253 J0.0000 F816.00
G2 X-91.0253 Y-52.5000 Z-0.9375 I-3.5253 J0.0000 F816.00
G2 X-83.9747 Y-52.5000 Z-1.7500 I3.5253 J0.0000 F816.00
G2 X-91.0253 Y-52.5000 Z-1.7500 I-3.5253 J0.0000 F816.00
G2 X-83.9747 Y-52.5000 Z-1.7500 I3.5253 J0.0000 F816.00
G0 Z7.5000
G0 X-81.7173 Y-52.5000
G0 Z7.5000
G1 Z1.5000 F816.00
G2 X-93.2827 Y-52.5000 Z0.6875 I-5.7827 J0.0000 F816.00
G2 X-81.7173 Y-52.5000 Z-0.1250 I5.7827 J0.0000 F816.00
G2 X-93.2827 Y-52.5000 Z-0.9375 I-5.7827 J0.0000 F816.00
G2 X-81.7173 Y-52.5000 Z-1.7500 I5.7827 J0.0000 F816.00
G2 X-93.2827 Y-52.5000 Z-1.7500 I-5.7827 J0.0000 F816.00
G2 X-81.7173 Y-52.5000 Z-1.7500 I5.7827 J0.0000 F816.00
G0 Z7.5000
G0 X-79.4600 Y-52.5000
G0 Z7.5000
G1 Z1.5000 F816.00
G2 X-95.5400 Y-52.5000 Z0.6875 I-8.0400 J0.0000 F816.00
G2 X-79.4600 Y-52.5000 Z-0.1250 I8.0400 J0.0000 F816.00
G2 X-95.5400 Y-52.5000 Z-0.9375 I-8.0400 J0.0000 F816.00
G2 X-79.4600 Y-52.5000 Z-1.7500 I8.0400 J0.0000 F816.00
G2 X-95.5400 Y-52.5000 Z-1.7500 I-8.0400 J0.0000 F816.00
G2 X-79.4600 Y-52.5000 Z-1.7500 I8.0400 J0.0000 F816.00
G0 Z7.5000
G0 X-86.2320 Y-77.5000
G0 Z7.5000
G1 Z1.5000 F816.00
G2 X-88.7680 Y-77.5000 Z0.6875 I-1.2680 J0.0000 F816.00
G2 X-86.2320 Y-77.5000 Z-0.1250 I1.2680 J0.0000 F816.00
G2 X-88.7680 Y-77.5000 Z-0.9375 I-1.2680 J0.0000 F816.00
G2 X-86.2320 Y-77.5000 Z-1.7500 I1.2680 J0.0000 F816.00
G2 X-88.7680 Y-77.5000 Z-1.7500 I-1.2680 J0.0000 F816.00
G2 X-86.2320 Y-77.5000 Z-1.7500 I1.2680 J0.0000 F816.00
G0 Z7.5000
G0 X-83.9747 Y-77.5000
G0 Z7.5000
G1 Z1.5000 F816.00
G2 X-91.0253 Y-77.5000 Z0.6875 I-3.5253 J0.0000 F816.00
G2 X-83.9747 Y-77.5000 Z-0.1250 I3.5253 J0.0000 F816.00
G2 X-91.0253 Y-77.5000 Z-0.9375 I-3.5253 J0.0000 F816.00
G2 X-83.9747 Y-77.5000 Z-1.7500 I3.5253 J0.0000 F816.00
G2 X-91.0253 Y-77.5000 Z-1.7500 I-3.5253 J0.0000 F816.00
G2 X-83.9747 Y-77.5000 Z-1.7500 I3.5253 J0.0000 F816.00
G0 Z7.5000
G0 X-81.7173 Y-77.5000
G0 Z7.5000
G1 Z1.5000 F816.00
G2 X-93.2827 Y-77.5000 Z0.6875 I-5.7827 J0.0000 F816.00
G2 X-81.7173 Y-77.5000 Z-0.1250 I5.7827 J0.0000 F816.00
G2 X-93.2827 Y-77.5000 Z-0.9375 I-5.7827 J0.0000 F816.00
G2 X-81.7173 Y-77.5000 Z-1.7500 I5.7827 J0.0000 F816.00
G2 X-93.2827 Y-77.5000 Z-1.7500 I-5.7827 J0.0000 F816.00
G2 X-81.7173 Y-77.5000 Z-1.7500 I5.7827 J0.0000 F816.00
G0 Z7.5000
G0 X-79.4600 Y-77.5000
G0 Z7.5000
G1 Z1.5000 F816.00
G2 X-95.5400 Y-77.5000 Z0.6875 I-8.0400 J0.0000 F816.00
G2 X-79.4600 Y-77.5000 Z-0.1250 I8.0400 J0.0000 F816.00
G2 X-95.5400 Y-77.5000 Z-0.9375 I-8.0400 J0.0000 F816.00
G2 X-79.4600 Y-77.5000 Z-1.7500 I8.0400 J0.0000 F816.00
G2 X-95.5400 Y-77.5000 Z-1.7500 I-8.0400 J0.0000 F816.00
G2 X-79.4600 Y-77.5000 Z-1.7500 I8.0400 J0.0000 F816.00
G0 Z7.5000
G0 X-86.2320 Y-102.5000
G0 Z7.5000
G1 Z1.5000 F816.00
G2 X-88.7680 Y-102.5000 Z0.6875 I-1.2680 J0.0000 F816.00
G2 X-86.2320 Y-102.5000 Z-0.1250 I1.2680 J0.0000 F816.00
G2 X-88.7680 Y-102.5000 Z-0.9375 I-1.2680 J0.0000 F816.00
G2 X-86.2320 Y-102.5000 Z-1.7500 I1.2680 J0.0000 F816.00
G2 X-88.7680 Y-102.5000 Z-1.7500 I-1.2680 J0.0000 F816.00
G2 X-86.2320 Y-102.5000 Z-1.7500 I1.2680 J0.0000 F816.00
G0 Z7.5000
G0 X-83.9747 Y-102.5000
G0 Z7.5000
G1 Z1.5000 F816.00
G2 X-91.0253 Y-102.5000 Z0.6875 I-3.5253 J0.0000 F816.00
G2 X-83.9747 Y-102.5000 Z-0.1250 I3.5253 J0.0000 F816.00
G2 X-91.0253 Y-102.5000 Z-0.9375 I-3.5253 J0.0000 F816.00
G2 X-83.9747 Y-102.5000 Z-1.7500 I3.5253 J0.0000 F816.00
G2 X-91.0253 Y-102.5000 Z-1.7500 I-3.5253 J0.0000 F816.00
G2 X-83.9747 Y-102.5000 Z-1.7500 I3.5253 J0.0000 F816.00
G0 Z7.5000
G0 X-81.7173 Y-102.5000
G0 Z7.5000
G1 Z1.5000 F816.00
G2 X-93.2827 Y-102.5000 Z0.6875 I-5.7827 J0.0000 F816.00
G2 X-81.7173 Y-102.5000 Z-0.1250 I5.7827 J0.0000 F816.00
G2 X-93.2827 Y-102.5000 Z-0.9375 I-5.7827 J0.0000 F816.00
G2 X-81.7173 Y-102.5000 Z-1.7500 I5.7827 J0.0000 F816.00
G2 X-93.2827 Y-102.5000 Z-1.7500 I-5.7827 J0.0000 F816.00
G2 X-81.7173 Y-102.5000 Z-1.7500 I5.7827 J0.0000 F816.00
G0 Z7.5000
G0 X-79.4600 Y-102.5000
G0 Z7.5000
G1 Z1.5000 F816.00
G2 X-95.5400 Y-102.5000 Z0.6875 I-8.0400 J0.0000 F816.00
G2 X-79.4600 Y-102.5000 Z-0.1250 I8.0400 J0.0000 F816.00
G2 X-95.5400 Y-102.5000 Z-0.9375 I-8.0400 J0.0000 F816.00
G2 X-79.4600 Y-102.5000 Z-1.7500 I8.0400 J0.0000 F816.00
G2 X-95.5400 Y-102.5000 Z-1.7500 I-8.0400 J0.0000 F816.00
G2 X-79.4600 Y-102.5000 Z-1.7500 I8.0400 J0.0000 F816.00
G0 Z7.5000
G0 X-86.2320 Y-127.5000
G0 Z7.5000
G1 Z1.5000 F816.00
G2 X-88.7680 Y-127.5000 Z0.6875 I-1.2680 J0.0000 F816.00
G2 X-86.2320 Y-127.5000 Z-0.1250 I1.2680 J0.0000 F816.00
G2 X-88.7680 Y-127.5000 Z-0.9375 I-1.2680 J0.0000 F816.00
G2 X-86.2320 Y-127.5000 Z-1.7500 I1.2680 J0.0000 F816.00
G2 X-88.7680 Y-127.5000 Z-1.7500 I-1.2680 J0.0000 F816.00
G2 X-86.2320 Y-127.5000 Z-1.7500 I1.2680 J0.0000 F816.00
G0 Z7.5000
G0 X-83.9747 Y-127.5000
G0 Z7.5000
G1 Z1.5000 F816.00
G2 X-91.0253 Y-127.5000 Z0.6875 I-3.5253 J0.0000 F816.00
G2 X-83.9747 Y-127.5000 Z-0.1250 I3.5253 J0.0000 F816.00
G2 X-91.0253 Y-127.5000 Z-0.9375 I-3.5253 J0.0000 F816.00
G2 X-83.9747 Y-127.5000 Z-1.7500 I3.5253 J0.0000 F816.00
G2 X-91.0253 Y-127.5000 Z-1.7500 I-3.5253 J0.0000 F816.00
G2 X-83.9747 Y-127.5000 Z-1.7500 I3.5253 J0.0000 F816.00
G0 Z7.5000
G0 X-81.7173 Y-127.5000
G0 Z7.5000
G1 Z1.5000 F816.00
G2 X-93.2827 Y-127.5000 Z0.6875 I-5.7827 J0.0000 F816.00
G2 X-81.7173 Y-127.5000 Z-0.1250 I5.7827 J0.0000 F816.00
G2 X-93.2827 Y-127.5000 Z-0.9375 I-5.7827 J0.0000 F816.00
G2 X-81.7173 Y-127.5000 Z-1.7500 I5.7827 J0.0000 F816.00
G2 X-93.2827 Y-127.5000 Z-1.7500 I-5.7827 J0.0000 F816.00
G2 X-81.7173 Y-127.5000 Z-1.7500 I5.7827 J0.0000 F816.00
G0 Z7.5000
G0 X-79.4600 Y-127.5000
G0 Z7.5000
G1 Z1.5000 F816.00
G2 X-95.5400 Y-127.5000 Z0.6875 I-8.0400 J0.0000 F816.00
G2 X-79.4600 Y-127.5000 Z-0.1250 I8.0400 J0.0000 F816.00
G2 X-95.5400 Y-127.5000 Z-0.9375 I-8.0400 J0.0000 F816.00
G2 X-79.4600 Y-127.5000 Z-1.7500 I8.0400 J0.0000 F816.00
G2 X-95.5400 Y-127.5000 Z-1.7500 I-8.0400 J0.0000 F816.00
G2 X-79.4600 Y-127.5000 Z-1.7500 I8.0400 J0.0000 F816.00
G0 Z7.5000
G0 X-86.2320 Y-152.5000
G0 Z7.5000
G1 Z1.5000 F816.00
G2 X-88.7680 Y-152.5000 Z0.6875 I-1.2680 J0.0000 F816.00
G2 X-86.2320 Y-152.5000 Z-0.1250 I1.2680 J0.0000 F816.00
G2 X-88.7680 Y-152.5000 Z-0.9375 I-1.2680 J0.0000 F816.00
G2 X-86.2320 Y-152.5000 Z-1.7500 I1.2680 J0.0000 F816.00
G2 X-88.7680 Y-152.5000 Z-1.7500 I-1.2680 J0.0000 F816.00
G2 X-86.2320 Y-152.5000 Z-1.7500 I1.2680 J0.0000 F816.00
G0 Z7.5000
G0 X-83.9747 Y-152.5000
G0 Z7.5000
G1 Z1.5000 F816.00
G2 X-91.0253 Y-152.5000 Z0.6875 I-3.5253 J0.0000 F816.00
G2 X-83.9747 Y-152.5000 Z-0.1250 I3.5253 J0.0000 F816.00
G2 X-91.0253 Y-152.5000 Z-0.9375 I-3.5253 J0.0000 F816.00
G2 X-83.9747 Y-152.5000 Z-1.7500 I3.5253 J0.0000 F816.00
G2 X-91.0253 Y-152.5000 Z-1.7500 I-3.5253 J0.0000 F816.00
G2 X-83.9747 Y-152.5000 Z-1.7500 I3.5253 J0.0000 F816.00
G0 Z7.5000
G0 X-81.7173 Y-152.5000
G0 Z7.5000
G1 Z1.5000 F816.00
G2 X-93.2827 Y-152.5000 Z0.6875 I-5.7827 J0.0000 F816.00
G2 X-81.7173 Y-152.5000 Z-0.1250 I5.7827 J0.0000 F816.00
G2 X-93.2827 Y-152.5000 Z-0.9375 I-5.7827 J0.0000 F816.00
G2 X-81.7173 Y-152.5000 Z-1.7500 I5.7827 J0.0000 F816.00
G2 X-93.2827 Y-152.5000 Z-1.7500 I-5.7827 J0.0000 F816.00
G2 X-81.7173 Y-152.5000 Z-1.7500 I5.7827 J0.0000 F816.00
G0 Z7.5000
G0 X-79.4600 Y-152.5000
G0 Z7.5000
G1 Z1.5000 F816.00
G2 X-95.5400 Y-152.5000 Z0.6875 I-8.0400 J0.0000 F816.00
G2 X-79.4600 Y-152.5000 Z-0.1250 I8.0400 J0.0000 F816.00
G2 X-95.5400 Y-152.5000 Z-0.9375 I-8.0400 J0.0000 F816.00
G2 X-79.4600 Y-152.5000 Z-1.7500 I8.0400 J0.0000 F816.00
G2 X-95.5400 Y-152.5000 Z-1.7500 I-8.0400 J0.0000 F816.00
G2 X-79.4600 Y-152.5000 Z-1.7500 I8.0400 J0.0000 F816.00
G0 Z7.5000
G0 X-111.2320 Y-152.5000
G0 Z7.5000
G1 Z1.5000 F816.00
G2 X-113.7680 Y-152.5000 Z0.6875 I-1.2680 J0.0000 F816.00
G2 X-111.2320 Y-152.5000 Z-0.1250 I1.2680 J0.0000 F816.00
G2 X-113.7680 Y-152.5000 Z-0.9375 I-1.2680 J0.0000 F816.00
G2 X-111.2320 Y-152.5000 Z-1.7500 I1.2680 J0.0000 F816.00
G2 X-113.7680 Y-152.5000 Z-1.7500 I-1.2680 J0.0000 F816.00
G2 X-111.2320 Y-152.5000 Z-1.7500 I1.2680 J0.0000 F816.00
G0 Z7.5000
G0 X-108.9747 Y-152.5000
G0 Z7.5000
G1 Z1.5000 F816.00
G2 X-116.0253 Y-152.5000 Z0.6875 I-3.5253 J0.0000 F816.00
G2 X-108.9747 Y-152.5000 Z-0.1250 I3.5253 J0.0000 F816.00
G2 X-116.0253 Y-152.5000 Z-0.9375 I-3.5253 J0.0000 F816.00
G2 X-108.9747 Y-152.5000 Z-1.7500 I3.5253 J0.0000 F816.00
G2 X-116.0253 Y-152.5000 Z-1.7500 I-3.5253 J0.0000 F816.00
G2 X-108.9747 Y-152.5000 Z-1.7500 I3.5253 J0.0000 F816.00
G0 Z7.5000
G0 X-106.7173 Y-152.5000
G0 Z7.5000
G1 Z1.5000 F816.00
G2 X-118.2827 Y-152.5000 Z0.6875 I-5.7827 J0.0000 F816.00
G2 X-106.7173 Y-152.5000 Z-0.1250 I5.7827 J0.0000 F816.00
G2 X-118.2827 Y-152.5000 Z-0.9375 I-5.7827 J0.0000 F816.00
G2 X-106.7173 Y-152.5000 Z-1.7500 I5.7827 J0.0000 F816.00
G2 X-118.2827 Y-152.5000 Z-1.7500 I-5.7827 J0.0000 F816.00
G2 X-106.7173 Y-152.5000 Z-1.7500 I5.7827 J0.0000 F816.00
G0 Z7.5000
G0 X-104.4600 Y-152.5000
G0 Z7.5000
G1 Z1.5000 F816.00
G2 X-120.5400 Y-152.5000 Z0.6875 I-8.0400 J0.0000 F816.00
G2 X-104.4600 Y-152.5000 Z-0.1250 I8.0400 J0.0000 F816.00
G2 X-120.5400 Y-152.5000 Z-0.9375 I-8.0400 J0.0000 F816.00
G2 X-104.4600 Y-152.5000 Z-1.7500 I8.0400 J0.0000 F816.00
G2 X-120.5400 Y-152.5000 Z-1.7500 I-8.0400 J0.0000 F816.00
G2 X-104.4600 Y-152.5000 Z-1.7500 I8.0400 J0.0000 F816.00
G0 Z7.5000
G0 X-111.2320 Y-127.5000
G0 Z7.5000
G1 Z1.5000 F816.00
G2 X-113.7680 Y-127.5000 Z0.6875 I-1.2680 J0.0000 F816.00
G2 X-111.2320 Y-127.5000 Z-0.1250 I1.2680 J0.0000 F816.00
G2 X-113.7680 Y-127.5000 Z-0.9375 I-1.2680 J0.0000 F816.00
G2 X-111.2320 Y-127.5000 Z-1.7500 I1.2680 J0.0000 F816.00
G2 X-113.7680 Y-127.5000 Z-1.7500 I-1.2680 J0.0000 F816.00
G2 X-111.2320 Y-127.5000 Z-1.7500 I1.2680 J0.0000 F816.00
G0 Z7.5000
G0 X-108.9747 Y-127.5000
G0 Z7.5000
G1 Z1.5000 F816.00
G2 X-116.0253 Y-127.5000 Z0.6875 I-3.5253 J0.0000 F816.00
G2 X-108.9747 Y-127.5000 Z-0.1250 I3.5253 J0.0000 F816.00
G2 X-116.0253 Y-127.5000 Z-0.9375 I-3.5253 J0.0000 F816.00
G2 X-108.9747 Y-127.5000 Z-1.7500 I3.5253 J0.0000 F816.00
G2 X-116.0253 Y-127.5000 Z-1.7500 I-3.5253 J0.0000 F816.00
G2 X-108.9747 Y-127.5000 Z-1.7500 I3.5253 J0.0000 F816.00
G0 Z7.5000
G0 X-106.7173 Y-127.5000
G0 Z7.5000
G1 Z1.5000 F816.00
G2 X-118.2827 Y-127.5000 Z0.6875 I-5.7827 J0.0000 F816.00
G2 X-106.7173 Y-127.5000 Z-0.1250 I5.7827 J0.0000 F816.00
G2 X-118.2827 Y-127.5000 Z-0.9375 I-5.7827 J0.0000 F816.00
G2 X-106.7173 Y-127.5000 Z-1.7500 I5.7827 J0.0000 F816.00
G2 X-118.2827 Y-127.5000 Z-1.7500 I-5.7827 J0.0000 F816.00
G2 X-106.7173 Y-127.5000 Z-1.7500 I5.7827 J0.0000 F816.00
G0 Z7.5000
G0 X-104.4600 Y-127.5000
G0 Z7.5000
G1 Z1.5000 F816.00
G2 X-120.5400 Y-127.5000 Z0.6875 I-8.0400 J0.0000 F816.00
G2 X-104.4600 Y-127.5000 Z-0.1250 I8.0400 J0.0000 F816.00
G2 X-120.5400 Y-127.5000 Z-0.9375 I-8.0400 J0.0000 F816.00
G2 X-104.4600 Y-127.5000 Z-1.7500 I8.0400 J0.0000 F816.00
G2 X-120.5400 Y-127.5000 Z-1.7500 I-8.0400 J0.0000 F816.00
G2 X-104.4600 Y-127.5000 Z-1.7500 I8.0400 J0.0000 F816.00
G0 Z7.5000
G0 X-111.2320 Y-102.5000
G0 Z7.5000
G1 Z1.5000 F816.00
G2 X-113.7680 Y-102.5000 Z0.6875 I-1.2680 J0.0000 F816.00
G2 X-111.2320 Y-102.5000 Z-0.1250 I1.2680 J0.0000 F816.00
G2 X-113.7680 Y-102.5000 Z-0.9375 I-1.2680 J0.0000 F816.00
G2 X-111.2320 Y-102.5000 Z-1.7500 I1.2680 J0.0000 F816.00
G2 X-113.7680 Y-102.5000 Z-1.7500 I-1.2680 J0.0000 F816.00
G2 X-111.2320 Y-102.5000 Z-1.7500 I1.2680 J0.0000 F816.00
G0 Z7.5000
G0 X-108.9747 Y-102.5000
G0 Z7.5000
G1 Z1.5000 F816.00
G2 X-116.0253 Y-102.5000 Z0.6875 I-3.5253 J0.0000 F816.00
G2 X-108.9747 Y-102.5000 Z-0.1250 I3.5253 J0.0000 F816.00
G2 X-116.0253 Y-102.5000 Z-0.9375 I-3.5253 J0.0000 F816.00
G2 X-108.9747 Y-102.5000 Z-1.7500 I3.5253 J0.0000 F816.00
G2 X-116.0253 Y-102.5000 Z-1.7500 I-3.5253 J0.0000 F816.00
G2 X-108.9747 Y-102.5000 Z-1.7500 I3.5253 J0.0000 F816.00
G0 Z7.5000
G0 X-106.7173 Y-102.5000
G0 Z7.5000
G1 Z1.5000 F816.00
G2 X-118.2827 Y-102.5000 Z0.6875 I-5.7827 J0.0000 F816.00
G2 X-106.7173 Y-102.5000 Z-0.1250 I5.7827 J0.0000 F816.00
G2 X-118.2827 Y-102.5000 Z-0.9375 I-5.7827 J0.0000 F816.00
G2 X-106.7173 Y-102.5000 Z-1.7500 I5.7827 J0.0000 F816.00
G2 X-118.2827 Y-102.5000 Z-1.7500 I-5.7827 J0.0000 F816.00
G2 X-106.7173 Y-102.5000 Z-1.7500 I5.7827 J0.0000 F816.00
G0 Z7.5000
G0 X-104.4600 Y-102.5000
G0 Z7.5000
G1 Z1.5000 F816.00
G2 X-120.5400 Y-102.5000 Z0.6875 I-8.0400 J0.0000 F816.00
G2 X-104.4600 Y-102.5000 Z-0.1250 I8.0400 J0.0000 F816.00
G2 X-120.5400 Y-102.5000 Z-0.9375 I-8.0400 J0.0000 F816.00
G2 X-104.4600 Y-102.5000 Z-1.7500 I8.0400 J0.0000 F816.00
G2 X-120.5400 Y-102.5000 Z-1.7500 I-8.0400 J0.0000 F816.00
G2 X-104.4600 Y-102.5000 Z-1.7500 I8.0400 J0.0000 F816.00
G0 Z7.5000
G0 X-111.2320 Y-77.5000
G0 Z7.5000
G1 Z1.5000 F816.00
G2 X-113.7680 Y-77.5000 Z0.6875 I-1.2680 J0.0000 F816.00
G2 X-111.2320 Y-77.5000 Z-0.1250 I1.2680 J0.0000 F816.00
G2 X-113.7680 Y-77.5000 Z-0.9375 I-1.2680 J0.0000 F816.00
G2 X-111.2320 Y-77.5000 Z-1.7500 I1.2680 J0.0000 F816.00
G2 X-113.7680 Y-77.5000 Z-1.7500 I-1.2680 J0.0000 F816.00
G2 X-111.2320 Y-77.5000 Z-1.7500 I1.2680 J0.0000 F816.00
G0 Z7.5000
G0 X-108.9747 Y-77.5000
G0 Z7.5000
G1 Z1.5000 F816.00
G2 X-116.0253 Y-77.5000 Z0.6875 I-3.5253 J0.0000 F816.00
G2 X-108.9747 Y-77.5000 Z-0.1250 I3.5253 J0.0000 F816.00
G2 X-116.0253 Y-77.5000 Z-0.9375 I-3.5253 J0.0000 F816.00
G2 X-108.9747 Y-77.5000 Z-1.7500 I3.5253 J0.0000 F816.00
G2 X-116.0253 Y-77.5000 Z-1.7500 I-3.5253 J0.0000 F816.00
G2 X-108.9747 Y-77.5000 Z-1.7500 I3.5253 J0.0000 F816.00
G0 Z7.5000
G0 X-106.7173 Y-77.5000
G0 Z7.5000
G1 Z1.5000 F816.00
G2 X-118.2827 Y-77.5000 Z0.6875 I-5.7827 J0.0000 F816.00
G2 X-106.7173 Y-77.5000 Z-0.1250 I5.7827 J0.0000 F816.00
G2 X-118.2827 Y-77.5000 Z-0.9375 I-5.7827 J0.0000 F816.00
G2 X-106.7173 Y-77.5000 Z-1.7500 I5.7827 J0.0000 F816.00
G2 X-118.2827 Y-77.5000 Z-1.7500 I-5.7827 J0.0000 F816.00
G2 X-106.7173 Y-77.5000 Z-1.7500 I5.7827 J0.0000 F816.00
G0 Z7.5000
G0 X-104.4600 Y-77.5000
G0 Z7.5000
G1 Z1.5000 F816.00
G2 X-120.5400 Y-77.5000 Z0.6875 I-8.0400 J0.0000 F816.00
G2 X-104.4600 Y-77.5000 Z-0.1250 I8.0400 J0.0000 F816.00
G2 X-120.5400 Y-77.5000 Z-0.9375 I-8.0400 J0.0000 F816.00
G2 X-104.4600 Y-77.5000 Z-1.7500 I8.0400 J0.0000 F816.00
G2 X-120.5400 Y-77.5000 Z-1.7500 I-8.0400 J0.0000 F816.00
G2 X-104.4600 Y-77.5000 Z-1.7500 I8.0400 J0.0000 F816.00
G0 Z7.5000
G0 X-111.2320 Y-52.5000
G0 Z7.5000
G1 Z1.5000 F816.00
G2 X-113.7680 Y-52.5000 Z0.6875 I-1.2680 J0.0000 F816.00
G2 X-111.2320 Y-52.5000 Z-0.1250 I1.2680 J0.0000 F816.00
G2 X-113.7680 Y-52.5000 Z-0.9375 I-1.2680 J0.0000 F816.00
G2 X-111.2320 Y-52.5000 Z-1.7500 I1.2680 J0.0000 F816.00
G2 X-113.7680 Y-52.5000 Z-1.7500 I-1.2680 J0.0000 F816.00
G2 X-111.2320 Y-52.5000 Z-1.7500 I1.2680 J0.0000 F816.00
G0 Z7.5000
G0 X-108.9747 Y-52.5000
G0 Z7.5000
G1 Z1.5000 F816.00
G2 X-116.0253 Y-52.5000 Z0.6875 I-3.5253 J0.0000 F816.00
G2 X-108.9747 Y-52.5000 Z-0.1250 I3.5253 J0.0000 F816.00
G2 X-116.0253 Y-52.5000 Z-0.9375 I-3.5253 J0.0000 F816.00
G2 X-108.9747 Y-52.5000 Z-1.7500 I3.5253 J0.0000 F816.00
G2 X-116.0253 Y-52.5000 Z-1.7500 I-3.5253 J0.0000 F816.00
G2 X-108.9747 Y-52.5000 Z-1.7500 I3.5253 J0.0000 F816.00
G0 Z7.5000
G0 X-106.7173 Y-52.5000
G0 Z7.5000
G1 Z1.5000 F816.00
G2 X-118.2827 Y-52.5000 Z0.6875 I-5.7827 J0.0000 F816.00
G2 X-106.7173 Y-52.5000 Z-0.1250 I5.7827 J0.0000 F816.00
G2 X-118.2827 Y-52.5000 Z-0.9375 I-5.7827 J0.0000 F816.00
G2 X-106.7173 Y-52.5000 Z-1.7500 I5.7827 J0.0000 F816.00
G2 X-118.2827 Y-52.5000 Z-1.7500 I-5.7827 J0.0000 F816.00
G2 X-106.7173 Y-52.5000 Z-1.7500 I5.7827 J0.0000 F816.00
G0 Z7.5000
G0 X-104.4600 Y-52.5000
G0 Z7.5000
G1 Z1.5000 F816.00
G2 X-120.5400 Y-52.5000 Z0.6875 I-8.0400 J0.0000 F816.00
G2 X-104.4600 Y-52.5000 Z-0.1250 I8.0400 J0.0000 F816.00
G2 X-120.5400 Y-52.5000 Z-0.9375 I-8.0400 J0.0000 F816.00
G2 X-104.4600 Y-52.5000 Z-1.7500 I8.0400 J0.0000 F816.00
G2 X-120.5400 Y-52.5000 Z-1.7500 I-8.0400 J0.0000 F816.00
G2 X-104.4600 Y-52.5000 Z-1.7500 I8.0400 J0.0000 F816.00
G0 Z7.5000
G0 X-111.2320 Y-27.5000
G0 Z7.5000
G1 Z1.5000 F816.00
G2 X-113.7680 Y-27.5000 Z0.6875 I-1.2680 J0.0000 F816.00
G2 X-111.2320 Y-27.5000 Z-0.1250 I1.2680 J0.0000 F816.00
G2 X-113.7680 Y-27.5000 Z-0.9375 I-1.2680 J0.0000 F816.00
G2 X-111.2320 Y-27.5000 Z-1.7500 I1.2680 J0.0000 F816.00
G2 X-113.7680 Y-27.5000 Z-1.7500 I-1.2680 J0.0000 F816.00
G2 X-111.2320 Y-27.5000 Z-1.7500 I1.2680 J0.0000 F816.00
G0 Z7.5000
G0 X-108.9747 Y-27.5000
G0 Z7.5000
G1 Z1.5000 F816.00
G2 X-116.0253 Y-27.5000 Z0.6875 I-3.5253 J0.0000 F816.00
G2 X-108.9747 Y-27.5000 Z-0.1250 I3.5253 J0.0000 F816.00
G2 X-116.0253 Y-27.5000 Z-0.9375 I-3.5253 J0.0000 F816.00
G2 X-108.9747 Y-27.5000 Z-1.7500 I3.5253 J0.0000 F816.00
G2 X-116.0253 Y-27.5000 Z-1.7500 I-3.5253 J0.0000 F816.00
G2 X-108.9747 Y-27.5000 Z-1.7500 I3.5253 J0.0000 F816.00
G0 Z7.5000
G0 X-106.7173 Y-27.5000
G0 Z7.5000
G1 Z1.5000 F816.00
G2 X-118.2827 Y-27.5000 Z0.6875 I-5.7827 J0.0000 F816.00
G2 X-106.7173 Y-27.5000 Z-0.1250 I5.7827 J0.0000 F816.00
G2 X-118.2827 Y-27.5000 Z-0.9375 I-5.7827 J0.0000 F816.00
G2 X-106.7173 Y-27.5000 Z-1.7500 I5.7827 J0.0000 F816.00
G2 X-118.2827 Y-27.5000 Z-1.7500 I-5.7827 J0.0000 F816.00
G2 X-106.7173 Y-27.5000 Z-1.7500 I5.7827 J0.0000 F816.00
G0 Z7.5000
G0 X-104.4600 Y-27.5000
G0 Z7.5000
G1 Z1.5000 F816.00
G2 X-120.5400 Y-27.5000 Z0.6875 I-8.0400 J0.0000 F816.00
G2 X-104.4600 Y-27.5000 Z-0.1250 I8.0400 J0.0000 F816.00
G2 X-120.5400 Y-27.5000 Z-0.9375 I-8.0400 J0.0000 F816.00
G2 X-104.4600 Y-27.5000 Z-1.7500 I8.0400 J0.0000 F816.00
G2 X-120.5400 Y-27.5000 Z-1.7500 I-8.0400 J0.0000 F816.00
G2 X-104.4600 Y-27.5000 Z-1.7500 I8.0400 J0.0000 F816.00
G0 Z7.5000
G0 X-136.2320 Y-27.5000
G0 Z7.5000
G1 Z1.5000 F816.00
G2 X-138.7680 Y-27.5000 Z0.6875 I-1.2680 J0.0000 F816.00
G2 X-136.2320 Y-27.5000 Z-0.1250 I1.2680 J0.0000 F816.00
G2 X-138.7680 Y-27.5000 Z-0.9375 I-1.2680 J0.0000 F816.00
G2 X-136.2320 Y-27.5000 Z-1.7500 I1.2680 J0.0000 F816.00
G2 X-138.7680 Y-27.5000 Z-1.7500 I-1.2680 J0.0000 F816.00
G2 X-136.2320 Y-27.5000 Z-1.7500 I1.2680 J0.0000 F816.00
G0 Z7.5000
G0 X-133.9747 Y-27.5000
G0 Z7.5000
G1 Z1.5000 F816.00
G2 X-141.0253 Y-27.5000 Z0.6875 I-3.5253 J0.0000 F816.00
G2 X-133.9747 Y-27.5000 Z-0.1250 I3.5253 J0.0000 F816.00
G2 X-141.0253 Y-27.5000 Z-0.9375 I-3.5253 J0.0000 F816.00
G2 X-133.9747 Y-27.5000 Z-1.7500 I3.5253 J0.0000 F816.00
G2 X-141.0253 Y-27.5000 Z-1.7500 I-3.5253 J0.0000 F816.00
G2 X-133.9747 Y-27.5000 Z-1.7500 I3.5253 J0.0000 F816.00
G0 Z7.5000
G0 X-131.7173 Y-27.5000
G0 Z7.5000
G1 Z1.5000 F816.00
G2 X-143.2827 Y-27.5000 Z0.6875 I-5.7827 J0.0000 F816.00
G2 X-131.7173 Y-27.5000 Z-0.1250 I5.7827 J0.0000 F816.00
G2 X-143.2827 Y-27.5000 Z-0.9375 I-5.7827 J0.0000 F816.00
G2 X-131.7173 Y-27.5000 Z-1.7500 I5.7827 J0.0000 F816.00
G2 X-143.2827 Y-27.5000 Z-1.7500 I-5.7827 J0.0000 F816.00
G2 X-131.7173 Y-27.5000 Z-1.7500 I5.7827 J0.0000 F816.00
G0 Z7.5000
G0 X-129.4600 Y-27.5000
G0 Z7.5000
G1 Z1.5000 F816.00
G2 X-145.5400 Y-27.5000 Z0.6875 I-8.0400 J0.0000 F816.00
G2 X-129.4600 Y-27.5000 Z-0.1250 I8.0400 J0.0000 F816.00
G2 X-145.5400 Y-27.5000 Z-0.9375 I-8.0400 J0.0000 F816.00
G2 X-129.4600 Y-27.5000 Z-1.7500 I8.0400 J0.0000 F816.00
G2 X-145.5400 Y-27.5000 Z-1.7500 I-8.0400 J0.0000 F816.00
G2 X-129.4600 Y-27.5000 Z-1.7500 I8.0400 J0.0000 F816.00
G0 Z7.5000
G0 X-136.2320 Y-52.5000
G0 Z7.5000
G1 Z1.5000 F816.00
G2 X-138.7680 Y-52.5000 Z0.6875 I-1.2680 J0.0000 F816.00
G2 X-136.2320 Y-52.5000 Z-0.1250 I1.2680 J0.0000 F816.00
G2 X-138.7680 Y-52.5000 Z-0.9375 I-1.2680 J0.0000 F816.00
G2 X-136.2320 Y-52.5000 Z-1.7500 I1.2680 J0.0000 F816.00
G2 X-138.7680 Y-52.5000 Z-1.7500 I-1.2680 J0.0000 F816.00
G2 X-136.2320 Y-52.5000 Z-1.7500 I1.2680 J0.0000 F816.00
G0 Z7.5000
G0 X-133.9747 Y-52.5000
G0 Z7.5000
G1 Z1.5000 F816.00
G2 X-141.0253 Y-52.5000 Z0.6875 I-3.5253 J0.0000 F816.00
G2 X-133.9747 Y-52.5000 Z-0.1250 I3.5253 J0.0000 F816.00
G2 X-141.0253 Y-52.5000 Z-0.9375 I-3.5253 J0.0000 F816.00
G2 X-133.9747 Y-52.5000 Z-1.7500 I3.5253 J0.0000 F816.00
G2 X-141.0253 Y-52.5000 Z-1.7500 I-3.5253 J0.0000 F816.00
G2 X-133.9747 Y-52.5000 Z-1.7500 I3.5253 J0.0000 F816.00
G0 Z7.5000
G0 X-131.7173 Y-52.5000
G0 Z7.5000
G1 Z1.5000 F816.00
G2 X-143.2827 Y-52.5000 Z0.6875 I-5.7827 J0.0000 F816.00
G2 X-131.7173 Y-52.5000 Z-0.1250 I5.7827 J0.0000 F816.00
G2 X-143.2827 Y-52.5000 Z-0.9375 I-5.7827 J0.0000 F816.00
G2 X-131.7173 Y-52.5000 Z-1.7500 I5.7827 J0.0000 F816.00
G2 X-143.2827 Y-52.5000 Z-1.7500 I-5.7827 J0.0000 F816.00
G2 X-131.7173 Y-52.5000 Z-1.7500 I5.7827 J0.0000 F816.00
G0 Z7.5000
G0 X-129.4600 Y-52.5000
G0 Z7.5000
G1 Z1.5000 F816.00
G2 X-145.5400 Y-52.5000 Z0.6875 I-8.0400 J0.0000 F816.00
G2 X-129.4600 Y-52.5000 Z-0.1250 I8.0400 J0.0000 F816.00
G2 X-145.5400 Y-52.5000 Z-0.9375 I-8.0400 J0.0000 F816.00
G2 X-129.4600 Y-52.5000 Z-1.7500 I8.0400 J0.0000 F816.00
G2 X-145.5400 Y-52.5000 Z-1.7500 I-8.0400 J0.0000 F816.00
G2 X-129.4600 Y-52.5000 Z-1.7500 I8.0400 J0.0000 F816.00
G0 Z7.5000
G0 X-136.2320 Y-77.5000
G0 Z7.5000
G1 Z1.5000 F816.00
G2 X-138.7680 Y-77.5000 Z0.6875 I-1.2680 J0.0000 F816.00
G2 X-136.2320 Y-77.5000 Z-0.1250 I1.2680 J0.0000 F816.00
G2 X-138.7680 Y-77.5000 Z-0.9375 I-1.2680 J0.0000 F816.00
G2 X-136.2320 Y-77.5000 Z-1.7500 I1.2680 J0.0000 F816.00
G2 X-138.7680 Y-77.5000 Z-1.7500 I-1.2680 J0.0000 F816.00
G2 X-136.2320 Y-77.5000 Z-1.7500 I1.2680 J0.0000 F816.00
G0 Z7.5000
G0 X-133.9747 Y-77.5000
G0 Z7.5000
G1 Z1.5000 F816.00
G2 X-141.0253 Y-77.5000 Z0.6875 I-3.5253 J0.0000 F816.00
G2 X-133.9747 Y-77.5000 Z-0.1250 I3.5253 J0.0000 F816.00
G2 X-141.0253 Y-77.5000 Z-0.9375 I-3.5253 J0.0000 F816.00
G2 X-133.9747 Y-77.5000 Z-1.7500 I3.5253 J0.0000 F816.00
G2 X-141.0253 Y-77.5000 Z-1.7500 I-3.5253 J0.0000 F816.00
G2 X-133.9747 Y-77.5000 Z-1.7500 I3.5253 J0.0000 F816.00
G0 Z7.5000
G0 X-131.7173 Y-77.5000
G0 Z7.5000
G1 Z1.5000 F816.00
G2 X-143.2827 Y-77.5000 Z0.6875 I-5.7827 J0.0000 F816.00
G2 X-131.7173 Y-77.5000 Z-0.1250 I5.7827 J0.0000 F816.00
G2 X-143.2827 Y-77.5000 Z-0.9375 I-5.7827 J0.0000 F816.00
G2 X-131.7173 Y-77.5000 Z-1.7500 I5.7827 J0.0000 F816.00
G2 X-143.2827 Y-77.5000 Z-1.7500 I-5.7827 J0.0000 F816.00
G2 X-131.7173 Y-77.5000 Z-1.7500 I5.7827 J0.0000 F816.00
G0 Z7.5000
G0 X-129.4600 Y-77.5000
G0 Z7.5000
G1 Z1.5000 F816.00
G2 X-145.5400 Y-77.5000 Z0.6875 I-8.0400 J0.0000 F816.00
G2 X-129.4600 Y-77.5000 Z-0.1250 I8.0400 J0.0000 F816.00
G2 X-145.5400 Y-77.5000 Z-0.9375 I-8.0400 J0.0000 F816.00
G2 X-129.4600 Y-77.5000 Z-1.7500 I8.0400 J0.0000 F816.00
G2 X-145.5400 Y-77.5000 Z-1.7500 I-8.0400 J0.0000 F816.00
G2 X-129.4600 Y-77.5000 Z-1.7500 I8.0400 J0.0000 F816.00
G0 Z7.5000
G0 X-136.2320 Y-102.5000
G0 Z7.5000
G1 Z1.5000 F816.00
G2 X-138.7680 Y-102.5000 Z0.6875 I-1.2680 J0.0000 F816.00
G2 X-136.2320 Y-102.5000 Z-0.1250 I1.2680 J0.0000 F816.00
G2 X-138.7680 Y-102.5000 Z-0.9375 I-1.2680 J0.0000 F816.00
G2 X-136.2320 Y-102.5000 Z-1.7500 I1.2680 J0.0000 F816.00
G2 X-138.7680 Y-102.5000 Z-1.7500 I-1.2680 J0.0000 F816.00
G2 X-136.2320 Y-102.5000 Z-1.7500 I1.2680 J0.0000 F816.00
G0 Z7.5000
G0 X-133.9747 Y-102.5000
G0 Z7.5000
G1 Z1.5000 F816.00
G2 X-141.0253 Y-102.5000 Z0.6875 I-3.5253 J0.0000 F816.00
G2 X-133.9747 Y-102.5000 Z-0.1250 I3.5253 J0.0000 F816.00
G2 X-141.0253 Y-102.5000 Z-0.9375 I-3.5253 J0.0000 F816.00
G2 X-133.9747 Y-102.5000 Z-1.7500 I3.5253 J0.0000 F816.00
G2 X-141.0253 Y-102.5000 Z-1.7500 I-3.5253 J0.0000 F816.00
G2 X-133.9747 Y-102.5000 Z-1.7500 I3.5253 J0.0000 F816.00
G0 Z7.5000
G0 X-131.7173 Y-102.5000
G0 Z7.5000
G1 Z1.5000 F816.00
G2 X-143.2827 Y-102.5000 Z0.6875 I-5.7827 J0.0000 F816.00
G2 X-131.7173 Y-102.5000 Z-0.1250 I5.7827 J0.0000 F816.00
G2 X-143.2827 Y-102.5000 Z-0.9375 I-5.7827 J0.0000 F816.00
G2 X-131.7173 Y-102.5000 Z-1.7500 I5.7827 J0.0000 F816.00
G2 X-143.2827 Y-102.5000 Z-1.7500 I-5.7827 J0.0000 F816.00
G2 X-131.7173 Y-102.5000 Z-1.7500 I5.7827 J0.0000 F816.00
G0 Z7.5000
G0 X-129.4600 Y-102.5000
G0 Z7.5000
G1 Z1.5000 F816.00
G2 X-145.5400 Y-102.5000 Z0.6875 I-8.0400 J0.0000 F816.00
G2 X-129.4600 Y-102.5000 Z-0.1250 I8.0400 J0.0000 F816.00
G2 X-145.5400 Y-102.5000 Z-0.9375 I-8.0400 J0.0000 F816.00
G2 X-129.4600 Y-102.5000 Z-1.7500 I8.0400 J0.0000 F816.00
G2 X-145.5400 Y-102.5000 Z-1.7500 I-8.0400 J0.0000 F816.00
G2 X-129.4600 Y-102.5000 Z-1.7500 I8.0400 J0.0000 F816.00
G0 Z7.5000
G0 X-136.2320 Y-127.5000
G0 Z7.5000
G1 Z1.5000 F816.00
G2 X-138.7680 Y-127.5000 Z0.6875 I-1.2680 J0.0000 F816.00
G2 X-136.2320 Y-127.5000 Z-0.1250 I1.2680 J0.0000 F816.00
G2 X-138.7680 Y-127.5000 Z-0.9375 I-1.2680 J0.0000 F816.00
G2 X-136.2320 Y-127.5000 Z-1.7500 I1.2680 J0.0000 F816.00
G2 X-138.7680 Y-127.5000 Z-1.7500 I-1.2680 J0.0000 F816.00
G2 X-136.2320 Y-127.5000 Z-1.7500 I1.2680 J0.0000 F816.00
G0 Z7.5000
G0 X-133.9747 Y-127.5000
G0 Z7.5000
G1 Z1.5000 F816.00
G2 X-141.0253 Y-127.5000 Z0.6875 I-3.5253 J0.0000 F816.00
G2 X-133.9747 Y-127.5000 Z-0.1250 I3.5253 J0.0000 F816.00
G2 X-141.0253 Y-127.5000 Z-0.9375 I-3.5253 J0.0000 F816.00
G2 X-133.9747 Y-127.5000 Z-1.7500 I3.5253 J0.0000 F816.00
G2 X-141.0253 Y-127.5000 Z-1.7500 I-3.5253 J0.0000 F816.00
G2 X-133.9747 Y-127.5000 Z-1.7500 I3.5253 J0.0000 F816.00
G0 Z7.5000
G0 X-131.7173 Y-127.5000
G0 Z7.5000
G1 Z1.5000 F816.00
G2 X-143.2827 Y-127.5000 Z0.6875 I-5.7827 J0.0000 F816.00
G2 X-131.7173 Y-127.5000 Z-0.1250 I5.7827 J0.0000 F816.00
G2 X-143.2827 Y-127.5000 Z-0.9375 I-5.7827 J0.0000 F816.00
G2 X-131.7173 Y-127.5000 Z-1.7500 I5.7827 J0.0000 F816.00
G2 X-143.2827 Y-127.5000 Z-1.7500 I-5.7827 J0.0000 F816.00
G2 X-131.7173 Y-127.5000 Z-1.7500 I5.7827 J0.0000 F816.00
G0 Z7.5000
G0 X-129.4600 Y-127.5000
G0 Z7.5000
G1 Z1.5000 F816.00
G2 X-145.5400 Y-127.5000 Z0.6875 I-8.0400 J0.0000 F816.00
G2 X-129.4600 Y-127.5000 Z-0.1250 I8.0400 J0.0000 F816.00
G2 X-145.5400 Y-127.5000 Z-0.9375 I-8.0400 J0.0000 F816.00
G2 X-129.4600 Y-127.5000 Z-1.7500 I8.0400 J0.0000 F816.00
G2 X-145.5400 Y-127.5000 Z-1.7500 I-8.0400 J0.0000 F816.00
G2 X-129.4600 Y-127.5000 Z-1.7500 I8.0400 J0.0000 F816.00
G0 Z7.5000
G0 X-136.2320 Y-152.5000
G0 Z7.5000
G1 Z1.5000 F816.00
G2 X-138.7680 Y-152.5000 Z0.6875 I-1.2680 J0.0000 F816.00
G2 X-136.2320 Y-152.5000 Z-0.1250 I1.2680 J0.0000 F816.00
G2 X-138.7680 Y-152.5000 Z-0.9375 I-1.2680 J0.0000 F816.00
G2 X-136.2320 Y-152.5000 Z-1.7500 I1.2680 J0.0000 F816.00
G2 X-138.7680 Y-152.5000 Z-1.7500 I-1.2680 J0.0000 F816.00
G2 X-136.2320 Y-152.5000 Z-1.7500 I1.2680 J0.0000 F816.00
G0 Z7.5000
G0 X-133.9747 Y-152.5000
G0 Z7.5000
G1 Z1.5000 F816.00
G2 X-141.0253 Y-152.5000 Z0.6875 I-3.5253 J0.0000 F816.00
G2 X-133.9747 Y-152.5000 Z-0.1250 I3.5253 J0.0000 F816.00
G2 X-141.0253 Y-152.5000 Z-0.9375 I-3.5253 J0.0000 F816.00
G2 X-133.9747 Y-152.5000 Z-1.7500 I3.5253 J0.0000 F816.00
G2 X-141.0253 Y-152.5000 Z-1.7500 I-3.5253 J0.0000 F816.00
G2 X-133.9747 Y-152.5000 Z-1.7500 I3.5253 J0.0000 F816.00
G0 Z7.5000
G0 X-131.7173 Y-152.5000
G0 Z7.5000
G1 Z1.5000 F816.00
G2 X-143.2827 Y-152.5000 Z0.6875 I-5.7827 J0.0000 F816.00
G2 X-131.7173 Y-152.5000 Z-0.1250 I5.7827 J0.0000 F816.00
G2 X-143.2827 Y-152.5000 Z-0.9375 I-5.7827 J0.0000 F816.00
G2 X-131.7173 Y-152.5000 Z-1.7500 I5.7827 J0.0000 F816.00
G2 X-143.2827 Y-152.5000 Z-1.7500 I-5.7827 J0.0000 F816.00
G2 X-131.7173 Y-152.5000 Z-1.7500 I5.7827 J0.0000 F816.00
G0 Z7.5000
G0 X-129.4600 Y-152.5000
G0 Z7.5000
G1 Z1.5000 F816.00
G2 X-145.5400 Y-152.5000 Z0.6875 I-8.0400 J0.0000 F816.00
G2 X-129.4600 Y-152.5000 Z-0.1250 I8.0400 J0.0000 F816.00
G2 X-145.5400 Y-152.5000 Z-0.9375 I-8.0400 J0.0000 F816.00
G2 X-129.4600 Y-152.5000 Z-1.7500 I8.0400 J0.0000 F816.00
G2 X-145.5400 Y-152.5000 Z-1.7500 I-8.0400 J0.0000 F816.00
G2 X-129.4600 Y-152.5000 Z-1.7500 I8.0400 J0.0000 F816.00
G0 Z7.5000
G0 X-161.2320 Y-152.5000
G0 Z7.5000
G1 Z1.5000 F816.00
G2 X-163.7680 Y-152.5000 Z0.6875 I-1.2680 J0.0000 F816.00
G2 X-161.2320 Y-152.5000 Z-0.1250 I1.2680 J0.0000 F816.00
G2 X-163.7680 Y-152.5000 Z-0.9375 I-1.2680 J0.0000 F816.00
G2 X-161.2320 Y-152.5000 Z-1.7500 I1.2680 J0.0000 F816.00
G2 X-163.7680 Y-152.5000 Z-1.7500 I-1.2680 J0.0000 F816.00
G2 X-161.2320 Y-152.5000 Z-1.7500 I1.2680 J0.0000 F816.00
G0 Z7.5000
G0 X-158.9747 Y-152.5000
G0 Z7.5000
G1 Z1.5000 F816.00
G2 X-166.0253 Y-152.5000 Z0.6875 I-3.5253 J0.0000 F816.00
G2 X-158.9747 Y-152.5000 Z-0.1250 I3.5253 J0.0000 F816.00
G2 X-166.0253 Y-152.5000 Z-0.9375 I-3.5253 J0.0000 F816.00
G2 X-158.9747 Y-152.5000 Z-1.7500 I3.5253 J0.0000 F816.00
G2 X-166.0253 Y-152.5000 Z-1.7500 I-3.5253 J0.0000 F816.00
G2 X-158.9747 Y-152.5000 Z-1.7500 I3.5253 J0.0000 F816.00
G0 Z7.5000
G0 X-156.7173 Y-152.5000
G0 Z7.5000
G1 Z1.5000 F816.00
G2 X-168.2827 Y-152.5000 Z0.6875 I-5.7827 J0.0000 F816.00
G2 X-156.7173 Y-152.5000 Z-0.1250 I5.7827 J0.0000 F816.00
G2 X-168.2827 Y-152.5000 Z-0.9375 I-5.7827 J0.0000 F816.00
G2 X-156.7173 Y-152.5000 Z-1.7500 I5.7827 J0.0000 F816.00
G2 X-168.2827 Y-152.5000 Z-1.7500 I-5.7827 J0.0000 F816.00
G2 X-156.7173 Y-152.5000 Z-1.7500 I5.7827 J0.0000 F816.00
G0 Z7.5000
G0 X-154.4600 Y-152.5000
G0 Z7.5000
G1 Z1.5000 F816.00
G2 X-170.5400 Y-152.5000 Z0.6875 I-8.0400 J0.0000 F816.00
G2 X-154.4600 Y-152.5000 Z-0.1250 I8.0400 J0.0000 F816.00
G2 X-170.5400 Y-152.5000 Z-0.9375 I-8.0400 J0.0000 F816.00
G2 X-154.4600 Y-152.5000 Z-1.7500 I8.0400 J0.0000 F816.00
G2 X-170.5400 Y-152.5000 Z-1.7500 I-8.0400 J0.0000 F816.00
G2 X-154.4600 Y-152.5000 Z-1.7500 I8.0400 J0.0000 F816.00
G0 Z7.5000
G0 X-161.2320 Y-127.5000
G0 Z7.5000
G1 Z1.5000 F816.00
G2 X-163.7680 Y-127.5000 Z0.6875 I-1.2680 J0.0000 F816.00
G2 X-161.2320 Y-127.5000 Z-0.1250 I1.2680 J0.0000 F816.00
G2 X-163.7680 Y-127.5000 Z-0.9375 I-1.2680 J0.0000 F816.00
G2 X-161.2320 Y-127.5000 Z-1.7500 I1.2680 J0.0000 F816.00
G2 X-163.7680 Y-127.5000 Z-1.7500 I-1.2680 J0.0000 F816.00
G2 X-161.2320 Y-127.5000 Z-1.7500 I1.2680 J0.0000 F816.00
G0 Z7.5000
G0 X-158.9747 Y-127.5000
G0 Z7.5000
G1 Z1.5000 F816.00
G2 X-166.0253 Y-127.5000 Z0.6875 I-3.5253 J0.0000 F816.00
G2 X-158.9747 Y-127.5000 Z-0.1250 I3.5253 J0.0000 F816.00
G2 X-166.0253 Y-127.5000 Z-0.9375 I-3.5253 J0.0000 F816.00
G2 X-158.9747 Y-127.5000 Z-1.7500 I3.5253 J0.0000 F816.00
G2 X-166.0253 Y-127.5000 Z-1.7500 I-3.5253 J0.0000 F816.00
G2 X-158.9747 Y-127.5000 Z-1.7500 I3.5253 J0.0000 F816.00
G0 Z7.5000
G0 X-156.7173 Y-127.5000
G0 Z7.5000
G1 Z1.5000 F816.00
G2 X-168.2827 Y-127.5000 Z0.6875 I-5.7827 J0.0000 F816.00
G2 X-156.7173 Y-127.5000 Z-0.1250 I5.7827 J0.0000 F816.00
G2 X-168.2827 Y-127.5000 Z-0.9375 I-5.7827 J0.0000 F816.00
G2 X-156.7173 Y-127.5000 Z-1.7500 I5.7827 J0.0000 F816.00
G2 X-168.2827 Y-127.5000 Z-1.7500 I-5.7827 J0.0000 F816.00
G2 X-156.7173 Y-127.5000 Z-1.7500 I5.7827 J0.0000 F816.00
G0 Z7.5000
G0 X-154.4600 Y-127.5000
G0 Z7.5000
G1 Z1.5000 F816.00
G2 X-170.5400 Y-127.5000 Z0.6875 I-8.0400 J0.0000 F816.00
G2 X-154.4600 Y-127.5000 Z-0.1250 I8.0400 J0.0000 F816.00
G2 X-170.5400 Y-127.5000 Z-0.9375 I-8.0400 J0.0000 F816.00
G2 X-154.4600 Y-127.5000 Z-1.7500 I8.0400 J0.0000 F816.00
G2 X-170.5400 Y-127.5000 Z-1.7500 I-8.0400 J0.0000 F816.00
G2 X-154.4600 Y-127.5000 Z-1.7500 I8.0400 J0.0000 F816.00
G0 Z7.5000
G0 X-161.2320 Y-102.5000
G0 Z7.5000
G1 Z1.5000 F816.00
G2 X-163.7680 Y-102.5000 Z0.6875 I-1.2680 J0.0000 F816.00
G2 X-161.2320 Y-102.5000 Z-0.1250 I1.2680 J0.0000 F816.00
G2 X-163.7680 Y-102.5000 Z-0.9375 I-1.2680 J0.0000 F816.00
G2 X-161.2320 Y-102.5000 Z-1.7500 I1.2680 J0.0000 F816.00
G2 X-163.7680 Y-102.5000 Z-1.7500 I-1.2680 J0.0000 F816.00
G2 X-161.2320 Y-102.5000 Z-1.7500 I1.2680 J0.0000 F816.00
G0 Z7.5000
G0 X-158.9747 Y-102.5000
G0 Z7.5000
G1 Z1.5000 F816.00
G2 X-166.0253 Y-102.5000 Z0.6875 I-3.5253 J0.0000 F816.00
G2 X-158.9747 Y-102.5000 Z-0.1250 I3.5253 J0.0000 F816.00
G2 X-166.0253 Y-102.5000 Z-0.9375 I-3.5253 J0.0000 F816.00
G2 X-158.9747 Y-102.5000 Z-1.7500 I3.5253 J0.0000 F816.00
G2 X-166.0253 Y-102.5000 Z-1.7500 I-3.5253 J0.0000 F816.00
G2 X-158.9747 Y-102.5000 Z-1.7500 I3.5253 J0.0000 F816.00
G0 Z7.5000
G0 X-156.7173 Y-102.5000
G0 Z7.5000
G1 Z1.5000 F816.00
G2 X-168.2827 Y-102.5000 Z0.6875 I-5.7827 J0.0000 F816.00
G2 X-156.7173 Y-102.5000 Z-0.1250 I5.7827 J0.0000 F816.00
G2 X-168.2827 Y-102.5000 Z-0.9375 I-5.7827 J0.0000 F816.00
G2 X-156.7173 Y-102.5000 Z-1.7500 I5.7827 J0.0000 F816.00
G2 X-168.2827 Y-102.5000 Z-1.7500 I-5.7827 J0.0000 F816.00
G2 X-156.7173 Y-102.5000 Z-1.7500 I5.7827 J0.0000 F816.00
G0 Z7.5000
G0 X-154.4600 Y-102.5000
G0 Z7.5000
G1 Z1.5000 F816.00
G2 X-170.5400 Y-102.5000 Z0.6875 I-8.0400 J0.0000 F816.00
G2 X-154.4600 Y-102.5000 Z-0.1250 I8.0400 J0.0000 F816.00
G2 X-170.5400 Y-102.5000 Z-0.9375 I-8.0400 J0.0000 F816.00
G2 X-154.4600 Y-102.5000 Z-1.7500 I8.0400 J0.0000 F816.00
G2 X-170.5400 Y-102.5000 Z-1.7500 I-8.0400 J0.0000 F816.00
G2 X-154.4600 Y-102.5000 Z-1.7500 I8.0400 J0.0000 F816.00
G0 Z7.5000
G0 X-161.2320 Y-77.5000
G0 Z7.5000
G1 Z1.5000 F816.00
G2 X-163.7680 Y-77.5000 Z0.6875 I-1.2680 J0.0000 F816.00
G2 X-161.2320 Y-77.5000 Z-0.1250 I1.2680 J0.0000 F816.00
G2 X-163.7680 Y-77.5000 Z-0.9375 I-1.2680 J0.0000 F816.00
G2 X-161.2320 Y-77.5000 Z-1.7500 I1.2680 J0.0000 F816.00
G2 X-163.7680 Y-77.5000 Z-1.7500 I-1.2680 J0.0000 F816.00
G2 X-161.2320 Y-77.5000 Z-1.7500 I1.2680 J0.0000 F816.00
G0 Z7.5000
G0 X-158.9747 Y-77.5000
G0 Z7.5000
G1 Z1.5000 F816.00
G2 X-166.0253 Y-77.5000 Z0.6875 I-3.5253 J0.0000 F816.00
G2 X-158.9747 Y-77.5000 Z-0.1250 I3.5253 J0.0000 F816.00
G2 X-166.0253 Y-77.5000 Z-0.9375 I-3.5253 J0.0000 F816.00
G2 X-158.9747 Y-77.5000 Z-1.7500 I3.5253 J0.0000 F816.00
G2 X-166.0253 Y-77.5000 Z-1.7500 I-3.5253 J0.0000 F816.00
G2 X-158.9747 Y-77.5000 Z-1.7500 I3.5253 J0.0000 F816.00
G0 Z7.5000
G0 X-156.7173 Y-77.5000
G0 Z7.5000
G1 Z1.5000 F816.00
G2 X-168.2827 Y-77.5000 Z0.6875 I-5.7827 J0.0000 F816.00
G2 X-156.7173 Y-77.5000 Z-0.1250 I5.7827 J0.0000 F816.00
G2 X-168.2827 Y-77.5000 Z-0.9375 I-5.7827 J0.0000 F816.00
G2 X-156.7173 Y-77.5000 Z-1.7500 I5.7827 J0.0000 F816.00
G2 X-168.2827 Y-77.5000 Z-1.7500 I-5.7827 J0.0000 F816.00
G2 X-156.7173 Y-77.5000 Z-1.7500 I5.7827 J0.0000 F816.00
G0 Z7.5000
G0 X-154.4600 Y-77.5000
G0 Z7.5000
G1 Z1.5000 F816.00
G2 X-170.5400 Y-77.5000 Z0.6875 I-8.0400 J0.0000 F816.00
G2 X-154.4600 Y-77.5000 Z-0.1250 I8.0400 J0.0000 F816.00
G2 X-170.5400 Y-77.5000 Z-0.9375 I-8.0400 J0.0000 F816.00
G2 X-154.4600 Y-77.5000 Z-1.7500 I8.0400 J0.0000 F816.00
G2 X-170.5400 Y-77.5000 Z-1.7500 I-8.0400 J0.0000 F816.00
G2 X-154.4600 Y-77.5000 Z-1.7500 I8.0400 J0.0000 F816.00
G0 Z7.5000
G0 X-161.2320 Y-52.5000
G0 Z7.5000
G1 Z1.5000 F816.00
G2 X-163.7680 Y-52.5000 Z0.6875 I-1.2680 J0.0000 F816.00
G2 X-161.2320 Y-52.5000 Z-0.1250 I1.2680 J0.0000 F816.00
G2 X-163.7680 Y-52.5000 Z-0.9375 I-1.2680 J0.0000 F816.00
G2 X-161.2320 Y-52.5000 Z-1.7500 I1.2680 J0.0000 F816.00
G2 X-163.7680 Y-52.5000 Z-1.7500 I-1.2680 J0.0000 F816.00
G2 X-161.2320 Y-52.5000 Z-1.7500 I1.2680 J0.0000 F816.00
G0 Z7.5000
G0 X-158.9747 Y-52.5000
G0 Z7.5000
G1 Z1.5000 F816.00
G2 X-166.0253 Y-52.5000 Z0.6875 I-3.5253 J0.0000 F816.00
G2 X-158.9747 Y-52.5000 Z-0.1250 I3.5253 J0.0000 F816.00
G2 X-166.0253 Y-52.5000 Z-0.9375 I-3.5253 J0.0000 F816.00
G2 X-158.9747 Y-52.5000 Z-1.7500 I3.5253 J0.0000 F816.00
G2 X-166.0253 Y-52.5000 Z-1.7500 I-3.5253 J0.0000 F816.00
G2 X-158.9747 Y-52.5000 Z-1.7500 I3.5253 J0.0000 F816.00
G0 Z7.5000
G0 X-156.7173 Y-52.5000
G0 Z7.5000
G1 Z1.5000 F816.00
G2 X-168.2827 Y-52.5000 Z0.6875 I-5.7827 J0.0000 F816.00
G2 X-156.7173 Y-52.5000 Z-0.1250 I5.7827 J0.0000 F816.00
G2 X-168.2827 Y-52.5000 Z-0.9375 I-5.7827 J0.0000 F816.00
G2 X-156.7173 Y-52.5000 Z-1.7500 I5.7827 J0.0000 F816.00
G2 X-168.2827 Y-52.5000 Z-1.7500 I-5.7827 J0.0000 F816.00
G2 X-156.7173 Y-52.5000 Z-1.7500 I5.7827 J0.0000 F816.00
G0 Z7.5000
G0 X-154.4600 Y-52.5000
G0 Z7.5000
G1 Z1.5000 F816.00
G2 X-170.5400 Y-52.5000 Z0.6875 I-8.0400 J0.0000 F816.00
G2 X-154.4600 Y-52.5000 Z-0.1250 I8.0400 J0.0000 F816.00
G2 X-170.5400 Y-52.5000 Z-0.9375 I-8.0400 J0.0000 F816.00
G2 X-154.4600 Y-52.5000 Z-1.7500 I8.0400 J0.0000 F816.00
G2 X-170.5400 Y-52.5000 Z-1.7500 I-8.0400 J0.0000 F816.00
G2 X-154.4600 Y-52.5000 Z-1.7500 I8.0400 J0.0000 F816.00
G0 Z7.5000
G0 X-161.2320 Y-27.5000
G0 Z7.5000
G1 Z1.5000 F816.00
G2 X-163.7680 Y-27.5000 Z0.6875 I-1.2680 J0.0000 F816.00
G2 X-161.2320 Y-27.5000 Z-0.1250 I1.2680 J0.0000 F816.00
G2 X-163.7680 Y-27.5000 Z-0.9375 I-1.2680 J0.0000 F816.00
G2 X-161.2320 Y-27.5000 Z-1.7500 I1.2680 J0.0000 F816.00
G2 X-163.7680 Y-27.5000 Z-1.7500 I-1.2680 J0.0000 F816.00
G2 X-161.2320 Y-27.5000 Z-1.7500 I1.2680 J0.0000 F816.00
G0 Z7.5000
G0 X-158.9747 Y-27.5000
G0 Z7.5000
G1 Z1.5000 F816.00
G2 X-166.0253 Y-27.5000 Z0.6875 I-3.5253 J0.0000 F816.00
G2 X-158.9747 Y-27.5000 Z-0.1250 I3.5253 J0.0000 F816.00
G2 X-166.0253 Y-27.5000 Z-0.9375 I-3.5253 J0.0000 F816.00
G2 X-158.9747 Y-27.5000 Z-1.7500 I3.5253 J0.0000 F816.00
G2 X-166.0253 Y-27.5000 Z-1.7500 I-3.5253 J0.0000 F816.00
G2 X-158.9747 Y-27.5000 Z-1.7500 I3.5253 J0.0000 F816.00
G0 Z7.5000
G0 X-156.7173 Y-27.5000
G0 Z7.5000
G1 Z1.5000 F816.00
G2 X-168.2827 Y-27.5000 Z0.6875 I-5.7827 J0.0000 F816.00
G2 X-156.7173 Y-27.5000 Z-0.1250 I5.7827 J0.0000 F816.00
G2 X-168.2827 Y-27.5000 Z-0.9375 I-5.7827 J0.0000 F816.00
G2 X-156.7173 Y-27.5000 Z-1.7500 I5.7827 J0.0000 F816.00
G2 X-168.2827 Y-27.5000 Z-1.7500 I-5.7827 J0.0000 F816.00
G2 X-156.7173 Y-27.5000 Z-1.7500 I5.7827 J0.0000 F816.00
G0 Z7.5000
G0 X-154.4600 Y-27.5000
G0 Z7.5000
G1 Z1.5000 F816.00
G2 X-170.5400 Y-27.5000 Z0.6875 I-8.0400 J0.0000 F816.00
G2 X-154.4600 Y-27.5000 Z-0.1250 I8.0400 J0.0000 F816.00
G2 X-170.5400 Y-27.5000 Z-0.9375 I-8.0400 J0.0000 F816.00
G2 X-154.4600 Y-27.5000 Z-1.7500 I8.0400 J0.0000 F816.00
G2 X-170.5400 Y-27.5000 Z-1.7500 I-8.0400 J0.0000 F816.00
G2 X-154.4600 Y-27.5000 Z-1.7500 I8.0400 J0.0000 F816.00
G0 Z7.5000
G0 X-186.2320 Y-27.5000
G0 Z7.5000
G1 Z1.5000 F816.00
G2 X-188.7680 Y-27.5000 Z0.6875 I-1.2680 J0.0000 F816.00
G2 X-186.2320 Y-27.5000 Z-0.1250 I1.2680 J0.0000 F816.00
G2 X-188.7680 Y-27.5000 Z-0.9375 I-1.2680 J0.0000 F816.00
G2 X-186.2320 Y-27.5000 Z-1.7500 I1.2680 J0.0000 F816.00
G2 X-188.7680 Y-27.5000 Z-1.7500 I-1.2680 J0.0000 F816.00
G2 X-186.2320 Y-27.5000 Z-1.7500 I1.2680 J0.0000 F816.00
G0 Z7.5000
G0 X-183.9747 Y-27.5000
G0 Z7.5000
G1 Z1.5000 F816.00
G2 X-191.0253 Y-27.5000 Z0.6875 I-3.5253 J0.0000 F816.00
G2 X-183.9747 Y-27.5000 Z-0.1250 I3.5253 J0.0000 F816.00
G2 X-191.0253 Y-27.5000 Z-0.9375 I-3.5253 J0.0000 F816.00
G2 X-183.9747 Y-27.5000 Z-1.7500 I3.5253 J0.0000 F816.00
G2 X-191.0253 Y-27.5000 Z-1.7500 I-3.5253 J0.0000 F816.00
G2 X-183.9747 Y-27.5000 Z-1.7500 I3.5253 J0.0000 F816.00
G0 Z7.5000
G0 X-181.7173 Y-27.5000
G0 Z7.5000
G1 Z1.5000 F816.00
G2 X-193.2827 Y-27.5000 Z0.6875 I-5.7827 J0.0000 F816.00
G2 X-181.7173 Y-27.5000 Z-0.1250 I5.7827 J0.0000 F816.00
G2 X-193.2827 Y-27.5000 Z-0.9375 I-5.7827 J0.0000 F816.00
G2 X-181.7173 Y-27.5000 Z-1.7500 I5.7827 J0.0000 F816.00
G2 X-193.2827 Y-27.5000 Z-1.7500 I-5.7827 J0.0000 F816.00
G2 X-181.7173 Y-27.5000 Z-1.7500 I5.7827 J0.0000 F816.00
G0 Z7.5000
G0 X-179.4600 Y-27.5000
G0 Z7.5000
G1 Z1.5000 F816.00
G2 X-195.5400 Y-27.5000 Z0.6875 I-8.0400 J0.0000 F816.00
G2 X-179.4600 Y-27.5000 Z-0.1250 I8.0400 J0.0000 F816.00
G2 X-195.5400 Y-27.5000 Z-0.9375 I-8.0400 J0.0000 F816.00
G2 X-179.4600 Y-27.5000 Z-1.7500 I8.0400 J0.0000 F816.00
G2 X-195.5400 Y-27.5000 Z-1.7500 I-8.0400 J0.0000 F816.00
G2 X-179.4600 Y-27.5000 Z-1.7500 I8.0400 J0.0000 F816.00
G0 Z7.5000
G0 X-186.2320 Y-52.5000
G0 Z7.5000
G1 Z1.5000 F816.00
G2 X-188.7680 Y-52.5000 Z0.6875 I-1.2680 J0.0000 F816.00
G2 X-186.2320 Y-52.5000 Z-0.1250 I1.2680 J0.0000 F816.00
G2 X-188.7680 Y-52.5000 Z-0.9375 I-1.2680 J0.0000 F816.00
G2 X-186.2320 Y-52.5000 Z-1.7500 I1.2680 J0.0000 F816.00
G2 X-188.7680 Y-52.5000 Z-1.7500 I-1.2680 J0.0000 F816.00
G2 X-186.2320 Y-52.5000 Z-1.7500 I1.2680 J0.0000 F816.00
G0 Z7.5000
G0 X-183.9747 Y-52.5000
G0 Z7.5000
G1 Z1.5000 F816.00
G2 X-191.0253 Y-52.5000 Z0.6875 I-3.5253 J0.0000 F816.00
G2 X-183.9747 Y-52.5000 Z-0.1250 I3.5253 J0.0000 F816.00
G2 X-191.0253 Y-52.5000 Z-0.9375 I-3.5253 J0.0000 F816.00
G2 X-183.9747 Y-52.5000 Z-1.7500 I3.5253 J0.0000 F816.00
G2 X-191.0253 Y-52.5000 Z-1.7500 I-3.5253 J0.0000 F816.00
G2 X-183.9747 Y-52.5000 Z-1.7500 I3.5253 J0.0000 F816.00
G0 Z7.5000
G0 X-181.7173 Y-52.5000
G0 Z7.5000
G1 Z1.5000 F816.00
G2 X-193.2827 Y-52.5000 Z0.6875 I-5.7827 J0.0000 F816.00
G2 X-181.7173 Y-52.5000 Z-0.1250 I5.7827 J0.0000 F816.00
G2 X-193.2827 Y-52.5000 Z-0.9375 I-5.7827 J0.0000 F816.00
G2 X-181.7173 Y-52.5000 Z-1.7500 I5.7827 J0.0000 F816.00
G2 X-193.2827 Y-52.5000 Z-1.7500 I-5.7827 J0.0000 F816.00
G2 X-181.7173 Y-52.5000 Z-1.7500 I5.7827 J0.0000 F816.00
G0 Z7.5000
G0 X-179.4600 Y-52.5000
G0 Z7.5000
G1 Z1.5000 F816.00
G2 X-195.5400 Y-52.5000 Z0.6875 I-8.0400 J0.0000 F816.00
G2 X-179.4600 Y-52.5000 Z-0.1250 I8.0400 J0.0000 F816.00
G2 X-195.5400 Y-52.5000 Z-0.9375 I-8.0400 J0.0000 F816.00
G2 X-179.4600 Y-52.5000 Z-1.7500 I8.0400 J0.0000 F816.00
G2 X-195.5400 Y-52.5000 Z-1.7500 I-8.0400 J0.0000 F816.00
G2 X-179.4600 Y-52.5000 Z-1.7500 I8.0400 J0.0000 F816.00
G0 Z7.5000
G0 X-186.2320 Y-77.5000
G0 Z7.5000
G1 Z1.5000 F816.00
G2 X-188.7680 Y-77.5000 Z0.6875 I-1.2680 J0.0000 F816.00
G2 X-186.2320 Y-77.5000 Z-0.1250 I1.2680 J0.0000 F816.00
G2 X-188.7680 Y-77.5000 Z-0.9375 I-1.2680 J0.0000 F816.00
G2 X-186.2320 Y-77.5000 Z-1.7500 I1.2680 J0.0000 F816.00
G2 X-188.7680 Y-77.5000 Z-1.7500 I-1.2680 J0.0000 F816.00
G2 X-186.2320 Y-77.5000 Z-1.7500 I1.2680 J0.0000 F816.00
G0 Z7.5000
G0 X-183.9747 Y-77.5000
G0 Z7.5000
G1 Z1.5000 F816.00
G2 X-191.0253 Y-77.5000 Z0.6875 I-3.5253 J0.0000 F816.00
G2 X-183.9747 Y-77.5000 Z-0.1250 I3.5253 J0.0000 F816.00
G2 X-191.0253 Y-77.5000 Z-0.9375 I-3.5253 J0.0000 F816.00
G2 X-183.9747 Y-77.5000 Z-1.7500 I3.5253 J0.0000 F816.00
G2 X-191.0253 Y-77.5000 Z-1.7500 I-3.5253 J0.0000 F816.00
G2 X-183.9747 Y-77.5000 Z-1.7500 I3.5253 J0.0000 F816.00
G0 Z7.5000
G0 X-181.7173 Y-77.5000
G0 Z7.5000
G1 Z1.5000 F816.00
G2 X-193.2827 Y-77.5000 Z0.6875 I-5.7827 J0.0000 F816.00
G2 X-181.7173 Y-77.5000 Z-0.1250 I5.7827 J0.0000 F816.00
G2 X-193.2827 Y-77.5000 Z-0.9375 I-5.7827 J0.0000 F816.00
G2 X-181.7173 Y-77.5000 Z-1.7500 I5.7827 J0.0000 F816.00
G2 X-193.2827 Y-77.5000 Z-1.7500 I-5.7827 J0.0000 F816.00
G2 X-181.7173 Y-77.5000 Z-1.7500 I5.7827 J0.0000 F816.00
G0 Z7.5000
G0 X-179.4600 Y-77.5000
G0 Z7.5000
G1 Z1.5000 F816.00
G2 X-195.5400 Y-77.5000 Z0.6875 I-8.0400 J0.0000 F816.00
G2 X-179.4600 Y-77.5000 Z-0.1250 I8.0400 J0.0000 F816.00
G2 X-195.5400 Y-77.5000 Z-0.9375 I-8.0400 J0.0000 F816.00
G2 X-179.4600 Y-77.5000 Z-1.7500 I8.0400 J0.0000 F816.00
G2 X-195.5400 Y-77.5000 Z-1.7500 I-8.0400 J0.0000 F816.00
G2 X-179.4600 Y-77.5000 Z-1.7500 I8.0400 J0.0000 F816.00
G0 Z7.5000
G0 X-186.2320 Y-102.5000
G0 Z7.5000
G1 Z1.5000 F816.00
G2 X-188.7680 Y-102.5000 Z0.6875 I-1.2680 J0.0000 F816.00
G2 X-186.2320 Y-102.5000 Z-0.1250 I1.2680 J0.0000 F816.00
G2 X-188.7680 Y-102.5000 Z-0.9375 I-1.2680 J0.0000 F816.00
G2 X-186.2320 Y-102.5000 Z-1.7500 I1.2680 J0.0000 F816.00
G2 X-188.7680 Y-102.5000 Z-1.7500 I-1.2680 J0.0000 F816.00
G2 X-186.2320 Y-102.5000 Z-1.7500 I1.2680 J0.0000 F816.00
G0 Z7.5000
G0 X-183.9747 Y-102.5000
G0 Z7.5000
G1 Z1.5000 F816.00
G2 X-191.0253 Y-102.5000 Z0.6875 I-3.5253 J0.0000 F816.00
G2 X-183.9747 Y-102.5000 Z-0.1250 I3.5253 J0.0000 F816.00
G2 X-191.0253 Y-102.5000 Z-0.9375 I-3.5253 J0.0000 F816.00
G2 X-183.9747 Y-102.5000 Z-1.7500 I3.5253 J0.0000 F816.00
G2 X-191.0253 Y-102.5000 Z-1.7500 I-3.5253 J0.0000 F816.00
G2 X-183.9747 Y-102.5000 Z-1.7500 I3.5253 J0.0000 F816.00
G0 Z7.5000
G0 X-181.7173 Y-102.5000
G0 Z7.5000
G1 Z1.5000 F816.00
G2 X-193.2827 Y-102.5000 Z0.6875 I-5.7827 J0.0000 F816.00
G2 X-181.7173 Y-102.5000 Z-0.1250 I5.7827 J0.0000 F816.00
G2 X-193.2827 Y-102.5000 Z-0.9375 I-5.7827 J0.0000 F816.00
G2 X-181.7173 Y-102.5000 Z-1.7500 I5.7827 J0.0000 F816.00
G2 X-193.2827 Y-102.5000 Z-1.7500 I-5.7827 J0.0000 F816.00
G2 X-181.7173 Y-102.5000 Z-1.7500 I5.7827 J0.0000 F816.00
G0 Z7.5000
G0 X-179.4600 Y-102.5000
G0 Z7.5000
G1 Z1.5000 F816.00
G2 X-195.5400 Y-102.5000 Z0.6875 I-8.0400 J0.0000 F816.00
G2 X-179.4600 Y-102.5000 Z-0.1250 I8.0400 J0.0000 F816.00
G2 X-195.5400 Y-102.5000 Z-0.9375 I-8.0400 J0.0000 F816.00
G2 X-179.4600 Y-102.5000 Z-1.7500 I8.0400 J0.0000 F816.00
G2 X-195.5400 Y-102.5000 Z-1.7500 I-8.0400 J0.0000 F816.00
G2 X-179.4600 Y-102.5000 Z-1.7500 I8.0400 J0.0000 F816.00
G0 Z7.5000
G0 X-186.2320 Y-127.5000
G0 Z7.5000
G1 Z1.5000 F816.00
G2 X-188.7680 Y-127.5000 Z0.6875 I-1.2680 J0.0000 F816.00
G2 X-186.2320 Y-127.5000 Z-0.1250 I1.2680 J0.0000 F816.00
G2 X-188.7680 Y-127.5000 Z-0.9375 I-1.2680 J0.0000 F816.00
G2 X-186.2320 Y-127.5000 Z-1.7500 I1.2680 J0.0000 F816.00
G2 X-188.7680 Y-127.5000 Z-1.7500 I-1.2680 J0.0000 F816.00
G2 X-186.2320 Y-127.5000 Z-1.7500 I1.2680 J0.0000 F816.00
G0 Z7.5000
G0 X-183.9747 Y-127.5000
G0 Z7.5000
G1 Z1.5000 F816.00
G2 X-191.0253 Y-127.5000 Z0.6875 I-3.5253 J0.0000 F816.00
G2 X-183.9747 Y-127.5000 Z-0.1250 I3.5253 J0.0000 F816.00
G2 X-191.0253 Y-127.5000 Z-0.9375 I-3.5253 J0.0000 F816.00
G2 X-183.9747 Y-127.5000 Z-1.7500 I3.5253 J0.0000 F816.00
G2 X-191.0253 Y-127.5000 Z-1.7500 I-3.5253 J0.0000 F816.00
G2 X-183.9747 Y-127.5000 Z-1.7500 I3.5253 J0.0000 F816.00
G0 Z7.5000
G0 X-181.7173 Y-127.5000
G0 Z7.5000
G1 Z1.5000 F816.00
G2 X-193.2827 Y-127.5000 Z0.6875 I-5.7827 J0.0000 F816.00
G2 X-181.7173 Y-127.5000 Z-0.1250 I5.7827 J0.0000 F816.00
G2 X-193.2827 Y-127.5000 Z-0.9375 I-5.7827 J0.0000 F816.00
G2 X-181.7173 Y-127.5000 Z-1.7500 I5.7827 J0.0000 F816.00
G2 X-193.2827 Y-127.5000 Z-1.7500 I-5.7827 J0.0000 F816.00
G2 X-181.7173 Y-127.5000 Z-1.7500 I5.7827 J0.0000 F816.00
G0 Z7.5000
G0 X-179.4600 Y-127.5000
G0 Z7.5000
G1 Z1.5000 F816.00
G2 X-195.5400 Y-127.5000 Z0.6875 I-8.0400 J0.0000 F816.00
G2 X-179.4600 Y-127.5000 Z-0.1250 I8.0400 J0.0000 F816.00
G2 X-195.5400 Y-127.5000 Z-0.9375 I-8.0400 J0.0000 F816.00
G2 X-179.4600 Y-127.5000 Z-1.7500 I8.0400 J0.0000 F816.00
G2 X-195.5400 Y-127.5000 Z-1.7500 I-8.0400 J0.0000 F816.00
G2 X-179.4600 Y-127.5000 Z-1.7500 I8.0400 J0.0000 F816.00
G0 Z7.5000
G0 X-186.2320 Y-152.5000
G0 Z7.5000
G1 Z1.5000 F816.00
G2 X-188.7680 Y-152.5000 Z0.6875 I-1.2680 J0.0000 F816.00
G2 X-186.2320 Y-152.5000 Z-0.1250 I1.2680 J0.0000 F816.00
G2 X-188.7680 Y-152.5000 Z-0.9375 I-1.2680 J0.0000 F816.00
G2 X-186.2320 Y-152.5000 Z-1.7500 I1.2680 J0.0000 F816.00
G2 X-188.7680 Y-152.5000 Z-1.7500 I-1.2680 J0.0000 F816.00
G2 X-186.2320 Y-152.5000 Z-1.7500 I1.2680 J0.0000 F816.00
G0 Z7.5000
G0 X-183.9747 Y-152.5000
G0 Z7.5000
G1 Z1.5000 F816.00
G2 X-191.0253 Y-152.5000 Z0.6875 I-3.5253 J0.0000 F816.00
G2 X-183.9747 Y-152.5000 Z-0.1250 I3.5253 J0.0000 F816.00
G2 X-191.0253 Y-152.5000 Z-0.9375 I-3.5253 J0.0000 F816.00
G2 X-183.9747 Y-152.5000 Z-1.7500 I3.5253 J0.0000 F816.00
G2 X-191.0253 Y-152.5000 Z-1.7500 I-3.5253 J0.0000 F816.00
G2 X-183.9747 Y-152.5000 Z-1.7500 I3.5253 J0.0000 F816.00
G0 Z7.5000
G0 X-181.7173 Y-152.5000
G0 Z7.5000
G1 Z1.5000 F816.00
G2 X-193.2827 Y-152.5000 Z0.6875 I-5.7827 J0.0000 F816.00
G2 X-181.7173 Y-152.5000 Z-0.1250 I5.7827 J0.0000 F816.00
G2 X-193.2827 Y-152.5000 Z-0.9375 I-5.7827 J0.0000 F816.00
G2 X-181.7173 Y-152.5000 Z-1.7500 I5.7827 J0.0000 F816.00
G2 X-193.2827 Y-152.5000 Z-1.7500 I-5.7827 J0.0000 F816.00
G2 X-181.7173 Y-152.5000 Z-1.7500 I5.7827 J0.0000 F816.00
G0 Z7.5000
G0 X-179.4600 Y-152.5000
G0 Z7.5000
G1 Z1.5000 F816.00
G2 X-195.5400 Y-152.5000 Z0.6875 I-8.0400 J0.0000 F816.00
G2 X-179.4600 Y-152.5000 Z-0.1250 I8.0400 J0.0000 F816.00
G2 X-195.5400 Y-152.5000 Z-0.9375 I-8.0400 J0.0000 F816.00
G2 X-179.4600 Y-152.5000 Z-1.7500 I8.0400 J0.0000 F816.00
G2 X-195.5400 Y-152.5000 Z-1.7500 I-8.0400 J0.0000 F816.00
G2 X-179.4600 Y-152.5000 Z-1.7500 I8.0400 J0.0000 F816.00
G0 Z7.5000
G0 X-211.2320 Y-152.5000
G0 Z7.5000
G1 Z1.5000 F816.00
G2 X-213.7680 Y-152.5000 Z0.6875 I-1.2680 J0.0000 F816.00
G2 X-211.2320 Y-152.5000 Z-0.1250 I1.2680 J0.0000 F816.00
G2 X-213.7680 Y-152.5000 Z-0.9375 I-1.2680 J0.0000 F816.00
G2 X-211.2320 Y-152.5000 Z-1.7500 I1.2680 J0.0000 F816.00
G2 X-213.7680 Y-152.5000 Z-1.7500 I-1.2680 J0.0000 F816.00
G2 X-211.2320 Y-152.5000 Z-1.7500 I1.2680 J0.0000 F816.00
G0 Z7.5000
G0 X-208.9747 Y-152.5000
G0 Z7.5000
G1 Z1.5000 F816.00
G2 X-216.0253 Y-152.5000 Z0.6875 I-3.5253 J0.0000 F816.00
G2 X-208.9747 Y-152.5000 Z-0.1250 I3.5253 J0.0000 F816.00
G2 X-216.0253 Y-152.5000 Z-0.9375 I-3.5253 J0.0000 F816.00
G2 X-208.9747 Y-152.5000 Z-1.7500 I3.5253 J0.0000 F816.00
G2 X-216.0253 Y-152.5000 Z-1.7500 I-3.5253 J0.0000 F816.00
G2 X-208.9747 Y-152.5000 Z-1.7500 I3.5253 J0.0000 F816.00
G0 Z7.5000
G0 X-206.7173 Y-152.5000
G0 Z7.5000
G1 Z1.5000 F816.00
G2 X-218.2827 Y-152.5000 Z0.6875 I-5.7827 J0.0000 F816.00
G2 X-206.7173 Y-152.5000 Z-0.1250 I5.7827 J0.0000 F816.00
G2 X-218.2827 Y-152.5000 Z-0.9375 I-5.7827 J0.0000 F816.00
G2 X-206.7173 Y-152.5000 Z-1.7500 I5.7827 J0.0000 F816.00
G2 X-218.2827 Y-152.5000 Z-1.7500 I-5.7827 J0.0000 F816.00
G2 X-206.7173 Y-152.5000 Z-1.7500 I5.7827 J0.0000 F816.00
G0 Z7.5000
G0 X-204.4600 Y-152.5000
G0 Z7.5000
G1 Z1.5000 F816.00
G2 X-220.5400 Y-152.5000 Z0.6875 I-8.0400 J0.0000 F816.00
G2 X-204.4600 Y-152.5000 Z-0.1250 I8.0400 J0.0000 F816.00
G2 X-220.5400 Y-152.5000 Z-0.9375 I-8.0400 J0.0000 F816.00
G2 X-204.4600 Y-152.5000 Z-1.7500 I8.0400 J0.0000 F816.00
G2 X-220.5400 Y-152.5000 Z-1.7500 I-8.0400 J0.0000 F816.00
G2 X-204.4600 Y-152.5000 Z-1.7500 I8.0400 J0.0000 F816.00
G0 Z7.5000
G0 X-211.2320 Y-127.5000
G0 Z7.5000
G1 Z1.5000 F816.00
G2 X-213.7680 Y-127.5000 Z0.6875 I-1.2680 J0.0000 F816.00
G2 X-211.2320 Y-127.5000 Z-0.1250 I1.2680 J0.0000 F816.00
G2 X-213.7680 Y-127.5000 Z-0.9375 I-1.2680 J0.0000 F816.00
G2 X-211.2320 Y-127.5000 Z-1.7500 I1.2680 J0.0000 F816.00
G2 X-213.7680 Y-127.5000 Z-1.7500 I-1.2680 J0.0000 F816.00
G2 X-211.2320 Y-127.5000 Z-1.7500 I1.2680 J0.0000 F816.00
G0 Z7.5000
G0 X-208.9747 Y-127.5000
G0 Z7.5000
G1 Z1.5000 F816.00
G2 X-216.0253 Y-127.5000 Z0.6875 I-3.5253 J0.0000 F816.00
G2 X-208.9747 Y-127.5000 Z-0.1250 I3.5253 J0.0000 F816.00
G2 X-216.0253 Y-127.5000 Z-0.9375 I-3.5253 J0.0000 F816.00
G2 X-208.9747 Y-127.5000 Z-1.7500 I3.5253 J0.0000 F816.00
G2 X-216.0253 Y-127.5000 Z-1.7500 I-3.5253 J0.0000 F816.00
G2 X-208.9747 Y-127.5000 Z-1.7500 I3.5253 J0.0000 F816.00
G0 Z7.5000
G0 X-206.7173 Y-127.5000
G0 Z7.5000
G1 Z1.5000 F816.00
G2 X-218.2827 Y-127.5000 Z0.6875 I-5.7827 J0.0000 F816.00
G2 X-206.7173 Y-127.5000 Z-0.1250 I5.7827 J0.0000 F816.00
G2 X-218.2827 Y-127.5000 Z-0.9375 I-5.7827 J0.0000 F816.00
G2 X-206.7173 Y-127.5000 Z-1.7500 I5.7827 J0.0000 F816.00
G2 X-218.2827 Y-127.5000 Z-1.7500 I-5.7827 J0.0000 F816.00
G2 X-206.7173 Y-127.5000 Z-1.7500 I5.7827 J0.0000 F816.00
G0 Z7.5000
G0 X-204.4600 Y-127.5000
G0 Z7.5000
G1 Z1.5000 F816.00
G2 X-220.5400 Y-127.5000 Z0.6875 I-8.0400 J0.0000 F816.00
G2 X-204.4600 Y-127.5000 Z-0.1250 I8.0400 J0.0000 F816.00
G2 X-220.5400 Y-127.5000 Z-0.9375 I-8.0400 J0.0000 F816.00
G2 X-204.4600 Y-127.5000 Z-1.7500 I8.0400 J0.0000 F816.00
G2 X-220.5400 Y-127.5000 Z-1.7500 I-8.0400 J0.0000 F816.00
G2 X-204.4600 Y-127.5000 Z-1.7500 I8.0400 J0.0000 F816.00
G0 Z7.5000
G0 X-211.2320 Y-102.5000
G0 Z7.5000
G1 Z1.5000 F816.00
G2 X-213.7680 Y-102.5000 Z0.6875 I-1.2680 J0.0000 F816.00
G2 X-211.2320 Y-102.5000 Z-0.1250 I1.2680 J0.0000 F816.00
G2 X-213.7680 Y-102.5000 Z-0.9375 I-1.2680 J0.0000 F816.00
G2 X-211.2320 Y-102.5000 Z-1.7500 I1.2680 J0.0000 F816.00
G2 X-213.7680 Y-102.5000 Z-1.7500 I-1.2680 J0.0000 F816.00
G2 X-211.2320 Y-102.5000 Z-1.7500 I1.2680 J0.0000 F816.00
G0 Z7.5000
G0 X-208.9747 Y-102.5000
G0 Z7.5000
G1 Z1.5000 F816.00
G2 X-216.0253 Y-102.5000 Z0.6875 I-3.5253 J0.0000 F816.00
G2 X-208.9747 Y-102.5000 Z-0.1250 I3.5253 J0.0000 F816.00
G2 X-216.0253 Y-102.5000 Z-0.9375 I-3.5253 J0.0000 F816.00
G2 X-208.9747 Y-102.5000 Z-1.7500 I3.5253 J0.0000 F816.00
G2 X-216.0253 Y-102.5000 Z-1.7500 I-3.5253 J0.0000 F816.00
G2 X-208.9747 Y-102.5000 Z-1.7500 I3.5253 J0.0000 F816.00
G0 Z7.5000
G0 X-206.7173 Y-102.5000
G0 Z7.5000
G1 Z1.5000 F816.00
G2 X-218.2827 Y-102.5000 Z0.6875 I-5.7827 J0.0000 F816.00
G2 X-206.7173 Y-102.5000 Z-0.1250 I5.7827 J0.0000 F816.00
G2 X-218.2827 Y-102.5000 Z-0.9375 I-5.7827 J0.0000 F816.00
G2 X-206.7173 Y-102.5000 Z-1.7500 I5.7827 J0.0000 F816.00
G2 X-218.2827 Y-102.5000 Z-1.7500 I-5.7827 J0.0000 F816.00
G2 X-206.7173 Y-102.5000 Z-1.7500 I5.7827 J0.0000 F816.00
G0 Z7.5000
G0 X-204.4600 Y-102.5000
G0 Z7.5000
G1 Z1.5000 F816.00
G2 X-220.5400 Y-102.5000 Z0.6875 I-8.0400 J0.0000 F816.00
G2 X-204.4600 Y-102.5000 Z-0.1250 I8.0400 J0.0000 F816.00
G2 X-220.5400 Y-102.5000 Z-0.9375 I-8.0400 J0.0000 F816.00
G2 X-204.4600 Y-102.5000 Z-1.7500 I8.0400 J0.0000 F816.00
G2 X-220.5400 Y-102.5000 Z-1.7500 I-8.0400 J0.0000 F816.00
G2 X-204.4600 Y-102.5000 Z-1.7500 I8.0400 J0.0000 F816.00
G0 Z7.5000
G0 X-211.2320 Y-77.5000
G0 Z7.5000
G1 Z1.5000 F816.00
G2 X-213.7680 Y-77.5000 Z0.6875 I-1.2680 J0.0000 F816.00
G2 X-211.2320 Y-77.5000 Z-0.1250 I1.2680 J0.0000 F816.00
G2 X-213.7680 Y-77.5000 Z-0.9375 I-1.2680 J0.0000 F816.00
G2 X-211.2320 Y-77.5000 Z-1.7500 I1.2680 J0.0000 F816.00
G2 X-213.7680 Y-77.5000 Z-1.7500 I-1.2680 J0.0000 F816.00
G2 X-211.2320 Y-77.5000 Z-1.7500 I1.2680 J0.0000 F816.00
G0 Z7.5000
G0 X-208.9747 Y-77.5000
G0 Z7.5000
G1 Z1.5000 F816.00
G2 X-216.0253 Y-77.5000 Z0.6875 I-3.5253 J0.0000 F816.00
G2 X-208.9747 Y-77.5000 Z-0.1250 I3.5253 J0.0000 F816.00
G2 X-216.0253 Y-77.5000 Z-0.9375 I-3.5253 J0.0000 F816.00
G2 X-208.9747 Y-77.5000 Z-1.7500 I3.5253 J0.0000 F816.00
G2 X-216.0253 Y-77.5000 Z-1.7500 I-3.5253 J0.0000 F816.00
G2 X-208.9747 Y-77.5000 Z-1.7500 I3.5253 J0.0000 F816.00
G0 Z7.5000
G0 X-206.7173 Y-77.5000
G0 Z7.5000
G1 Z1.5000 F816.00
G2 X-218.2827 Y-77.5000 Z0.6875 I-5.7827 J0.0000 F816.00
G2 X-206.7173 Y-77.5000 Z-0.1250 I5.7827 J0.0000 F816.00
G2 X-218.2827 Y-77.5000 Z-0.9375 I-5.7827 J0.0000 F816.00
G2 X-206.7173 Y-77.5000 Z-1.7500 I5.7827 J0.0000 F816.00
G2 X-218.2827 Y-77.5000 Z-1.7500 I-5.7827 J0.0000 F816.00
G2 X-206.7173 Y-77.5000 Z-1.7500 I5.7827 J0.0000 F816.00
G0 Z7.5000
G0 X-204.4600 Y-77.5000
G0 Z7.5000
G1 Z1.5000 F816.00
G2 X-220.5400 Y-77.5000 Z0.6875 I-8.0400 J0.0000 F816.00
G2 X-204.4600 Y-77.5000 Z-0.1250 I8.0400 J0.0000 F816.00
G2 X-220.5400 Y-77.5000 Z-0.9375 I-8.0400 J0.0000 F816.00
G2 X-204.4600 Y-77.5000 Z-1.7500 I8.0400 J0.0000 F816.00
G2 X-220.5400 Y-77.5000 Z-1.7500 I-8.0400 J0.0000 F816.00
G2 X-204.4600 Y-77.5000 Z-1.7500 I8.0400 J0.0000 F816.00
G0 Z7.5000
G0 X-211.2320 Y-52.5000
G0 Z7.5000
G1 Z1.5000 F816.00
G2 X-213.7680 Y-52.5000 Z0.6875 I-1.2680 J0.0000 F816.00
G2 X-211.2320 Y-52.5000 Z-0.1250 I1.2680 J0.0000 F816.00
G2 X-213.7680 Y-52.5000 Z-0.9375 I-1.2680 J0.0000 F816.00
G2 X-211.2320 Y-52.5000 Z-1.7500 I1.2680 J0.0000 F816.00
G2 X-213.7680 Y-52.5000 Z-1.7500 I-1.2680 J0.0000 F816.00
G2 X-211.2320 Y-52.5000 Z-1.7500 I1.2680 J0.0000 F816.00
G0 Z7.5000
G0 X-208.9747 Y-52.5000
G0 Z7.5000
G1 Z1.5000 F816.00
G2 X-216.0253 Y-52.5000 Z0.6875 I-3.5253 J0.0000 F816.00
G2 X-208.9747 Y-52.5000 Z-0.1250 I3.5253 J0.0000 F816.00
G2 X-216.0253 Y-52.5000 Z-0.9375 I-3.5253 J0.0000 F816.00
G2 X-208.9747 Y-52.5000 Z-1.7500 I3.5253 J0.0000 F816.00
G2 X-216.0253 Y-52.5000 Z-1.7500 I-3.5253 J0.0000 F816.00
G2 X-208.9747 Y-52.5000 Z-1.7500 I3.5253 J0.0000 F816.00
G0 Z7.5000
G0 X-206.7173 Y-52.5000
G0 Z7.5000
G1 Z1.5000 F816.00
G2 X-218.2827 Y-52.5000 Z0.6875 I-5.7827 J0.0000 F816.00
G2 X-206.7173 Y-52.5000 Z-0.1250 I5.7827 J0.0000 F816.00
G2 X-218.2827 Y-52.5000 Z-0.9375 I-5.7827 J0.0000 F816.00
G2 X-206.7173 Y-52.5000 Z-1.7500 I5.7827 J0.0000 F816.00
G2 X-218.2827 Y-52.5000 Z-1.7500 I-5.7827 J0.0000 F816.00
G2 X-206.7173 Y-52.5000 Z-1.7500 I5.7827 J0.0000 F816.00
G0 Z7.5000
G0 X-204.4600 Y-52.5000
G0 Z7.5000
G1 Z1.5000 F816.00
G2 X-220.5400 Y-52.5000 Z0.6875 I-8.0400 J0.0000 F816.00
G2 X-204.4600 Y-52.5000 Z-0.1250 I8.0400 J0.0000 F816.00
G2 X-220.5400 Y-52.5000 Z-0.9375 I-8.0400 J0.0000 F816.00
G2 X-204.4600 Y-52.5000 Z-1.7500 I8.0400 J0.0000 F816.00
G2 X-220.5400 Y-52.5000 Z-1.7500 I-8.0400 J0.0000 F816.00
G2 X-204.4600 Y-52.5000 Z-1.7500 I8.0400 J0.0000 F816.00
G0 Z7.5000
G0 X-211.2320 Y-27.5000
G0 Z7.5000
G1 Z1.5000 F816.00
G2 X-213.7680 Y-27.5000 Z0.6875 I-1.2680 J0.0000 F816.00
G2 X-211.2320 Y-27.5000 Z-0.1250 I1.2680 J0.0000 F816.00
G2 X-213.7680 Y-27.5000 Z-0.9375 I-1.2680 J0.0000 F816.00
G2 X-211.2320 Y-27.5000 Z-1.7500 I1.2680 J0.0000 F816.00
G2 X-213.7680 Y-27.5000 Z-1.7500 I-1.2680 J0.0000 F816.00
G2 X-211.2320 Y-27.5000 Z-1.7500 I1.2680 J0.0000 F816.00
G0 Z7.5000
G0 X-208.9747 Y-27.5000
G0 Z7.5000
G1 Z1.5000 F816.00
G2 X-216.0253 Y-27.5000 Z0.6875 I-3.5253 J0.0000 F816.00
G2 X-208.9747 Y-27.5000 Z-0.1250 I3.5253 J0.0000 F816.00
G2 X-216.0253 Y-27.5000 Z-0.9375 I-3.5253 J0.0000 F816.00
G2 X-208.9747 Y-27.5000 Z-1.7500 I3.5253 J0.0000 F816.00
G2 X-216.0253 Y-27.5000 Z-1.7500 I-3.5253 J0.0000 F816.00
G2 X-208.9747 Y-27.5000 Z-1.7500 I3.5253 J0.0000 F816.00
G0 Z7.5000
G0 X-206.7173 Y-27.5000
G0 Z7.5000
G1 Z1.5000 F816.00
G2 X-218.2827 Y-27.5000 Z0.6875 I-5.7827 J0.0000 F816.00
G2 X-206.7173 Y-27.5000 Z-0.1250 I5.7827 J0.0000 F816.00
G2 X-218.2827 Y-27.5000 Z-0.9375 I-5.7827 J0.0000 F816.00
G2 X-206.7173 Y-27.5000 Z-1.7500 I5.7827 J0.0000 F816.00
G2 X-218.2827 Y-27.5000 Z-1.7500 I-5.7827 J0.0000 F816.00
G2 X-206.7173 Y-27.5000 Z-1.7500 I5.7827 J0.0000 F816.00
G0 Z7.5000
G0 X-204.4600 Y-27.5000
G0 Z7.5000
G1 Z1.5000 F816.00
G2 X-220.5400 Y-27.5000 Z0.6875 I-8.0400 J0.0000 F816.00
G2 X-204.4600 Y-27.5000 Z-0.1250 I8.0400 J0.0000 F816.00
G2 X-220.5400 Y-27.5000 Z-0.9375 I-8.0400 J0.0000 F816.00
G2 X-204.4600 Y-27.5000 Z-1.7500 I8.0400 J0.0000 F816.00
G2 X-220.5400 Y-27.5000 Z-1.7500 I-8.0400 J0.0000 F816.00
G2 X-204.4600 Y-27.5000 Z-1.7500 I8.0400 J0.0000 F816.00
G0 Z7.5000
G0 X-236.2320 Y-27.5000
G0 Z7.5000
G1 Z1.5000 F816.00
G2 X-238.7680 Y-27.5000 Z0.6875 I-1.2680 J0.0000 F816.00
G2 X-236.2320 Y-27.5000 Z-0.1250 I1.2680 J0.0000 F816.00
G2 X-238.7680 Y-27.5000 Z-0.9375 I-1.2680 J0.0000 F816.00
G2 X-236.2320 Y-27.5000 Z-1.7500 I1.2680 J0.0000 F816.00
G2 X-238.7680 Y-27.5000 Z-1.7500 I-1.2680 J0.0000 F816.00
G2 X-236.2320 Y-27.5000 Z-1.7500 I1.2680 J0.0000 F816.00
G0 Z7.5000
G0 X-233.9747 Y-27.5000
G0 Z7.5000
G1 Z1.5000 F816.00
G2 X-241.0253 Y-27.5000 Z0.6875 I-3.5253 J0.0000 F816.00
G2 X-233.9747 Y-27.5000 Z-0.1250 I3.5253 J0.0000 F816.00
G2 X-241.0253 Y-27.5000 Z-0.9375 I-3.5253 J0.0000 F816.00
G2 X-233.9747 Y-27.5000 Z-1.7500 I3.5253 J0.0000 F816.00
G2 X-241.0253 Y-27.5000 Z-1.7500 I-3.5253 J0.0000 F816.00
G2 X-233.9747 Y-27.5000 Z-1.7500 I3.5253 J0.0000 F816.00
G0 Z7.5000
G0 X-231.7173 Y-27.5000
G0 Z7.5000
G1 Z1.5000 F816.00
G2 X-243.2827 Y-27.5000 Z0.6875 I-5.7827 J0.0000 F816.00
G2 X-231.7173 Y-27.5000 Z-0.1250 I5.7827 J0.0000 F816.00
G2 X-243.2827 Y-27.5000 Z-0.9375 I-5.7827 J0.0000 F816.00
G2 X-231.7173 Y-27.5000 Z-1.7500 I5.7827 J0.0000 F816.00
G2 X-243.2827 Y-27.5000 Z-1.7500 I-5.7827 J0.0000 F816.00
G2 X-231.7173 Y-27.5000 Z-1.7500 I5.7827 J0.0000 F816.00
G0 Z7.5000
G0 X-229.4600 Y-27.5000
G0 Z7.5000
G1 Z1.5000 F816.00
G2 X-245.5400 Y-27.5000 Z0.6875 I-8.0400 J0.0000 F816.00
G2 X-229.4600 Y-27.5000 Z-0.1250 I8.0400 J0.0000 F816.00
G2 X-245.5400 Y-27.5000 Z-0.9375 I-8.0400 J0.0000 F816.00
G2 X-229.4600 Y-27.5000 Z-1.7500 I8.0400 J0.0000 F816.00
G2 X-245.5400 Y-27.5000 Z-1.7500 I-8.0400 J0.0000 F816.00
G2 X-229.4600 Y-27.5000 Z-1.7500 I8.0400 J0.0000 F816.00
G0 Z7.5000
G0 X-236.2320 Y-52.5000
G0 Z7.5000
G1 Z1.5000 F816.00
G2 X-238.7680 Y-52.5000 Z0.6875 I-1.2680 J0.0000 F816.00
G2 X-236.2320 Y-52.5000 Z-0.1250 I1.2680 J0.0000 F816.00
G2 X-238.7680 Y-52.5000 Z-0.9375 I-1.2680 J0.0000 F816.00
G2 X-236.2320 Y-52.5000 Z-1.7500 I1.2680 J0.0000 F816.00
G2 X-238.7680 Y-52.5000 Z-1.7500 I-1.2680 J0.0000 F816.00
G2 X-236.2320 Y-52.5000 Z-1.7500 I1.2680 J0.0000 F816.00
G0 Z7.5000
G0 X-233.9747 Y-52.5000
G0 Z7.5000
G1 Z1.5000 F816.00
G2 X-241.0253 Y-52.5000 Z0.6875 I-3.5253 J0.0000 F816.00
G2 X-233.9747 Y-52.5000 Z-0.1250 I3.5253 J0.0000 F816.00
G2 X-241.0253 Y-52.5000 Z-0.9375 I-3.5253 J0.0000 F816.00
G2 X-233.9747 Y-52.5000 Z-1.7500 I3.5253 J0.0000 F816.00
G2 X-241.0253 Y-52.5000 Z-1.7500 I-3.5253 J0.0000 F816.00
G2 X-233.9747 Y-52.5000 Z-1.7500 I3.5253 J0.0000 F816.00
G0 Z7.5000
G0 X-231.7173 Y-52.5000
G0 Z7.5000
G1 Z1.5000 F816.00
G2 X-243.2827 Y-52.5000 Z0.6875 I-5.7827 J0.0000 F816.00
G2 X-231.7173 Y-52.5000 Z-0.1250 I5.7827 J0.0000 F816.00
G2 X-243.2827 Y-52.5000 Z-0.9375 I-5.7827 J0.0000 F816.00
G2 X-231.7173 Y-52.5000 Z-1.7500 I5.7827 J0.0000 F816.00
G2 X-243.2827 Y-52.5000 Z-1.7500 I-5.7827 J0.0000 F816.00
G2 X-231.7173 Y-52.5000 Z-1.7500 I5.7827 J0.0000 F816.00
G0 Z7.5000
G0 X-229.4600 Y-52.5000
G0 Z7.5000
G1 Z1.5000 F816.00
G2 X-245.5400 Y-52.5000 Z0.6875 I-8.0400 J0.0000 F816.00
G2 X-229.4600 Y-52.5000 Z-0.1250 I8.0400 J0.0000 F816.00
G2 X-245.5400 Y-52.5000 Z-0.9375 I-8.0400 J0.0000 F816.00
G2 X-229.4600 Y-52.5000 Z-1.7500 I8.0400 J0.0000 F816.00
G2 X-245.5400 Y-52.5000 Z-1.7500 I-8.0400 J0.0000 F816.00
G2 X-229.4600 Y-52.5000 Z-1.7500 I8.0400 J0.0000 F816.00
G0 Z7.5000
G0 X-236.2320 Y-77.5000
G0 Z7.5000
G1 Z1.5000 F816.00
G2 X-238.7680 Y-77.5000 Z0.6875 I-1.2680 J0.0000 F816.00
G2 X-236.2320 Y-77.5000 Z-0.1250 I1.2680 J0.0000 F816.00
G2 X-238.7680 Y-77.5000 Z-0.9375 I-1.2680 J0.0000 F816.00
G2 X-236.2320 Y-77.5000 Z-1.7500 I1.2680 J0.0000 F816.00
G2 X-238.7680 Y-77.5000 Z-1.7500 I-1.2680 J0.0000 F816.00
G2 X-236.2320 Y-77.5000 Z-1.7500 I1.2680 J0.0000 F816.00
G0 Z7.5000
G0 X-233.9747 Y-77.5000
G0 Z7.5000
G1 Z1.5000 F816.00
G2 X-241.0253 Y-77.5000 Z0.6875 I-3.5253 J0.0000 F816.00
G2 X-233.9747 Y-77.5000 Z-0.1250 I3.5253 J0.0000 F816.00
G2 X-241.0253 Y-77.5000 Z-0.9375 I-3.5253 J0.0000 F816.00
G2 X-233.9747 Y-77.5000 Z-1.7500 I3.5253 J0.0000 F816.00
G2 X-241.0253 Y-77.5000 Z-1.7500 I-3.5253 J0.0000 F816.00
G2 X-233.9747 Y-77.5000 Z-1.7500 I3.5253 J0.0000 F816.00
G0 Z7.5000
G0 X-231.7173 Y-77.5000
G0 Z7.5000
G1 Z1.5000 F816.00
G2 X-243.2827 Y-77.5000 Z0.6875 I-5.7827 J0.0000 F816.00
G2 X-231.7173 Y-77.5000 Z-0.1250 I5.7827 J0.0000 F816.00
G2 X-243.2827 Y-77.5000 Z-0.9375 I-5.7827 J0.0000 F816.00
G2 X-231.7173 Y-77.5000 Z-1.7500 I5.7827 J0.0000 F816.00
G2 X-243.2827 Y-77.5000 Z-1.7500 I-5.7827 J0.0000 F816.00
G2 X-231.7173 Y-77.5000 Z-1.7500 I5.7827 J0.0000 F816.00
G0 Z7.5000
G0 X-229.4600 Y-77.5000
G0 Z7.5000
G1 Z1.5000 F816.00
G2 X-245.5400 Y-77.5000 Z0.6875 I-8.0400 J0.0000 F816.00
G2 X-229.4600 Y-77.5000 Z-0.1250 I8.0400 J0.0000 F816.00
G2 X-245.5400 Y-77.5000 Z-0.9375 I-8.0400 J0.0000 F816.00
G2 X-229.4600 Y-77.5000 Z-1.7500 I8.0400 J0.0000 F816.00
G2 X-245.5400 Y-77.5000 Z-1.7500 I-8.0400 J0.0000 F816.00
G2 X-229.4600 Y-77.5000 Z-1.7500 I8.0400 J0.0000 F816.00
G0 Z7.5000
G0 X-236.2320 Y-102.5000
G0 Z7.5000
G1 Z1.5000 F816.00
G2 X-238.7680 Y-102.5000 Z0.6875 I-1.2680 J0.0000 F816.00
G2 X-236.2320 Y-102.5000 Z-0.1250 I1.2680 J0.0000 F816.00
G2 X-238.7680 Y-102.5000 Z-0.9375 I-1.2680 J0.0000 F816.00
G2 X-236.2320 Y-102.5000 Z-1.7500 I1.2680 J0.0000 F816.00
G2 X-238.7680 Y-102.5000 Z-1.7500 I-1.2680 J0.0000 F816.00
G2 X-236.2320 Y-102.5000 Z-1.7500 I1.2680 J0.0000 F816.00
G0 Z7.5000
G0 X-233.9747 Y-102.5000
G0 Z7.5000
G1 Z1.5000 F816.00
G2 X-241.0253 Y-102.5000 Z0.6875 I-3.5253 J0.0000 F816.00
G2 X-233.9747 Y-102.5000 Z-0.1250 I3.5253 J0.0000 F816.00
G2 X-241.0253 Y-102.5000 Z-0.9375 I-3.5253 J0.0000 F816.00
G2 X-233.9747 Y-102.5000 Z-1.7500 I3.5253 J0.0000 F816.00
G2 X-241.0253 Y-102.5000 Z-1.7500 I-3.5253 J0.0000 F816.00
G2 X-233.9747 Y-102.5000 Z-1.7500 I3.5253 J0.0000 F816.00
G0 Z7.5000
G0 X-231.7173 Y-102.5000
G0 Z7.5000
G1 Z1.5000 F816.00
G2 X-243.2827 Y-102.5000 Z0.6875 I-5.7827 J0.0000 F816.00
G2 X-231.7173 Y-102.5000 Z-0.1250 I5.7827 J0.0000 F816.00
G2 X-243.2827 Y-102.5000 Z-0.9375 I-5.7827 J0.0000 F816.00
G2 X-231.7173 Y-102.5000 Z-1.7500 I5.7827 J0.0000 F816.00
G2 X-243.2827 Y-102.5000 Z-1.7500 I-5.7827 J0.0000 F816.00
G2 X-231.7173 Y-102.5000 Z-1.7500 I5.7827 J0.0000 F816.00
G0 Z7.5000
G0 X-229.4600 Y-102.5000
G0 Z7.5000
G1 Z1.5000 F816.00
G2 X-245.5400 Y-102.5000 Z0.6875 I-8.0400 J0.0000 F816.00
G2 X-229.4600 Y-102.5000 Z-0.1250 I8.0400 J0.0000 F816.00
G2 X-245.5400 Y-102.5000 Z-0.9375 I-8.0400 J0.0000 F816.00
G2 X-229.4600 Y-102.5000 Z-1.7500 I8.0400 J0.0000 F816.00
G2 X-245.5400 Y-102.5000 Z-1.7500 I-8.0400 J0.0000 F816.00
G2 X-229.4600 Y-102.5000 Z-1.7500 I8.0400 J0.0000 F816.00
G0 Z7.5000
G0 X-236.2320 Y-127.5000
G0 Z7.5000
G1 Z1.5000 F816.00
G2 X-238.7680 Y-127.5000 Z0.6875 I-1.2680 J0.0000 F816.00
G2 X-236.2320 Y-127.5000 Z-0.1250 I1.2680 J0.0000 F816.00
G2 X-238.7680 Y-127.5000 Z-0.9375 I-1.2680 J0.0000 F816.00
G2 X-236.2320 Y-127.5000 Z-1.7500 I1.2680 J0.0000 F816.00
G2 X-238.7680 Y-127.5000 Z-1.7500 I-1.2680 J0.0000 F816.00
G2 X-236.2320 Y-127.5000 Z-1.7500 I1.2680 J0.0000 F816.00
G0 Z7.5000
G0 X-233.9747 Y-127.5000
G0 Z7.5000
G1 Z1.5000 F816.00
G2 X-241.0253 Y-127.5000 Z0.6875 I-3.5253 J0.0000 F816.00
G2 X-233.9747 Y-127.5000 Z-0.1250 I3.5253 J0.0000 F816.00
G2 X-241.0253 Y-127.5000 Z-0.9375 I-3.5253 J0.0000 F816.00
G2 X-233.9747 Y-127.5000 Z-1.7500 I3.5253 J0.0000 F816.00
G2 X-241.0253 Y-127.5000 Z-1.7500 I-3.5253 J0.0000 F816.00
G2 X-233.9747 Y-127.5000 Z-1.7500 I3.5253 J0.0000 F816.00
G0 Z7.5000
G0 X-231.7173 Y-127.5000
G0 Z7.5000
G1 Z1.5000 F816.00
G2 X-243.2827 Y-127.5000 Z0.6875 I-5.7827 J0.0000 F816.00
G2 X-231.7173 Y-127.5000 Z-0.1250 I5.7827 J0.0000 F816.00
G2 X-243.2827 Y-127.5000 Z-0.9375 I-5.7827 J0.0000 F816.00
G2 X-231.7173 Y-127.5000 Z-1.7500 I5.7827 J0.0000 F816.00
G2 X-243.2827 Y-127.5000 Z-1.7500 I-5.7827 J0.0000 F816.00
G2 X-231.7173 Y-127.5000 Z-1.7500 I5.7827 J0.0000 F816.00
G0 Z7.5000
G0 X-229.4600 Y-127.5000
G0 Z7.5000
G1 Z1.5000 F816.00
G2 X-245.5400 Y-127.5000 Z0.6875 I-8.0400 J0.0000 F816.00
G2 X-229.4600 Y-127.5000 Z-0.1250 I8.0400 J0.0000 F816.00
G2 X-245.5400 Y-127.5000 Z-0.9375 I-8.0400 J0.0000 F816.00
G2 X-229.4600 Y-127.5000 Z-1.7500 I8.0400 J0.0000 F816.00
G2 X-245.5400 Y-127.5000 Z-1.7500 I-8.0400 J0.0000 F816.00
G2 X-229.4600 Y-127.5000 Z-1.7500 I8.0400 J0.0000 F816.00
G0 Z7.5000
G0 X-236.2320 Y-152.5000
G0 Z7.5000
G1 Z1.5000 F816.00
G2 X-238.7680 Y-152.5000 Z0.6875 I-1.2680 J0.0000 F816.00
G2 X-236.2320 Y-152.5000 Z-0.1250 I1.2680 J0.0000 F816.00
G2 X-238.7680 Y-152.5000 Z-0.9375 I-1.2680 J0.0000 F816.00
G2 X-236.2320 Y-152.5000 Z-1.7500 I1.2680 J0.0000 F816.00
G2 X-238.7680 Y-152.5000 Z-1.7500 I-1.2680 J0.0000 F816.00
G2 X-236.2320 Y-152.5000 Z-1.7500 I1.2680 J0.0000 F816.00
G0 Z7.5000
G0 X-233.9747 Y-152.5000
G0 Z7.5000
G1 Z1.5000 F816.00
G2 X-241.0253 Y-152.5000 Z0.6875 I-3.5253 J0.0000 F816.00
G2 X-233.9747 Y-152.5000 Z-0.1250 I3.5253 J0.0000 F816.00
G2 X-241.0253 Y-152.5000 Z-0.9375 I-3.5253 J0.0000 F816.00
G2 X-233.9747 Y-152.5000 Z-1.7500 I3.5253 J0.0000 F816.00
G2 X-241.0253 Y-152.5000 Z-1.7500 I-3.5253 J0.0000 F816.00
G2 X-233.9747 Y-152.5000 Z-1.7500 I3.5253 J0.0000 F816.00
G0 Z7.5000
G0 X-231.7173 Y-152.5000
G0 Z7.5000
G1 Z1.5000 F816.00
G2 X-243.2827 Y-152.5000 Z0.6875 I-5.7827 J0.0000 F816.00
G2 X-231.7173 Y-152.5000 Z-0.1250 I5.7827 J0.0000 F816.00
G2 X-243.2827 Y-152.5000 Z-0.9375 I-5.7827 J0.0000 F816.00
G2 X-231.7173 Y-152.5000 Z-1.7500 I5.7827 J0.0000 F816.00
G2 X-243.2827 Y-152.5000 Z-1.7500 I-5.7827 J0.0000 F816.00
G2 X-231.7173 Y-152.5000 Z-1.7500 I5.7827 J0.0000 F816.00
G0 Z7.5000
G0 X-229.4600 Y-152.5000
G0 Z7.5000
G1 Z1.5000 F816.00
G2 X-245.5400 Y-152.5000 Z0.6875 I-8.0400 J0.0000 F816.00
G2 X-229.4600 Y-152.5000 Z-0.1250 I8.0400 J0.0000 F816.00
G2 X-245.5400 Y-152.5000 Z-0.9375 I-8.0400 J0.0000 F816.00
G2 X-229.4600 Y-152.5000 Z-1.7500 I8.0400 J0.0000 F816.00
G2 X-245.5400 Y-152.5000 Z-1.7500 I-8.0400 J0.0000 F816.00
G2 X-229.4600 Y-152.5000 Z-1.7500 I8.0400 J0.0000 F816.00
G0 Z7.5000
G0 X-261.2320 Y-152.5000
G0 Z7.5000
G1 Z1.5000 F816.00
G2 X-263.7680 Y-152.5000 Z0.6875 I-1.2680 J0.0000 F816.00
G2 X-261.2320 Y-152.5000 Z-0.1250 I1.2680 J0.0000 F816.00
G2 X-263.7680 Y-152.5000 Z-0.9375 I-1.2680 J0.0000 F816.00
G2 X-261.2320 Y-152.5000 Z-1.7500 I1.2680 J0.0000 F816.00
G2 X-263.7680 Y-152.5000 Z-1.7500 I-1.2680 J0.0000 F816.00
G2 X-261.2320 Y-152.5000 Z-1.7500 I1.2680 J0.0000 F816.00
G0 Z7.5000
G0 X-258.9747 Y-152.5000
G0 Z7.5000
G1 Z1.5000 F816.00
G2 X-266.0253 Y-152.5000 Z0.6875 I-3.5253 J0.0000 F816.00
G2 X-258.9747 Y-152.5000 Z-0.1250 I3.5253 J0.0000 F816.00
G2 X-266.0253 Y-152.5000 Z-0.9375 I-3.5253 J0.0000 F816.00
G2 X-258.9747 Y-152.5000 Z-1.7500 I3.5253 J0.0000 F816.00
G2 X-266.0253 Y-152.5000 Z-1.7500 I-3.5253 J0.0000 F816.00
G2 X-258.9747 Y-152.5000 Z-1.7500 I3.5253 J0.0000 F816.00
G0 Z7.5000
G0 X-256.7173 Y-152.5000
G0 Z7.5000
G1 Z1.5000 F816.00
G2 X-268.2827 Y-152.5000 Z0.6875 I-5.7827 J0.0000 F816.00
G2 X-256.7173 Y-152.5000 Z-0.1250 I5.7827 J0.0000 F816.00
G2 X-268.2827 Y-152.5000 Z-0.9375 I-5.7827 J0.0000 F816.00
G2 X-256.7173 Y-152.5000 Z-1.7500 I5.7827 J0.0000 F816.00
G2 X-268.2827 Y-152.5000 Z-1.7500 I-5.7827 J0.0000 F816.00
G2 X-256.7173 Y-152.5000 Z-1.7500 I5.7827 J0.0000 F816.00
G0 Z7.5000
G0 X-254.4600 Y-152.5000
G0 Z7.5000
G1 Z1.5000 F816.00
G2 X-270.5400 Y-152.5000 Z0.6875 I-8.0400 J0.0000 F816.00
G2 X-254.4600 Y-152.5000 Z-0.1250 I8.0400 J0.0000 F816.00
G2 X-270.5400 Y-152.5000 Z-0.9375 I-8.0400 J0.0000 F816.00
G2 X-254.4600 Y-152.5000 Z-1.7500 I8.0400 J0.0000 F816.00
G2 X-270.5400 Y-152.5000 Z-1.7500 I-8.0400 J0.0000 F816.00
G2 X-254.4600 Y-152.5000 Z-1.7500 I8.0400 J0.0000 F816.00
G0 Z7.5000
G0 X-261.2320 Y-127.5000
G0 Z7.5000
G1 Z1.5000 F816.00
G2 X-263.7680 Y-127.5000 Z0.6875 I-1.2680 J0.0000 F816.00
G2 X-261.2320 Y-127.5000 Z-0.1250 I1.2680 J0.0000 F816.00
G2 X-263.7680 Y-127.5000 Z-0.9375 I-1.2680 J0.0000 F816.00
G2 X-261.2320 Y-127.5000 Z-1.7500 I1.2680 J0.0000 F816.00
G2 X-263.7680 Y-127.5000 Z-1.7500 I-1.2680 J0.0000 F816.00
G2 X-261.2320 Y-127.5000 Z-1.7500 I1.2680 J0.0000 F816.00
G0 Z7.5000
G0 X-258.9747 Y-127.5000
G0 Z7.5000
G1 Z1.5000 F816.00
G2 X-266.0253 Y-127.5000 Z0.6875 I-3.5253 J0.0000 F816.00
G2 X-258.9747 Y-127.5000 Z-0.1250 I3.5253 J0.0000 F816.00
G2 X-266.0253 Y-127.5000 Z-0.9375 I-3.5253 J0.0000 F816.00
G2 X-258.9747 Y-127.5000 Z-1.7500 I3.5253 J0.0000 F816.00
G2 X-266.0253 Y-127.5000 Z-1.7500 I-3.5253 J0.0000 F816.00
G2 X-258.9747 Y-127.5000 Z-1.7500 I3.5253 J0.0000 F816.00
G0 Z7.5000
G0 X-256.7173 Y-127.5000
G0 Z7.5000
G1 Z1.5000 F816.00
G2 X-268.2827 Y-127.5000 Z0.6875 I-5.7827 J0.0000 F816.00
G2 X-256.7173 Y-127.5000 Z-0.1250 I5.7827 J0.0000 F816.00
G2 X-268.2827 Y-127.5000 Z-0.9375 I-5.7827 J0.0000 F816.00
G2 X-256.7173 Y-127.5000 Z-1.7500 I5.7827 J0.0000 F816.00
G2 X-268.2827 Y-127.5000 Z-1.7500 I-5.7827 J0.0000 F816.00
G2 X-256.7173 Y-127.5000 Z-1.7500 I5.7827 J0.0000 F816.00
G0 Z7.5000
G0 X-254.4600 Y-127.5000
G0 Z7.5000
G1 Z1.5000 F816.00
G2 X-270.5400 Y-127.5000 Z0.6875 I-8.0400 J0.0000 F816.00
G2 X-254.4600 Y-127.5000 Z-0.1250 I8.0400 J0.0000 F816.00
G2 X-270.5400 Y-127.5000 Z-0.9375 I-8.0400 J0.0000 F816.00
G2 X-254.4600 Y-127.5000 Z-1.7500 I8.0400 J0.0000 F816.00
G2 X-270.5400 Y-127.5000 Z-1.7500 I-8.0400 J0.0000 F816.00
G2 X-254.4600 Y-127.5000 Z-1.7500 I8.0400 J0.0000 F816.00
G0 Z7.5000
G0 X-261.2320 Y-102.5000
G0 Z7.5000
G1 Z1.5000 F816.00
G2 X-263.7680 Y-102.5000 Z0.6875 I-1.2680 J0.0000 F816.00
G2 X-261.2320 Y-102.5000 Z-0.1250 I1.2680 J0.0000 F816.00
G2 X-263.7680 Y-102.5000 Z-0.9375 I-1.2680 J0.0000 F816.00
G2 X-261.2320 Y-102.5000 Z-1.7500 I1.2680 J0.0000 F816.00
G2 X-263.7680 Y-102.5000 Z-1.7500 I-1.2680 J0.0000 F816.00
G2 X-261.2320 Y-102.5000 Z-1.7500 I1.2680 J0.0000 F816.00
G0 Z7.5000
G0 X-258.9747 Y-102.5000
G0 Z7.5000
G1 Z1.5000 F816.00
G2 X-266.0253 Y-102.5000 Z0.6875 I-3.5253 J0.0000 F816.00
G2 X-258.9747 Y-102.5000 Z-0.1250 I3.5253 J0.0000 F816.00
G2 X-266.0253 Y-102.5000 Z-0.9375 I-3.5253 J0.0000 F816.00
G2 X-258.9747 Y-102.5000 Z-1.7500 I3.5253 J0.0000 F816.00
G2 X-266.0253 Y-102.5000 Z-1.7500 I-3.5253 J0.0000 F816.00
G2 X-258.9747 Y-102.5000 Z-1.7500 I3.5253 J0.0000 F816.00
G0 Z7.5000
G0 X-256.7173 Y-102.5000
G0 Z7.5000
G1 Z1.5000 F816.00
G2 X-268.2827 Y-102.5000 Z0.6875 I-5.7827 J0.0000 F816.00
G2 X-256.7173 Y-102.5000 Z-0.1250 I5.7827 J0.0000 F816.00
G2 X-268.2827 Y-102.5000 Z-0.9375 I-5.7827 J0.0000 F816.00
G2 X-256.7173 Y-102.5000 Z-1.7500 I5.7827 J0.0000 F816.00
G2 X-268.2827 Y-102.5000 Z-1.7500 I-5.7827 J0.0000 F816.00
G2 X-256.7173 Y-102.5000 Z-1.7500 I5.7827 J0.0000 F816.00
G0 Z7.5000
G0 X-254.4600 Y-102.5000
G0 Z7.5000
G1 Z1.5000 F816.00
G2 X-270.5400 Y-102.5000 Z0.6875 I-8.0400 J0.0000 F816.00
G2 X-254.4600 Y-102.5000 Z-0.1250 I8.0400 J0.0000 F816.00
G2 X-270.5400 Y-102.5000 Z-0.9375 I-8.0400 J0.0000 F816.00
G2 X-254.4600 Y-102.5000 Z-1.7500 I8.0400 J0.0000 F816.00
G2 X-270.5400 Y-102.5000 Z-1.7500 I-8.0400 J0.0000 F816.00
G2 X-254.4600 Y-102.5000 Z-1.7500 I8.0400 J0.0000 F816.00
G0 Z7.5000
G0 X-261.2320 Y-77.5000
G0 Z7.5000
G1 Z1.5000 F816.00
G2 X-263.7680 Y-77.5000 Z0.6875 I-1.2680 J0.0000 F816.00
G2 X-261.2320 Y-77.5000 Z-0.1250 I1.2680 J0.0000 F816.00
G2 X-263.7680 Y-77.5000 Z-0.9375 I-1.2680 J0.0000 F816.00
G2 X-261.2320 Y-77.5000 Z-1.7500 I1.2680 J0.0000 F816.00
G2 X-263.7680 Y-77.5000 Z-1.7500 I-1.2680 J0.0000 F816.00
G2 X-261.2320 Y-77.5000 Z-1.7500 I1.2680 J0.0000 F816.00
G0 Z7.5000
G0 X-258.9747 Y-77.5000
G0 Z7.5000
G1 Z1.5000 F816.00
G2 X-266.0253 Y-77.5000 Z0.6875 I-3.5253 J0.0000 F816.00
G2 X-258.9747 Y-77.5000 Z-0.1250 I3.5253 J0.0000 F816.00
G2 X-266.0253 Y-77.5000 Z-0.9375 I-3.5253 J0.0000 F816.00
G2 X-258.9747 Y-77.5000 Z-1.7500 I3.5253 J0.0000 F816.00
G2 X-266.0253 Y-77.5000 Z-1.7500 I-3.5253 J0.0000 F816.00
G2 X-258.9747 Y-77.5000 Z-1.7500 I3.5253 J0.0000 F816.00
G0 Z7.5000
G0 X-256.7173 Y-77.5000
G0 Z7.5000
G1 Z1.5000 F816.00
G2 X-268.2827 Y-77.5000 Z0.6875 I-5.7827 J0.0000 F816.00
G2 X-256.7173 Y-77.5000 Z-0.1250 I5.7827 J0.0000 F816.00
G2 X-268.2827 Y-77.5000 Z-0.9375 I-5.7827 J0.0000 F816.00
G2 X-256.7173 Y-77.5000 Z-1.7500 I5.7827 J0.0000 F816.00
G2 X-268.2827 Y-77.5000 Z-1.7500 I-5.7827 J0.0000 F816.00
G2 X-256.7173 Y-77.5000 Z-1.7500 I5.7827 J0.0000 F816.00
G0 Z7.5000
G0 X-254.4600 Y-77.5000
G0 Z7.5000
G1 Z1.5000 F816.00
G2 X-270.5400 Y-77.5000 Z0.6875 I-8.0400 J0.0000 F816.00
G2 X-254.4600 Y-77.5000 Z-0.1250 I8.0400 J0.0000 F816.00
G2 X-270.5400 Y-77.5000 Z-0.9375 I-8.0400 J0.0000 F816.00
G2 X-254.4600 Y-77.5000 Z-1.7500 I8.0400 J0.0000 F816.00
G2 X-270.5400 Y-77.5000 Z-1.7500 I-8.0400 J0.0000 F816.00
G2 X-254.4600 Y-77.5000 Z-1.7500 I8.0400 J0.0000 F816.00
G0 Z7.5000
G0 X-261.2320 Y-52.5000
G0 Z7.5000
G1 Z1.5000 F816.00
G2 X-263.7680 Y-52.5000 Z0.6875 I-1.2680 J0.0000 F816.00
G2 X-261.2320 Y-52.5000 Z-0.1250 I1.2680 J0.0000 F816.00
G2 X-263.7680 Y-52.5000 Z-0.9375 I-1.2680 J0.0000 F816.00
G2 X-261.2320 Y-52.5000 Z-1.7500 I1.2680 J0.0000 F816.00
G2 X-263.7680 Y-52.5000 Z-1.7500 I-1.2680 J0.0000 F816.00
G2 X-261.2320 Y-52.5000 Z-1.7500 I1.2680 J0.0000 F816.00
G0 Z7.5000
G0 X-258.9747 Y-52.5000
G0 Z7.5000
G1 Z1.5000 F816.00
G2 X-266.0253 Y-52.5000 Z0.6875 I-3.5253 J0.0000 F816.00
G2 X-258.9747 Y-52.5000 Z-0.1250 I3.5253 J0.0000 F816.00
G2 X-266.0253 Y-52.5000 Z-0.9375 I-3.5253 J0.0000 F816.00
G2 X-258.9747 Y-52.5000 Z-1.7500 I3.5253 J0.0000 F816.00
G2 X-266.0253 Y-52.5000 Z-1.7500 I-3.5253 J0.0000 F816.00
G2 X-258.9747 Y-52.5000 Z-1.7500 I3.5253 J0.0000 F816.00
G0 Z7.5000
G0 X-256.7173 Y-52.5000
G0 Z7.5000
G1 Z1.5000 F816.00
G2 X-268.2827 Y-52.5000 Z0.6875 I-5.7827 J0.0000 F816.00
G2 X-256.7173 Y-52.5000 Z-0.1250 I5.7827 J0.0000 F816.00
G2 X-268.2827 Y-52.5000 Z-0.9375 I-5.7827 J0.0000 F816.00
G2 X-256.7173 Y-52.5000 Z-1.7500 I5.7827 J0.0000 F816.00
G2 X-268.2827 Y-52.5000 Z-1.7500 I-5.7827 J0.0000 F816.00
G2 X-256.7173 Y-52.5000 Z-1.7500 I5.7827 J0.0000 F816.00
G0 Z7.5000
G0 X-254.4600 Y-52.5000
G0 Z7.5000
G1 Z1.5000 F816.00
G2 X-270.5400 Y-52.5000 Z0.6875 I-8.0400 J0.0000 F816.00
G2 X-254.4600 Y-52.5000 Z-0.1250 I8.0400 J0.0000 F816.00
G2 X-270.5400 Y-52.5000 Z-0.9375 I-8.0400 J0.0000 F816.00
G2 X-254.4600 Y-52.5000 Z-1.7500 I8.0400 J0.0000 F816.00
G2 X-270.5400 Y-52.5000 Z-1.7500 I-8.0400 J0.0000 F816.00
G2 X-254.4600 Y-52.5000 Z-1.7500 I8.0400 J0.0000 F816.00
G0 Z7.5000
G0 X-261.2320 Y-27.5000
G0 Z7.5000
G1 Z1.5000 F816.00
G2 X-263.7680 Y-27.5000 Z0.6875 I-1.2680 J0.0000 F816.00
G2 X-261.2320 Y-27.5000 Z-0.1250 I1.2680 J0.0000 F816.00
G2 X-263.7680 Y-27.5000 Z-0.9375 I-1.2680 J0.0000 F816.00
G2 X-261.2320 Y-27.5000 Z-1.7500 I1.2680 J0.0000 F816.00
G2 X-263.7680 Y-27.5000 Z-1.7500 I-1.2680 J0.0000 F816.00
G2 X-261.2320 Y-27.5000 Z-1.7500 I1.2680 J0.0000 F816.00
G0 Z7.5000
G0 X-258.9747 Y-27.5000
G0 Z7.5000
G1 Z1.5000 F816.00
G2 X-266.0253 Y-27.5000 Z0.6875 I-3.5253 J0.0000 F816.00
G2 X-258.9747 Y-27.5000 Z-0.1250 I3.5253 J0.0000 F816.00
G2 X-266.0253 Y-27.5000 Z-0.9375 I-3.5253 J0.0000 F816.00
G2 X-258.9747 Y-27.5000 Z-1.7500 I3.5253 J0.0000 F816.00
G2 X-266.0253 Y-27.5000 Z-1.7500 I-3.5253 J0.0000 F816.00
G2 X-258.9747 Y-27.5000 Z-1.7500 I3.5253 J0.0000 F816.00
G0 Z7.5000
G0 X-256.7173 Y-27.5000
G0 Z7.5000
G1 Z1.5000 F816.00
G2 X-268.2827 Y-27.5000 Z0.6875 I-5.7827 J0.0000 F816.00
G2 X-256.7173 Y-27.5000 Z-0.1250 I5.7827 J0.0000 F816.00
G2 X-268.2827 Y-27.5000 Z-0.9375 I-5.7827 J0.0000 F816.00
G2 X-256.7173 Y-27.5000 Z-1.7500 I5.7827 J0.0000 F816.00
G2 X-268.2827 Y-27.5000 Z-1.7500 I-5.7827 J0.0000 F816.00
G2 X-256.7173 Y-27.5000 Z-1.7500 I5.7827 J0.0000 F816.00
G0 Z7.5000
G0 X-254.4600 Y-27.5000
G0 Z7.5000
G1 Z1.5000 F816.00
G2 X-270.5400 Y-27.5000 Z0.6875 I-8.0400 J0.0000 F816.00
G2 X-254.4600 Y-27.5000 Z-0.1250 I8.0400 J0.0000 F816.00
G2 X-270.5400 Y-27.5000 Z-0.9375 I-8.0400 J0.0000 F816.00
G2 X-254.4600 Y-27.5000 Z-1.7500 I8.0400 J0.0000 F816.00
G2 X-270.5400 Y-27.5000 Z-1.7500 I-8.0400 J0.0000 F816.00
G2 X-254.4600 Y-27.5000 Z-1.7500 I8.0400 J0.0000 F816.00
G0 Z7.5000
G0 Z6.5000
(finish operation: Helix_counterbore)
(begin operation: Helix_hole001)
(Path: Helix_hole001)
(Helix_hole001)
(helix cut operation)
G0 Z6.5000
G0 X-260.1150 Y-27.5000
G0 Z7.5000
G1 Z1.5000 F816.00
G2 X-264.8850 Y-27.5000 Z-0.0200 I-2.3850 J0.0000 F816.00
G2 X-260.1150 Y-27.5000 Z-1.5400 I2.3850 J0.0000 F816.00
G2 X-264.8850 Y-27.5000 Z-3.0600 I-2.3850 J0.0000 F816.00
G2 X-260.1150 Y-27.5000 Z-4.5800 I2.3850 J0.0000 F816.00
G2 X-264.8850 Y-27.5000 Z-6.1000 I-2.3850 J0.0000 F816.00
G2 X-260.1150 Y-27.5000 Z-7.6200 I2.3850 J0.0000 F816.00
G2 X-264.8850 Y-27.5000 Z-9.1400 I-2.3850 J0.0000 F816.00
G2 X-260.1150 Y-27.5000 Z-10.6600 I2.3850 J0.0000 F816.00
G2 X-264.8850 Y-27.5000 Z-12.1800 I-2.3850 J0.0000 F816.00
G2 X-260.1150 Y-27.5000 Z-13.7000 I2.3850 J0.0000 F816.00
G2 X-264.8850 Y-27.5000 Z-13.7000 I-2.3850 J0.0000 F816.00
G2 X-260.1150 Y-27.5000 Z-13.7000 I2.3850 J0.0000 F816.00
G0 Z7.5000
G0 X-260.1150 Y-52.5000
G0 Z7.5000
G1 Z1.5000 F816.00
G2 X-264.8850 Y-52.5000 Z-0.0200 I-2.3850 J0.0000 F816.00
