(Exported by FreeCAD)
(Post Processor: grbl_post)
(Output Time:2020-07-01 10:45:46.856593)
(begin preamble)
G17 G90
G21
(begin operation: T1: 1/8 inch two flute)
(Path: T1: 1/8 inch two flute)
(T1: 1/8 inch two flute)
(begin toolchange)
; M6 T1
M3 S1000.0000
(finish operation: T1: 1/8 inch two flute)
(begin operation: Helix_countersink)
(Path: Helix_countersink)
(Helix_countersink)
(helix cut operation)
G0 Z5.0000
G0 X-8.4150 Y-23.3750
G0 Z3.0000
G1 Z0.0000 F1200.00
G2 X-11.5850 Y-23.3750 Z-0.6250 I-1.5850 J0.0000 F1200.00
G2 X-8.4150 Y-23.3750 Z-1.2500 I1.5850 J0.0000 F1200.00
G2 X-11.5850 Y-23.3750 Z-1.8750 I-1.5850 J0.0000 F1200.00
G2 X-8.4150 Y-23.3750 Z-2.5000 I1.5850 J0.0000 F1200.00
G2 X-11.5850 Y-23.3750 Z-2.5000 I-1.5850 J0.0000 F1200.00
G2 X-8.4150 Y-23.3750 Z-2.5000 I1.5850 J0.0000 F1200.00
G0 Z3.0000
G0 X-6.8250 Y-23.3750
G0 Z3.0000
G1 Z0.0000 F1200.00
G2 X-13.1750 Y-23.3750 Z-0.6250 I-3.1750 J0.0000 F1200.00
G2 X-6.8250 Y-23.3750 Z-1.2500 I3.1750 J0.0000 F1200.00
G2 X-13.1750 Y-23.3750 Z-1.8750 I-3.1750 J0.0000 F1200.00
G2 X-6.8250 Y-23.3750 Z-2.5000 I3.1750 J0.0000 F1200.00
G2 X-13.1750 Y-23.3750 Z-2.5000 I-3.1750 J0.0000 F1200.00
G2 X-6.8250 Y-23.3750 Z-2.5000 I3.1750 J0.0000 F1200.00
G0 Z3.0000
G0 X-5.2350 Y-23.3750
G0 Z3.0000
G1 Z0.0000 F1200.00
G2 X-14.7650 Y-23.3750 Z-0.6250 I-4.7650 J0.0000 F1200.00
G2 X-5.2350 Y-23.3750 Z-1.2500 I4.7650 J0.0000 F1200.00
G2 X-14.7650 Y-23.3750 Z-1.8750 I-4.7650 J0.0000 F1200.00
G2 X-5.2350 Y-23.3750 Z-2.5000 I4.7650 J0.0000 F1200.00
G2 X-14.7650 Y-23.3750 Z-2.5000 I-4.7650 J0.0000 F1200.00
G2 X-5.2350 Y-23.3750 Z-2.5000 I4.7650 J0.0000 F1200.00
G0 Z3.0000
G0 X-8.4150 Y-156.6250
G0 Z3.0000
G1 Z0.0000 F1200.00
G2 X-11.5850 Y-156.6250 Z-0.6250 I-1.5850 J0.0000 F1200.00
G2 X-8.4150 Y-156.6250 Z-1.2500 I1.5850 J0.0000 F1200.00
G2 X-11.5850 Y-156.6250 Z-1.8750 I-1.5850 J0.0000 F1200.00
G2 X-8.4150 Y-156.6250 Z-2.5000 I1.5850 J0.0000 F1200.00
G2 X-11.5850 Y-156.6250 Z-2.5000 I-1.5850 J0.0000 F1200.00
G2 X-8.4150 Y-156.6250 Z-2.5000 I1.5850 J0.0000 F1200.00
G0 Z3.0000
G0 X-6.8250 Y-156.6250
G0 Z3.0000
G1 Z0.0000 F1200.00
G2 X-13.1750 Y-156.6250 Z-0.6250 I-3.1750 J0.0000 F1200.00
G2 X-6.8250 Y-156.6250 Z-1.2500 I3.1750 J0.0000 F1200.00
G2 X-13.1750 Y-156.6250 Z-1.8750 I-3.1750 J0.0000 F1200.00
G2 X-6.8250 Y-156.6250 Z-2.5000 I3.1750 J0.0000 F1200.00
G2 X-13.1750 Y-156.6250 Z-2.5000 I-3.1750 J0.0000 F1200.00
G2 X-6.8250 Y-156.6250 Z-2.5000 I3.1750 J0.0000 F1200.00
G0 Z3.0000
G0 X-5.2350 Y-156.6250
G0 Z3.0000
G1 Z0.0000 F1200.00
G2 X-14.7650 Y-156.6250 Z-0.6250 I-4.7650 J0.0000 F1200.00
G2 X-5.2350 Y-156.6250 Z-1.2500 I4.7650 J0.0000 F1200.00
G2 X-14.7650 Y-156.6250 Z-1.8750 I-4.7650 J0.0000 F1200.00
G2 X-5.2350 Y-156.6250 Z-2.5000 I4.7650 J0.0000 F1200.00
G2 X-14.7650 Y-156.6250 Z-2.5000 I-4.7650 J0.0000 F1200.00
G2 X-5.2350 Y-156.6250 Z-2.5000 I4.7650 J0.0000 F1200.00
G0 Z3.0000
G0 X-288.4150 Y-156.6250
G0 Z3.0000
G1 Z0.0000 F1200.00
G2 X-291.5850 Y-156.6250 Z-0.6250 I-1.5850 J0.0000 F1200.00
G2 X-288.4150 Y-156.6250 Z-1.2500 I1.5850 J0.0000 F1200.00
G2 X-291.5850 Y-156.6250 Z-1.8750 I-1.5850 J0.0000 F1200.00
G2 X-288.4150 Y-156.6250 Z-2.5000 I1.5850 J0.0000 F1200.00
G2 X-291.5850 Y-156.6250 Z-2.5000 I-1.5850 J0.0000 F1200.00
G2 X-288.4150 Y-156.6250 Z-2.5000 I1.5850 J0.0000 F1200.00
G0 Z3.0000
G0 X-286.8250 Y-156.6250
G0 Z3.0000
G1 Z0.0000 F1200.00
G2 X-293.1750 Y-156.6250 Z-0.6250 I-3.1750 J0.0000 F1200.00
G2 X-286.8250 Y-156.6250 Z-1.2500 I3.1750 J0.0000 F1200.00
G2 X-293.1750 Y-156.6250 Z-1.8750 I-3.1750 J0.0000 F1200.00
G2 X-286.8250 Y-156.6250 Z-2.5000 I3.1750 J0.0000 F1200.00
G2 X-293.1750 Y-156.6250 Z-2.5000 I-3.1750 J0.0000 F1200.00
G2 X-286.8250 Y-156.6250 Z-2.5000 I3.1750 J0.0000 F1200.00
G0 Z3.0000
G0 X-285.2350 Y-156.6250
G0 Z3.0000
G1 Z0.0000 F1200.00
G2 X-294.7650 Y-156.6250 Z-0.6250 I-4.7650 J0.0000 F1200.00
G2 X-285.2350 Y-156.6250 Z-1.2500 I4.7650 J0.0000 F1200.00
G2 X-294.7650 Y-156.6250 Z-1.8750 I-4.7650 J0.0000 F1200.00
G2 X-285.2350 Y-156.6250 Z-2.5000 I4.7650 J0.0000 F1200.00
G2 X-294.7650 Y-156.6250 Z-2.5000 I-4.7650 J0.0000 F1200.00
G2 X-285.2350 Y-156.6250 Z-2.5000 I4.7650 J0.0000 F1200.00
G0 Z3.0000
G0 X-288.4150 Y-23.3750
G0 Z3.0000
G1 Z0.0000 F1200.00
G2 X-291.5850 Y-23.3750 Z-0.6250 I-1.5850 J0.0000 F1200.00
G2 X-288.4150 Y-23.3750 Z-1.2500 I1.5850 J0.0000 F1200.00
G2 X-291.5850 Y-23.3750 Z-1.8750 I-1.5850 J0.0000 F1200.00
G2 X-288.4150 Y-23.3750 Z-2.5000 I1.5850 J0.0000 F1200.00
G2 X-291.5850 Y-23.3750 Z-2.5000 I-1.5850 J0.0000 F1200.00
G2 X-288.4150 Y-23.3750 Z-2.5000 I1.5850 J0.0000 F1200.00
G0 Z3.0000
G0 X-286.8250 Y-23.3750
G0 Z3.0000
G1 Z0.0000 F1200.00
G2 X-293.1750 Y-23.3750 Z-0.6250 I-3.1750 J0.0000 F1200.00
G2 X-286.8250 Y-23.3750 Z-1.2500 I3.1750 J0.0000 F1200.00
G2 X-293.1750 Y-23.3750 Z-1.8750 I-3.1750 J0.0000 F1200.00
G2 X-286.8250 Y-23.3750 Z-2.5000 I3.1750 J0.0000 F1200.00
G2 X-293.1750 Y-23.3750 Z-2.5000 I-3.1750 J0.0000 F1200.00
G2 X-286.8250 Y-23.3750 Z-2.5000 I3.1750 J0.0000 F1200.00
G0 Z3.0000
G0 X-285.2350 Y-23.3750
G0 Z3.0000
G1 Z0.0000 F1200.00
G2 X-294.7650 Y-23.3750 Z-0.6250 I-4.7650 J0.0000 F1200.00
G2 X-285.2350 Y-23.3750 Z-1.2500 I4.7650 J0.0000 F1200.00
G2 X-294.7650 Y-23.3750 Z-1.8750 I-4.7650 J0.0000 F1200.00
G2 X-285.2350 Y-23.3750 Z-2.5000 I4.7650 J0.0000 F1200.00
G2 X-294.7650 Y-23.3750 Z-2.5000 I-4.7650 J0.0000 F1200.00
G2 X-285.2350 Y-23.3750 Z-2.5000 I4.7650 J0.0000 F1200.00
G0 Z3.0000
G0 Z5.0000
(finish operation: Helix_countersink)
(begin operation: Helix_hole)
(Path: Helix_hole)
(Helix_hole)
(helix cut operation)
G0 Z5.0000
G0 X-288.2050 Y-23.3750
G0 Z3.0000
G1 Z0.0000 F1200.00
G2 X-291.7950 Y-23.3750 Z-1.2700 I-1.7950 J0.0000 F1200.00
G2 X-288.2050 Y-23.3750 Z-2.5400 I1.7950 J0.0000 F1200.00
G2 X-291.7950 Y-23.3750 Z-3.8100 I-1.7950 J0.0000 F1200.00
G2 X-288.2050 Y-23.3750 Z-5.0800 I1.7950 J0.0000 F1200.00
G2 X-291.7950 Y-23.3750 Z-6.3500 I-1.7950 J0.0000 F1200.00
G2 X-288.2050 Y-23.3750 Z-7.6200 I1.7950 J0.0000 F1200.00
G2 X-291.7950 Y-23.3750 Z-8.8900 I-1.7950 J0.0000 F1200.00
G2 X-288.2050 Y-23.3750 Z-10.1600 I1.7950 J0.0000 F1200.00
G2 X-291.7950 Y-23.3750 Z-11.4300 I-1.7950 J0.0000 F1200.00
G2 X-288.2050 Y-23.3750 Z-12.7000 I1.7950 J0.0000 F1200.00
G2 X-291.7950 Y-23.3750 Z-12.7000 I-1.7950 J0.0000 F1200.00
G2 X-288.2050 Y-23.3750 Z-12.7000 I1.7950 J0.0000 F1200.00
G0 Z3.0000
G0 X-288.2050 Y-156.6250
G0 Z3.0000
G1 Z0.0000 F1200.00
G2 X-291.7950 Y-156.6250 Z-1.2700 I-1.7950 J0.0000 F1200.00
G2 X-288.2050 Y-156.6250 Z-2.5400 I1.7950 J0.0000 F1200.00
G2 X-291.7950 Y-156.6250 Z-3.8100 I-1.7950 J0.0000 F1200.00
G2 X-288.2050 Y-156.6250 Z-5.0800 I1.7950 J0.0000 F1200.00
G2 X-291.7950 Y-156.6250 Z-6.3500 I-1.7950 J0.0000 F1200.00
G2 X-288.2050 Y-156.6250 Z-7.6200 I1.7950 J0.0000 F1200.00
G2 X-291.7950 Y-156.6250 Z-8.8900 I-1.7950 J0.0000 F1200.00
G2 X-288.2050 Y-156.6250 Z-10.1600 I1.7950 J0.0000 F1200.00
G2 X-291.7950 Y-156.6250 Z-11.4300 I-1.7950 J0.0000 F1200.00
G2 X-288.2050 Y-156.6250 Z-12.7000 I1.7950 J0.0000 F1200.00
G2 X-291.7950 Y-156.6250 Z-12.7000 I-1.7950 J0.0000 F1200.00
G2 X-288.2050 Y-156.6250 Z-12.7000 I1.7950 J0.0000 F1200.00
G0 Z3.0000
G0 X-8.2050 Y-156.6250
G0 Z3.0000
G1 Z0.0000 F1200.00
G2 X-11.7950 Y-156.6250 Z-1.2700 I-1.7950 J0.0000 F1200.00
G2 X-8.2050 Y-156.6250 Z-2.5400 I1.7950 J0.0000 F1200.00
G2 X-11.7950 Y-156.6250 Z-3.8100 I-1.7950 J0.0000 F1200.00
G2 X-8.2050 Y-156.6250 Z-5.0800 I1.7950 J0.0000 F1200.00
G2 X-11.7950 Y-156.6250 Z-6.3500 I-1.7950 J0.0000 F1200.00
G2 X-8.2050 Y-156.6250 Z-7.6200 I1.7950 J0.0000 F1200.00
G2 X-11.7950 Y-156.6250 Z-8.8900 I-1.7950 J0.0000 F1200.00
G2 X-8.2050 Y-156.6250 Z-10.1600 I1.7950 J0.0000 F1200.00
G2 X-11.7950 Y-156.6250 Z-11.4300 I-1.7950 J0.0000 F1200.00
G2 X-8.2050 Y-156.6250 Z-12.7000 I1.7950 J0.0000 F1200.00
G2 X-11.7950 Y-156.6250 Z-12.7000 I-1.7950 J0.0000 F1200.00
G2 X-8.2050 Y-156.6250 Z-12.7000 I1.7950 J0.0000 F1200.00
G0 Z3.0000
G0 X-8.2050 Y-23.3750
G0 Z3.0000
G1 Z0.0000 F1200.00
G2 X-11.7950 Y-23.3750 Z-1.2700 I-1.7950 J0.0000 F1200.00
G2 X-8.2050 Y-23.3750 Z-2.5400 I1.7950 J0.0000 F1200.00
G2 X-11.7950 Y-23.3750 Z-3.8100 I-1.7950 J0.0000 F1200.00
G2 X-8.2050 Y-23.3750 Z-5.0800 I1.7950 J0.0000 F1200.00
G2 X-11.7950 Y-23.3750 Z-6.3500 I-1.7950 J0.0000 F1200.00
G2 X-8.2050 Y-23.3750 Z-7.6200 I1.7950 J0.0000 F1200.00
G2 X-11.7950 Y-23.3750 Z-8.8900 I-1.7950 J0.0000 F1200.00
G2 X-8.2050 Y-23.3750 Z-10.1600 I1.7950 J0.0000 F1200.00
G2 X-11.7950 Y-23.3750 Z-11.4300 I-1.7950 J0.0000 F1200.00
G2 X-8.2050 Y-23.3750 Z-12.7000 I1.7950 J0.0000 F1200.00
G2 X-11.7950 Y-23.3750 Z-12.7000 I-1.7950 J0.0000 F1200.00
G2 X-8.2050 Y-23.3750 Z-12.7000 I1.7950 J0.0000 F1200.00
G0 Z3.0000
G0 Z5.0000
(finish operation: Helix_hole)
(begin postamble)
M5
G17 G90
; M2
