(Exported by FreeCAD)
(Post Processor: grbl_post)
(Output Time:2020-07-01 13:32:44.164749)
(begin preamble)
G17 G90
G21
(begin operation: T1: 1/8 inch two flute001)
(Path: T1: 1/8 inch two flute001)
(T1: 1/8 inch two flute001)
(begin toolchange)
; M6 T1
M3 S1000.0000
(finish operation: T1: 1/8 inch two flute001)
(begin operation: Helix_counterbore)
(Path: Helix_counterbore)
(Helix002)
(helix cut operation)
G0 Z5.0000
G0 X-36.2320 Y-27.5000
G0 Z3.0000
G1 Z0.0000 F1020.00
G2 X-38.7680 Y-27.5000 Z-0.6350 I-1.2680 J0.0000 F1020.00
G2 X-36.2320 Y-27.5000 Z-1.2700 I1.2680 J0.0000 F1020.00
G2 X-38.7680 Y-27.5000 Z-1.9050 I-1.2680 J0.0000 F1020.00
G2 X-36.2320 Y-27.5000 Z-2.5400 I1.2680 J0.0000 F1020.00
G2 X-38.7680 Y-27.5000 Z-2.5400 I-1.2680 J0.0000 F1020.00
G2 X-36.2320 Y-27.5000 Z-2.5400 I1.2680 J0.0000 F1020.00
G0 Z3.0000
G0 X-34.0080 Y-27.5000
G0 Z3.0000
G1 Z0.0000 F1020.00
G2 X-40.9920 Y-27.5000 Z-0.6350 I-3.4920 J0.0000 F1020.00
G2 X-34.0080 Y-27.5000 Z-1.2700 I3.4920 J0.0000 F1020.00
G2 X-40.9920 Y-27.5000 Z-1.9050 I-3.4920 J0.0000 F1020.00
G2 X-34.0080 Y-27.5000 Z-2.5400 I3.4920 J0.0000 F1020.00
G2 X-40.9920 Y-27.5000 Z-2.5400 I-3.4920 J0.0000 F1020.00
G2 X-34.0080 Y-27.5000 Z-2.5400 I3.4920 J0.0000 F1020.00
G0 Z3.0000
G0 X-31.7840 Y-27.5000
G0 Z3.0000
G1 Z0.0000 F1020.00
G2 X-43.2160 Y-27.5000 Z-0.6350 I-5.7160 J0.0000 F1020.00
G2 X-31.7840 Y-27.5000 Z-1.2700 I5.7160 J0.0000 F1020.00
G2 X-43.2160 Y-27.5000 Z-1.9050 I-5.7160 J0.0000 F1020.00
G2 X-31.7840 Y-27.5000 Z-2.5400 I5.7160 J0.0000 F1020.00
G2 X-43.2160 Y-27.5000 Z-2.5400 I-5.7160 J0.0000 F1020.00
G2 X-31.7840 Y-27.5000 Z-2.5400 I5.7160 J0.0000 F1020.00
G0 Z3.0000
G0 X-29.5600 Y-27.5000
G0 Z3.0000
G1 Z0.0000 F1020.00
G2 X-45.4400 Y-27.5000 Z-0.6350 I-7.9400 J0.0000 F1020.00
G2 X-29.5600 Y-27.5000 Z-1.2700 I7.9400 J0.0000 F1020.00
G2 X-45.4400 Y-27.5000 Z-1.9050 I-7.9400 J0.0000 F1020.00
G2 X-29.5600 Y-27.5000 Z-2.5400 I7.9400 J0.0000 F1020.00
G2 X-45.4400 Y-27.5000 Z-2.5400 I-7.9400 J0.0000 F1020.00
G2 X-29.5600 Y-27.5000 Z-2.5400 I7.9400 J0.0000 F1020.00
G0 Z3.0000
G0 X-36.2320 Y-52.5000
G0 Z3.0000
G1 Z0.0000 F1020.00
G2 X-38.7680 Y-52.5000 Z-0.6350 I-1.2680 J0.0000 F1020.00
G2 X-36.2320 Y-52.5000 Z-1.2700 I1.2680 J0.0000 F1020.00
G2 X-38.7680 Y-52.5000 Z-1.9050 I-1.2680 J0.0000 F1020.00
G2 X-36.2320 Y-52.5000 Z-2.5400 I1.2680 J0.0000 F1020.00
G2 X-38.7680 Y-52.5000 Z-2.5400 I-1.2680 J0.0000 F1020.00
G2 X-36.2320 Y-52.5000 Z-2.5400 I1.2680 J0.0000 F1020.00
G0 Z3.0000
G0 X-34.0080 Y-52.5000
G0 Z3.0000
G1 Z0.0000 F1020.00
G2 X-40.9920 Y-52.5000 Z-0.6350 I-3.4920 J0.0000 F1020.00
G2 X-34.0080 Y-52.5000 Z-1.2700 I3.4920 J0.0000 F1020.00
G2 X-40.9920 Y-52.5000 Z-1.9050 I-3.4920 J0.0000 F1020.00
G2 X-34.0080 Y-52.5000 Z-2.5400 I3.4920 J0.0000 F1020.00
G2 X-40.9920 Y-52.5000 Z-2.5400 I-3.4920 J0.0000 F1020.00
G2 X-34.0080 Y-52.5000 Z-2.5400 I3.4920 J0.0000 F1020.00
G0 Z3.0000
G0 X-31.7840 Y-52.5000
G0 Z3.0000
G1 Z0.0000 F1020.00
G2 X-43.2160 Y-52.5000 Z-0.6350 I-5.7160 J0.0000 F1020.00
G2 X-31.7840 Y-52.5000 Z-1.2700 I5.7160 J0.0000 F1020.00
G2 X-43.2160 Y-52.5000 Z-1.9050 I-5.7160 J0.0000 F1020.00
G2 X-31.7840 Y-52.5000 Z-2.5400 I5.7160 J0.0000 F1020.00
G2 X-43.2160 Y-52.5000 Z-2.5400 I-5.7160 J0.0000 F1020.00
G2 X-31.7840 Y-52.5000 Z-2.5400 I5.7160 J0.0000 F1020.00
G0 Z3.0000
G0 X-29.5600 Y-52.5000
G0 Z3.0000
G1 Z0.0000 F1020.00
G2 X-45.4400 Y-52.5000 Z-0.6350 I-7.9400 J0.0000 F1020.00
G2 X-29.5600 Y-52.5000 Z-1.2700 I7.9400 J0.0000 F1020.00
G2 X-45.4400 Y-52.5000 Z-1.9050 I-7.9400 J0.0000 F1020.00
G2 X-29.5600 Y-52.5000 Z-2.5400 I7.9400 J0.0000 F1020.00
G2 X-45.4400 Y-52.5000 Z-2.5400 I-7.9400 J0.0000 F1020.00
G2 X-29.5600 Y-52.5000 Z-2.5400 I7.9400 J0.0000 F1020.00
G0 Z3.0000
G0 X-36.2320 Y-77.5000
G0 Z3.0000
G1 Z0.0000 F1020.00
G2 X-38.7680 Y-77.5000 Z-0.6350 I-1.2680 J0.0000 F1020.00
G2 X-36.2320 Y-77.5000 Z-1.2700 I1.2680 J0.0000 F1020.00
G2 X-38.7680 Y-77.5000 Z-1.9050 I-1.2680 J0.0000 F1020.00
G2 X-36.2320 Y-77.5000 Z-2.5400 I1.2680 J0.0000 F1020.00
G2 X-38.7680 Y-77.5000 Z-2.5400 I-1.2680 J0.0000 F1020.00
G2 X-36.2320 Y-77.5000 Z-2.5400 I1.2680 J0.0000 F1020.00
G0 Z3.0000
G0 X-34.0080 Y-77.5000
G0 Z3.0000
G1 Z0.0000 F1020.00
G2 X-40.9920 Y-77.5000 Z-0.6350 I-3.4920 J0.0000 F1020.00
G2 X-34.0080 Y-77.5000 Z-1.2700 I3.4920 J0.0000 F1020.00
G2 X-40.9920 Y-77.5000 Z-1.9050 I-3.4920 J0.0000 F1020.00
G2 X-34.0080 Y-77.5000 Z-2.5400 I3.4920 J0.0000 F1020.00
G2 X-40.9920 Y-77.5000 Z-2.5400 I-3.4920 J0.0000 F1020.00
G2 X-34.0080 Y-77.5000 Z-2.5400 I3.4920 J0.0000 F1020.00
G0 Z3.0000
G0 X-31.7840 Y-77.5000
G0 Z3.0000
G1 Z0.0000 F1020.00
G2 X-43.2160 Y-77.5000 Z-0.6350 I-5.7160 J0.0000 F1020.00
G2 X-31.7840 Y-77.5000 Z-1.2700 I5.7160 J0.0000 F1020.00
G2 X-43.2160 Y-77.5000 Z-1.9050 I-5.7160 J0.0000 F1020.00
G2 X-31.7840 Y-77.5000 Z-2.5400 I5.7160 J0.0000 F1020.00
G2 X-43.2160 Y-77.5000 Z-2.5400 I-5.7160 J0.0000 F1020.00
G2 X-31.7840 Y-77.5000 Z-2.5400 I5.7160 J0.0000 F1020.00
G0 Z3.0000
G0 X-29.5600 Y-77.5000
G0 Z3.0000
G1 Z0.0000 F1020.00
G2 X-45.4400 Y-77.5000 Z-0.6350 I-7.9400 J0.0000 F1020.00
G2 X-29.5600 Y-77.5000 Z-1.2700 I7.9400 J0.0000 F1020.00
G2 X-45.4400 Y-77.5000 Z-1.9050 I-7.9400 J0.0000 F1020.00
G2 X-29.5600 Y-77.5000 Z-2.5400 I7.9400 J0.0000 F1020.00
G2 X-45.4400 Y-77.5000 Z-2.5400 I-7.9400 J0.0000 F1020.00
G2 X-29.5600 Y-77.5000 Z-2.5400 I7.9400 J0.0000 F1020.00
G0 Z3.0000
G0 X-36.2320 Y-102.5000
G0 Z3.0000
G1 Z0.0000 F1020.00
G2 X-38.7680 Y-102.5000 Z-0.6350 I-1.2680 J0.0000 F1020.00
G2 X-36.2320 Y-102.5000 Z-1.2700 I1.2680 J0.0000 F1020.00
G2 X-38.7680 Y-102.5000 Z-1.9050 I-1.2680 J0.0000 F1020.00
G2 X-36.2320 Y-102.5000 Z-2.5400 I1.2680 J0.0000 F1020.00
G2 X-38.7680 Y-102.5000 Z-2.5400 I-1.2680 J0.0000 F1020.00
G2 X-36.2320 Y-102.5000 Z-2.5400 I1.2680 J0.0000 F1020.00
G0 Z3.0000
G0 X-34.0080 Y-102.5000
G0 Z3.0000
G1 Z0.0000 F1020.00
G2 X-40.9920 Y-102.5000 Z-0.6350 I-3.4920 J0.0000 F1020.00
G2 X-34.0080 Y-102.5000 Z-1.2700 I3.4920 J0.0000 F1020.00
G2 X-40.9920 Y-102.5000 Z-1.9050 I-3.4920 J0.0000 F1020.00
G2 X-34.0080 Y-102.5000 Z-2.5400 I3.4920 J0.0000 F1020.00
G2 X-40.9920 Y-102.5000 Z-2.5400 I-3.4920 J0.0000 F1020.00
G2 X-34.0080 Y-102.5000 Z-2.5400 I3.4920 J0.0000 F1020.00
G0 Z3.0000
G0 X-31.7840 Y-102.5000
G0 Z3.0000
G1 Z0.0000 F1020.00
G2 X-43.2160 Y-102.5000 Z-0.6350 I-5.7160 J0.0000 F1020.00
G2 X-31.7840 Y-102.5000 Z-1.2700 I5.7160 J0.0000 F1020.00
G2 X-43.2160 Y-102.5000 Z-1.9050 I-5.7160 J0.0000 F1020.00
G2 X-31.7840 Y-102.5000 Z-2.5400 I5.7160 J0.0000 F1020.00
G2 X-43.2160 Y-102.5000 Z-2.5400 I-5.7160 J0.0000 F1020.00
G2 X-31.7840 Y-102.5000 Z-2.5400 I5.7160 J0.0000 F1020.00
G0 Z3.0000
G0 X-29.5600 Y-102.5000
G0 Z3.0000
G1 Z0.0000 F1020.00
G2 X-45.4400 Y-102.5000 Z-0.6350 I-7.9400 J0.0000 F1020.00
G2 X-29.5600 Y-102.5000 Z-1.2700 I7.9400 J0.0000 F1020.00
G2 X-45.4400 Y-102.5000 Z-1.9050 I-7.9400 J0.0000 F1020.00
G2 X-29.5600 Y-102.5000 Z-2.5400 I7.9400 J0.0000 F1020.00
G2 X-45.4400 Y-102.5000 Z-2.5400 I-7.9400 J0.0000 F1020.00
G2 X-29.5600 Y-102.5000 Z-2.5400 I7.9400 J0.0000 F1020.00
G0 Z3.0000
G0 X-36.2320 Y-127.5000
G0 Z3.0000
G1 Z0.0000 F1020.00
G2 X-38.7680 Y-127.5000 Z-0.6350 I-1.2680 J0.0000 F1020.00
G2 X-36.2320 Y-127.5000 Z-1.2700 I1.2680 J0.0000 F1020.00
G2 X-38.7680 Y-127.5000 Z-1.9050 I-1.2680 J0.0000 F1020.00
G2 X-36.2320 Y-127.5000 Z-2.5400 I1.2680 J0.0000 F1020.00
G2 X-38.7680 Y-127.5000 Z-2.5400 I-1.2680 J0.0000 F1020.00
G2 X-36.2320 Y-127.5000 Z-2.5400 I1.2680 J0.0000 F1020.00
G0 Z3.0000
G0 X-34.0080 Y-127.5000
G0 Z3.0000
G1 Z0.0000 F1020.00
G2 X-40.9920 Y-127.5000 Z-0.6350 I-3.4920 J0.0000 F1020.00
G2 X-34.0080 Y-127.5000 Z-1.2700 I3.4920 J0.0000 F1020.00
G2 X-40.9920 Y-127.5000 Z-1.9050 I-3.4920 J0.0000 F1020.00
G2 X-34.0080 Y-127.5000 Z-2.5400 I3.4920 J0.0000 F1020.00
G2 X-40.9920 Y-127.5000 Z-2.5400 I-3.4920 J0.0000 F1020.00
G2 X-34.0080 Y-127.5000 Z-2.5400 I3.4920 J0.0000 F1020.00
G0 Z3.0000
G0 X-31.7840 Y-127.5000
G0 Z3.0000
G1 Z0.0000 F1020.00
G2 X-43.2160 Y-127.5000 Z-0.6350 I-5.7160 J0.0000 F1020.00
G2 X-31.7840 Y-127.5000 Z-1.2700 I5.7160 J0.0000 F1020.00
G2 X-43.2160 Y-127.5000 Z-1.9050 I-5.7160 J0.0000 F1020.00
G2 X-31.7840 Y-127.5000 Z-2.5400 I5.7160 J0.0000 F1020.00
G2 X-43.2160 Y-127.5000 Z-2.5400 I-5.7160 J0.0000 F1020.00
G2 X-31.7840 Y-127.5000 Z-2.5400 I5.7160 J0.0000 F1020.00
G0 Z3.0000
G0 X-29.5600 Y-127.5000
G0 Z3.0000
G1 Z0.0000 F1020.00
G2 X-45.4400 Y-127.5000 Z-0.6350 I-7.9400 J0.0000 F1020.00
G2 X-29.5600 Y-127.5000 Z-1.2700 I7.9400 J0.0000 F1020.00
G2 X-45.4400 Y-127.5000 Z-1.9050 I-7.9400 J0.0000 F1020.00
G2 X-29.5600 Y-127.5000 Z-2.5400 I7.9400 J0.0000 F1020.00
G2 X-45.4400 Y-127.5000 Z-2.5400 I-7.9400 J0.0000 F1020.00
G2 X-29.5600 Y-127.5000 Z-2.5400 I7.9400 J0.0000 F1020.00
G0 Z3.0000
G0 X-36.2320 Y-152.5000
G0 Z3.0000
G1 Z0.0000 F1020.00
G2 X-38.7680 Y-152.5000 Z-0.6350 I-1.2680 J0.0000 F1020.00
G2 X-36.2320 Y-152.5000 Z-1.2700 I1.2680 J0.0000 F1020.00
G2 X-38.7680 Y-152.5000 Z-1.9050 I-1.2680 J0.0000 F1020.00
G2 X-36.2320 Y-152.5000 Z-2.5400 I1.2680 J0.0000 F1020.00
G2 X-38.7680 Y-152.5000 Z-2.5400 I-1.2680 J0.0000 F1020.00
G2 X-36.2320 Y-152.5000 Z-2.5400 I1.2680 J0.0000 F1020.00
G0 Z3.0000
G0 X-34.0080 Y-152.5000
G0 Z3.0000
G1 Z0.0000 F1020.00
G2 X-40.9920 Y-152.5000 Z-0.6350 I-3.4920 J0.0000 F1020.00
G2 X-34.0080 Y-152.5000 Z-1.2700 I3.4920 J0.0000 F1020.00
G2 X-40.9920 Y-152.5000 Z-1.9050 I-3.4920 J0.0000 F1020.00
G2 X-34.0080 Y-152.5000 Z-2.5400 I3.4920 J0.0000 F1020.00
G2 X-40.9920 Y-152.5000 Z-2.5400 I-3.4920 J0.0000 F1020.00
G2 X-34.0080 Y-152.5000 Z-2.5400 I3.4920 J0.0000 F1020.00
G0 Z3.0000
G0 X-31.7840 Y-152.5000
G0 Z3.0000
G1 Z0.0000 F1020.00
G2 X-43.2160 Y-152.5000 Z-0.6350 I-5.7160 J0.0000 F1020.00
G2 X-31.7840 Y-152.5000 Z-1.2700 I5.7160 J0.0000 F1020.00
G2 X-43.2160 Y-152.5000 Z-1.9050 I-5.7160 J0.0000 F1020.00
G2 X-31.7840 Y-152.5000 Z-2.5400 I5.7160 J0.0000 F1020.00
G2 X-43.2160 Y-152.5000 Z-2.5400 I-5.7160 J0.0000 F1020.00
G2 X-31.7840 Y-152.5000 Z-2.5400 I5.7160 J0.0000 F1020.00
G0 Z3.0000
G0 X-29.5600 Y-152.5000
G0 Z3.0000
G1 Z0.0000 F1020.00
G2 X-45.4400 Y-152.5000 Z-0.6350 I-7.9400 J0.0000 F1020.00
G2 X-29.5600 Y-152.5000 Z-1.2700 I7.9400 J0.0000 F1020.00
G2 X-45.4400 Y-152.5000 Z-1.9050 I-7.9400 J0.0000 F1020.00
G2 X-29.5600 Y-152.5000 Z-2.5400 I7.9400 J0.0000 F1020.00
G2 X-45.4400 Y-152.5000 Z-2.5400 I-7.9400 J0.0000 F1020.00
G2 X-29.5600 Y-152.5000 Z-2.5400 I7.9400 J0.0000 F1020.00
G0 Z3.0000
G0 X-61.2320 Y-152.5000
G0 Z3.0000
G1 Z0.0000 F1020.00
G2 X-63.7680 Y-152.5000 Z-0.6350 I-1.2680 J0.0000 F1020.00
G2 X-61.2320 Y-152.5000 Z-1.2700 I1.2680 J0.0000 F1020.00
G2 X-63.7680 Y-152.5000 Z-1.9050 I-1.2680 J0.0000 F1020.00
G2 X-61.2320 Y-152.5000 Z-2.5400 I1.2680 J0.0000 F1020.00
G2 X-63.7680 Y-152.5000 Z-2.5400 I-1.2680 J0.0000 F1020.00
G2 X-61.2320 Y-152.5000 Z-2.5400 I1.2680 J0.0000 F1020.00
G0 Z3.0000
G0 X-59.0080 Y-152.5000
G0 Z3.0000
G1 Z0.0000 F1020.00
G2 X-65.9920 Y-152.5000 Z-0.6350 I-3.4920 J0.0000 F1020.00
G2 X-59.0080 Y-152.5000 Z-1.2700 I3.4920 J0.0000 F1020.00
G2 X-65.9920 Y-152.5000 Z-1.9050 I-3.4920 J0.0000 F1020.00
G2 X-59.0080 Y-152.5000 Z-2.5400 I3.4920 J0.0000 F1020.00
G2 X-65.9920 Y-152.5000 Z-2.5400 I-3.4920 J0.0000 F1020.00
G2 X-59.0080 Y-152.5000 Z-2.5400 I3.4920 J0.0000 F1020.00
G0 Z3.0000
G0 X-56.7840 Y-152.5000
G0 Z3.0000
G1 Z0.0000 F1020.00
G2 X-68.2160 Y-152.5000 Z-0.6350 I-5.7160 J0.0000 F1020.00
G2 X-56.7840 Y-152.5000 Z-1.2700 I5.7160 J0.0000 F1020.00
G2 X-68.2160 Y-152.5000 Z-1.9050 I-5.7160 J0.0000 F1020.00
G2 X-56.7840 Y-152.5000 Z-2.5400 I5.7160 J0.0000 F1020.00
G2 X-68.2160 Y-152.5000 Z-2.5400 I-5.7160 J0.0000 F1020.00
G2 X-56.7840 Y-152.5000 Z-2.5400 I5.7160 J0.0000 F1020.00
G0 Z3.0000
G0 X-54.5600 Y-152.5000
G0 Z3.0000
G1 Z0.0000 F1020.00
G2 X-70.4400 Y-152.5000 Z-0.6350 I-7.9400 J0.0000 F1020.00
G2 X-54.5600 Y-152.5000 Z-1.2700 I7.9400 J0.0000 F1020.00
G2 X-70.4400 Y-152.5000 Z-1.9050 I-7.9400 J0.0000 F1020.00
G2 X-54.5600 Y-152.5000 Z-2.5400 I7.9400 J0.0000 F1020.00
G2 X-70.4400 Y-152.5000 Z-2.5400 I-7.9400 J0.0000 F1020.00
G2 X-54.5600 Y-152.5000 Z-2.5400 I7.9400 J0.0000 F1020.00
G0 Z3.0000
G0 X-61.2320 Y-127.5000
G0 Z3.0000
G1 Z0.0000 F1020.00
G2 X-63.7680 Y-127.5000 Z-0.6350 I-1.2680 J0.0000 F1020.00
G2 X-61.2320 Y-127.5000 Z-1.2700 I1.2680 J0.0000 F1020.00
G2 X-63.7680 Y-127.5000 Z-1.9050 I-1.2680 J0.0000 F1020.00
G2 X-61.2320 Y-127.5000 Z-2.5400 I1.2680 J0.0000 F1020.00
G2 X-63.7680 Y-127.5000 Z-2.5400 I-1.2680 J0.0000 F1020.00
G2 X-61.2320 Y-127.5000 Z-2.5400 I1.2680 J0.0000 F1020.00
G0 Z3.0000
G0 X-59.0080 Y-127.5000
G0 Z3.0000
G1 Z0.0000 F1020.00
G2 X-65.9920 Y-127.5000 Z-0.6350 I-3.4920 J0.0000 F1020.00
G2 X-59.0080 Y-127.5000 Z-1.2700 I3.4920 J0.0000 F1020.00
G2 X-65.9920 Y-127.5000 Z-1.9050 I-3.4920 J0.0000 F1020.00
G2 X-59.0080 Y-127.5000 Z-2.5400 I3.4920 J0.0000 F1020.00
G2 X-65.9920 Y-127.5000 Z-2.5400 I-3.4920 J0.0000 F1020.00
G2 X-59.0080 Y-127.5000 Z-2.5400 I3.4920 J0.0000 F1020.00
G0 Z3.0000
G0 X-56.7840 Y-127.5000
G0 Z3.0000
G1 Z0.0000 F1020.00
G2 X-68.2160 Y-127.5000 Z-0.6350 I-5.7160 J0.0000 F1020.00
G2 X-56.7840 Y-127.5000 Z-1.2700 I5.7160 J0.0000 F1020.00
G2 X-68.2160 Y-127.5000 Z-1.9050 I-5.7160 J0.0000 F1020.00
G2 X-56.7840 Y-127.5000 Z-2.5400 I5.7160 J0.0000 F1020.00
G2 X-68.2160 Y-127.5000 Z-2.5400 I-5.7160 J0.0000 F1020.00
G2 X-56.7840 Y-127.5000 Z-2.5400 I5.7160 J0.0000 F1020.00
G0 Z3.0000
G0 X-54.5600 Y-127.5000
G0 Z3.0000
G1 Z0.0000 F1020.00
G2 X-70.4400 Y-127.5000 Z-0.6350 I-7.9400 J0.0000 F1020.00
G2 X-54.5600 Y-127.5000 Z-1.2700 I7.9400 J0.0000 F1020.00
G2 X-70.4400 Y-127.5000 Z-1.9050 I-7.9400 J0.0000 F1020.00
G2 X-54.5600 Y-127.5000 Z-2.5400 I7.9400 J0.0000 F1020.00
G2 X-70.4400 Y-127.5000 Z-2.5400 I-7.9400 J0.0000 F1020.00
G2 X-54.5600 Y-127.5000 Z-2.5400 I7.9400 J0.0000 F1020.00
G0 Z3.0000
G0 X-61.2320 Y-102.5000
G0 Z3.0000
G1 Z0.0000 F1020.00
G2 X-63.7680 Y-102.5000 Z-0.6350 I-1.2680 J0.0000 F1020.00
G2 X-61.2320 Y-102.5000 Z-1.2700 I1.2680 J0.0000 F1020.00
G2 X-63.7680 Y-102.5000 Z-1.9050 I-1.2680 J0.0000 F1020.00
G2 X-61.2320 Y-102.5000 Z-2.5400 I1.2680 J0.0000 F1020.00
G2 X-63.7680 Y-102.5000 Z-2.5400 I-1.2680 J0.0000 F1020.00
G2 X-61.2320 Y-102.5000 Z-2.5400 I1.2680 J0.0000 F1020.00
G0 Z3.0000
G0 X-59.0080 Y-102.5000
G0 Z3.0000
G1 Z0.0000 F1020.00
G2 X-65.9920 Y-102.5000 Z-0.6350 I-3.4920 J0.0000 F1020.00
G2 X-59.0080 Y-102.5000 Z-1.2700 I3.4920 J0.0000 F1020.00
G2 X-65.9920 Y-102.5000 Z-1.9050 I-3.4920 J0.0000 F1020.00
G2 X-59.0080 Y-102.5000 Z-2.5400 I3.4920 J0.0000 F1020.00
G2 X-65.9920 Y-102.5000 Z-2.5400 I-3.4920 J0.0000 F1020.00
G2 X-59.0080 Y-102.5000 Z-2.5400 I3.4920 J0.0000 F1020.00
G0 Z3.0000
G0 X-56.7840 Y-102.5000
G0 Z3.0000
G1 Z0.0000 F1020.00
G2 X-68.2160 Y-102.5000 Z-0.6350 I-5.7160 J0.0000 F1020.00
G2 X-56.7840 Y-102.5000 Z-1.2700 I5.7160 J0.0000 F1020.00
G2 X-68.2160 Y-102.5000 Z-1.9050 I-5.7160 J0.0000 F1020.00
G2 X-56.7840 Y-102.5000 Z-2.5400 I5.7160 J0.0000 F1020.00
G2 X-68.2160 Y-102.5000 Z-2.5400 I-5.7160 J0.0000 F1020.00
G2 X-56.7840 Y-102.5000 Z-2.5400 I5.7160 J0.0000 F1020.00
G0 Z3.0000
G0 X-54.5600 Y-102.5000
G0 Z3.0000
G1 Z0.0000 F1020.00
G2 X-70.4400 Y-102.5000 Z-0.6350 I-7.9400 J0.0000 F1020.00
G2 X-54.5600 Y-102.5000 Z-1.2700 I7.9400 J0.0000 F1020.00
G2 X-70.4400 Y-102.5000 Z-1.9050 I-7.9400 J0.0000 F1020.00
G2 X-54.5600 Y-102.5000 Z-2.5400 I7.9400 J0.0000 F1020.00
G2 X-70.4400 Y-102.5000 Z-2.5400 I-7.9400 J0.0000 F1020.00
G2 X-54.5600 Y-102.5000 Z-2.5400 I7.9400 J0.0000 F1020.00
G0 Z3.0000
G0 X-61.2320 Y-77.5000
G0 Z3.0000
G1 Z0.0000 F1020.00
G2 X-63.7680 Y-77.5000 Z-0.6350 I-1.2680 J0.0000 F1020.00
G2 X-61.2320 Y-77.5000 Z-1.2700 I1.2680 J0.0000 F1020.00
G2 X-63.7680 Y-77.5000 Z-1.9050 I-1.2680 J0.0000 F1020.00
G2 X-61.2320 Y-77.5000 Z-2.5400 I1.2680 J0.0000 F1020.00
G2 X-63.7680 Y-77.5000 Z-2.5400 I-1.2680 J0.0000 F1020.00
G2 X-61.2320 Y-77.5000 Z-2.5400 I1.2680 J0.0000 F1020.00
G0 Z3.0000
G0 X-59.0080 Y-77.5000
G0 Z3.0000
G1 Z0.0000 F1020.00
G2 X-65.9920 Y-77.5000 Z-0.6350 I-3.4920 J0.0000 F1020.00
G2 X-59.0080 Y-77.5000 Z-1.2700 I3.4920 J0.0000 F1020.00
G2 X-65.9920 Y-77.5000 Z-1.9050 I-3.4920 J0.0000 F1020.00
G2 X-59.0080 Y-77.5000 Z-2.5400 I3.4920 J0.0000 F1020.00
G2 X-65.9920 Y-77.5000 Z-2.5400 I-3.4920 J0.0000 F1020.00
G2 X-59.0080 Y-77.5000 Z-2.5400 I3.4920 J0.0000 F1020.00
G0 Z3.0000
G0 X-56.7840 Y-77.5000
G0 Z3.0000
G1 Z0.0000 F1020.00
G2 X-68.2160 Y-77.5000 Z-0.6350 I-5.7160 J0.0000 F1020.00
G2 X-56.7840 Y-77.5000 Z-1.2700 I5.7160 J0.0000 F1020.00
G2 X-68.2160 Y-77.5000 Z-1.9050 I-5.7160 J0.0000 F1020.00
G2 X-56.7840 Y-77.5000 Z-2.5400 I5.7160 J0.0000 F1020.00
G2 X-68.2160 Y-77.5000 Z-2.5400 I-5.7160 J0.0000 F1020.00
G2 X-56.7840 Y-77.5000 Z-2.5400 I5.7160 J0.0000 F1020.00
G0 Z3.0000
G0 X-54.5600 Y-77.5000
G0 Z3.0000
G1 Z0.0000 F1020.00
G2 X-70.4400 Y-77.5000 Z-0.6350 I-7.9400 J0.0000 F1020.00
G2 X-54.5600 Y-77.5000 Z-1.2700 I7.9400 J0.0000 F1020.00
G2 X-70.4400 Y-77.5000 Z-1.9050 I-7.9400 J0.0000 F1020.00
G2 X-54.5600 Y-77.5000 Z-2.5400 I7.9400 J0.0000 F1020.00
G2 X-70.4400 Y-77.5000 Z-2.5400 I-7.9400 J0.0000 F1020.00
G2 X-54.5600 Y-77.5000 Z-2.5400 I7.9400 J0.0000 F1020.00
G0 Z3.0000
G0 X-61.2320 Y-52.5000
G0 Z3.0000
G1 Z0.0000 F1020.00
G2 X-63.7680 Y-52.5000 Z-0.6350 I-1.2680 J0.0000 F1020.00
G2 X-61.2320 Y-52.5000 Z-1.2700 I1.2680 J0.0000 F1020.00
G2 X-63.7680 Y-52.5000 Z-1.9050 I-1.2680 J0.0000 F1020.00
G2 X-61.2320 Y-52.5000 Z-2.5400 I1.2680 J0.0000 F1020.00
G2 X-63.7680 Y-52.5000 Z-2.5400 I-1.2680 J0.0000 F1020.00
G2 X-61.2320 Y-52.5000 Z-2.5400 I1.2680 J0.0000 F1020.00
G0 Z3.0000
G0 X-59.0080 Y-52.5000
G0 Z3.0000
G1 Z0.0000 F1020.00
G2 X-65.9920 Y-52.5000 Z-0.6350 I-3.4920 J0.0000 F1020.00
G2 X-59.0080 Y-52.5000 Z-1.2700 I3.4920 J0.0000 F1020.00
G2 X-65.9920 Y-52.5000 Z-1.9050 I-3.4920 J0.0000 F1020.00
G2 X-59.0080 Y-52.5000 Z-2.5400 I3.4920 J0.0000 F1020.00
G2 X-65.9920 Y-52.5000 Z-2.5400 I-3.4920 J0.0000 F1020.00
G2 X-59.0080 Y-52.5000 Z-2.5400 I3.4920 J0.0000 F1020.00
G0 Z3.0000
G0 X-56.7840 Y-52.5000
G0 Z3.0000
G1 Z0.0000 F1020.00
G2 X-68.2160 Y-52.5000 Z-0.6350 I-5.7160 J0.0000 F1020.00
G2 X-56.7840 Y-52.5000 Z-1.2700 I5.7160 J0.0000 F1020.00
G2 X-68.2160 Y-52.5000 Z-1.9050 I-5.7160 J0.0000 F1020.00
G2 X-56.7840 Y-52.5000 Z-2.5400 I5.7160 J0.0000 F1020.00
G2 X-68.2160 Y-52.5000 Z-2.5400 I-5.7160 J0.0000 F1020.00
G2 X-56.7840 Y-52.5000 Z-2.5400 I5.7160 J0.0000 F1020.00
G0 Z3.0000
G0 X-54.5600 Y-52.5000
G0 Z3.0000
G1 Z0.0000 F1020.00
G2 X-70.4400 Y-52.5000 Z-0.6350 I-7.9400 J0.0000 F1020.00
G2 X-54.5600 Y-52.5000 Z-1.2700 I7.9400 J0.0000 F1020.00
G2 X-70.4400 Y-52.5000 Z-1.9050 I-7.9400 J0.0000 F1020.00
G2 X-54.5600 Y-52.5000 Z-2.5400 I7.9400 J0.0000 F1020.00
G2 X-70.4400 Y-52.5000 Z-2.5400 I-7.9400 J0.0000 F1020.00
G2 X-54.5600 Y-52.5000 Z-2.5400 I7.9400 J0.0000 F1020.00
G0 Z3.0000
G0 X-61.2320 Y-27.5000
G0 Z3.0000
G1 Z0.0000 F1020.00
G2 X-63.7680 Y-27.5000 Z-0.6350 I-1.2680 J0.0000 F1020.00
G2 X-61.2320 Y-27.5000 Z-1.2700 I1.2680 J0.0000 F1020.00
G2 X-63.7680 Y-27.5000 Z-1.9050 I-1.2680 J0.0000 F1020.00
G2 X-61.2320 Y-27.5000 Z-2.5400 I1.2680 J0.0000 F1020.00
G2 X-63.7680 Y-27.5000 Z-2.5400 I-1.2680 J0.0000 F1020.00
G2 X-61.2320 Y-27.5000 Z-2.5400 I1.2680 J0.0000 F1020.00
G0 Z3.0000
G0 X-59.0080 Y-27.5000
G0 Z3.0000
G1 Z0.0000 F1020.00
G2 X-65.9920 Y-27.5000 Z-0.6350 I-3.4920 J0.0000 F1020.00
G2 X-59.0080 Y-27.5000 Z-1.2700 I3.4920 J0.0000 F1020.00
G2 X-65.9920 Y-27.5000 Z-1.9050 I-3.4920 J0.0000 F1020.00
G2 X-59.0080 Y-27.5000 Z-2.5400 I3.4920 J0.0000 F1020.00
G2 X-65.9920 Y-27.5000 Z-2.5400 I-3.4920 J0.0000 F1020.00
G2 X-59.0080 Y-27.5000 Z-2.5400 I3.4920 J0.0000 F1020.00
G0 Z3.0000
G0 X-56.7840 Y-27.5000
G0 Z3.0000
G1 Z0.0000 F1020.00
G2 X-68.2160 Y-27.5000 Z-0.6350 I-5.7160 J0.0000 F1020.00
G2 X-56.7840 Y-27.5000 Z-1.2700 I5.7160 J0.0000 F1020.00
G2 X-68.2160 Y-27.5000 Z-1.9050 I-5.7160 J0.0000 F1020.00
G2 X-56.7840 Y-27.5000 Z-2.5400 I5.7160 J0.0000 F1020.00
G2 X-68.2160 Y-27.5000 Z-2.5400 I-5.7160 J0.0000 F1020.00
G2 X-56.7840 Y-27.5000 Z-2.5400 I5.7160 J0.0000 F1020.00
G0 Z3.0000
G0 X-54.5600 Y-27.5000
G0 Z3.0000
G1 Z0.0000 F1020.00
G2 X-70.4400 Y-27.5000 Z-0.6350 I-7.9400 J0.0000 F1020.00
G2 X-54.5600 Y-27.5000 Z-1.2700 I7.9400 J0.0000 F1020.00
G2 X-70.4400 Y-27.5000 Z-1.9050 I-7.9400 J0.0000 F1020.00
G2 X-54.5600 Y-27.5000 Z-2.5400 I7.9400 J0.0000 F1020.00
G2 X-70.4400 Y-27.5000 Z-2.5400 I-7.9400 J0.0000 F1020.00
G2 X-54.5600 Y-27.5000 Z-2.5400 I7.9400 J0.0000 F1020.00
G0 Z3.0000
G0 X-86.2320 Y-27.5000
G0 Z3.0000
G1 Z0.0000 F1020.00
G2 X-88.7680 Y-27.5000 Z-0.6350 I-1.2680 J0.0000 F1020.00
G2 X-86.2320 Y-27.5000 Z-1.2700 I1.2680 J0.0000 F1020.00
G2 X-88.7680 Y-27.5000 Z-1.9050 I-1.2680 J0.0000 F1020.00
G2 X-86.2320 Y-27.5000 Z-2.5400 I1.2680 J0.0000 F1020.00
G2 X-88.7680 Y-27.5000 Z-2.5400 I-1.2680 J0.0000 F1020.00
G2 X-86.2320 Y-27.5000 Z-2.5400 I1.2680 J0.0000 F1020.00
G0 Z3.0000
G0 X-84.0080 Y-27.5000
G0 Z3.0000
G1 Z0.0000 F1020.00
G2 X-90.9920 Y-27.5000 Z-0.6350 I-3.4920 J0.0000 F1020.00
G2 X-84.0080 Y-27.5000 Z-1.2700 I3.4920 J0.0000 F1020.00
G2 X-90.9920 Y-27.5000 Z-1.9050 I-3.4920 J0.0000 F1020.00
G2 X-84.0080 Y-27.5000 Z-2.5400 I3.4920 J0.0000 F1020.00
G2 X-90.9920 Y-27.5000 Z-2.5400 I-3.4920 J0.0000 F1020.00
G2 X-84.0080 Y-27.5000 Z-2.5400 I3.4920 J0.0000 F1020.00
G0 Z3.0000
G0 X-81.7840 Y-27.5000
G0 Z3.0000
G1 Z0.0000 F1020.00
G2 X-93.2160 Y-27.5000 Z-0.6350 I-5.7160 J0.0000 F1020.00
G2 X-81.7840 Y-27.5000 Z-1.2700 I5.7160 J0.0000 F1020.00
G2 X-93.2160 Y-27.5000 Z-1.9050 I-5.7160 J0.0000 F1020.00
G2 X-81.7840 Y-27.5000 Z-2.5400 I5.7160 J0.0000 F1020.00
G2 X-93.2160 Y-27.5000 Z-2.5400 I-5.7160 J0.0000 F1020.00
G2 X-81.7840 Y-27.5000 Z-2.5400 I5.7160 J0.0000 F1020.00
G0 Z3.0000
G0 X-79.5600 Y-27.5000
G0 Z3.0000
G1 Z0.0000 F1020.00
G2 X-95.4400 Y-27.5000 Z-0.6350 I-7.9400 J0.0000 F1020.00
G2 X-79.5600 Y-27.5000 Z-1.2700 I7.9400 J0.0000 F1020.00
G2 X-95.4400 Y-27.5000 Z-1.9050 I-7.9400 J0.0000 F1020.00
G2 X-79.5600 Y-27.5000 Z-2.5400 I7.9400 J0.0000 F1020.00
G2 X-95.4400 Y-27.5000 Z-2.5400 I-7.9400 J0.0000 F1020.00
G2 X-79.5600 Y-27.5000 Z-2.5400 I7.9400 J0.0000 F1020.00
G0 Z3.0000
G0 X-86.2320 Y-52.5000
G0 Z3.0000
G1 Z0.0000 F1020.00
G2 X-88.7680 Y-52.5000 Z-0.6350 I-1.2680 J0.0000 F1020.00
G2 X-86.2320 Y-52.5000 Z-1.2700 I1.2680 J0.0000 F1020.00
G2 X-88.7680 Y-52.5000 Z-1.9050 I-1.2680 J0.0000 F1020.00
G2 X-86.2320 Y-52.5000 Z-2.5400 I1.2680 J0.0000 F1020.00
G2 X-88.7680 Y-52.5000 Z-2.5400 I-1.2680 J0.0000 F1020.00
G2 X-86.2320 Y-52.5000 Z-2.5400 I1.2680 J0.0000 F1020.00
G0 Z3.0000
G0 X-84.0080 Y-52.5000
G0 Z3.0000
G1 Z0.0000 F1020.00
G2 X-90.9920 Y-52.5000 Z-0.6350 I-3.4920 J0.0000 F1020.00
G2 X-84.0080 Y-52.5000 Z-1.2700 I3.4920 J0.0000 F1020.00
G2 X-90.9920 Y-52.5000 Z-1.9050 I-3.4920 J0.0000 F1020.00
G2 X-84.0080 Y-52.5000 Z-2.5400 I3.4920 J0.0000 F1020.00
G2 X-90.9920 Y-52.5000 Z-2.5400 I-3.4920 J0.0000 F1020.00
G2 X-84.0080 Y-52.5000 Z-2.5400 I3.4920 J0.0000 F1020.00
G0 Z3.0000
G0 X-81.7840 Y-52.5000
G0 Z3.0000
G1 Z0.0000 F1020.00
G2 X-93.2160 Y-52.5000 Z-0.6350 I-5.7160 J0.0000 F1020.00
G2 X-81.7840 Y-52.5000 Z-1.2700 I5.7160 J0.0000 F1020.00
G2 X-93.2160 Y-52.5000 Z-1.9050 I-5.7160 J0.0000 F1020.00
G2 X-81.7840 Y-52.5000 Z-2.5400 I5.7160 J0.0000 F1020.00
G2 X-93.2160 Y-52.5000 Z-2.5400 I-5.7160 J0.0000 F1020.00
G2 X-81.7840 Y-52.5000 Z-2.5400 I5.7160 J0.0000 F1020.00
G0 Z3.0000
G0 X-79.5600 Y-52.5000
G0 Z3.0000
G1 Z0.0000 F1020.00
G2 X-95.4400 Y-52.5000 Z-0.6350 I-7.9400 J0.0000 F1020.00
G2 X-79.5600 Y-52.5000 Z-1.2700 I7.9400 J0.0000 F1020.00
G2 X-95.4400 Y-52.5000 Z-1.9050 I-7.9400 J0.0000 F1020.00
G2 X-79.5600 Y-52.5000 Z-2.5400 I7.9400 J0.0000 F1020.00
G2 X-95.4400 Y-52.5000 Z-2.5400 I-7.9400 J0.0000 F1020.00
G2 X-79.5600 Y-52.5000 Z-2.5400 I7.9400 J0.0000 F1020.00
G0 Z3.0000
G0 X-86.2320 Y-77.5000
G0 Z3.0000
G1 Z0.0000 F1020.00
G2 X-88.7680 Y-77.5000 Z-0.6350 I-1.2680 J0.0000 F1020.00
G2 X-86.2320 Y-77.5000 Z-1.2700 I1.2680 J0.0000 F1020.00
G2 X-88.7680 Y-77.5000 Z-1.9050 I-1.2680 J0.0000 F1020.00
G2 X-86.2320 Y-77.5000 Z-2.5400 I1.2680 J0.0000 F1020.00
G2 X-88.7680 Y-77.5000 Z-2.5400 I-1.2680 J0.0000 F1020.00
G2 X-86.2320 Y-77.5000 Z-2.5400 I1.2680 J0.0000 F1020.00
G0 Z3.0000
G0 X-84.0080 Y-77.5000
G0 Z3.0000
G1 Z0.0000 F1020.00
G2 X-90.9920 Y-77.5000 Z-0.6350 I-3.4920 J0.0000 F1020.00
G2 X-84.0080 Y-77.5000 Z-1.2700 I3.4920 J0.0000 F1020.00
G2 X-90.9920 Y-77.5000 Z-1.9050 I-3.4920 J0.0000 F1020.00
G2 X-84.0080 Y-77.5000 Z-2.5400 I3.4920 J0.0000 F1020.00
G2 X-90.9920 Y-77.5000 Z-2.5400 I-3.4920 J0.0000 F1020.00
G2 X-84.0080 Y-77.5000 Z-2.5400 I3.4920 J0.0000 F1020.00
G0 Z3.0000
G0 X-81.7840 Y-77.5000
G0 Z3.0000
G1 Z0.0000 F1020.00
G2 X-93.2160 Y-77.5000 Z-0.6350 I-5.7160 J0.0000 F1020.00
G2 X-81.7840 Y-77.5000 Z-1.2700 I5.7160 J0.0000 F1020.00
G2 X-93.2160 Y-77.5000 Z-1.9050 I-5.7160 J0.0000 F1020.00
G2 X-81.7840 Y-77.5000 Z-2.5400 I5.7160 J0.0000 F1020.00
G2 X-93.2160 Y-77.5000 Z-2.5400 I-5.7160 J0.0000 F1020.00
G2 X-81.7840 Y-77.5000 Z-2.5400 I5.7160 J0.0000 F1020.00
G0 Z3.0000
G0 X-79.5600 Y-77.5000
G0 Z3.0000
G1 Z0.0000 F1020.00
G2 X-95.4400 Y-77.5000 Z-0.6350 I-7.9400 J0.0000 F1020.00
G2 X-79.5600 Y-77.5000 Z-1.2700 I7.9400 J0.0000 F1020.00
G2 X-95.4400 Y-77.5000 Z-1.9050 I-7.9400 J0.0000 F1020.00
G2 X-79.5600 Y-77.5000 Z-2.5400 I7.9400 J0.0000 F1020.00
G2 X-95.4400 Y-77.5000 Z-2.5400 I-7.9400 J0.0000 F1020.00
G2 X-79.5600 Y-77.5000 Z-2.5400 I7.9400 J0.0000 F1020.00
G0 Z3.0000
G0 X-86.2320 Y-102.5000
G0 Z3.0000
G1 Z0.0000 F1020.00
G2 X-88.7680 Y-102.5000 Z-0.6350 I-1.2680 J0.0000 F1020.00
G2 X-86.2320 Y-102.5000 Z-1.2700 I1.2680 J0.0000 F1020.00
G2 X-88.7680 Y-102.5000 Z-1.9050 I-1.2680 J0.0000 F1020.00
G2 X-86.2320 Y-102.5000 Z-2.5400 I1.2680 J0.0000 F1020.00
G2 X-88.7680 Y-102.5000 Z-2.5400 I-1.2680 J0.0000 F1020.00
G2 X-86.2320 Y-102.5000 Z-2.5400 I1.2680 J0.0000 F1020.00
G0 Z3.0000
G0 X-84.0080 Y-102.5000
G0 Z3.0000
G1 Z0.0000 F1020.00
G2 X-90.9920 Y-102.5000 Z-0.6350 I-3.4920 J0.0000 F1020.00
G2 X-84.0080 Y-102.5000 Z-1.2700 I3.4920 J0.0000 F1020.00
G2 X-90.9920 Y-102.5000 Z-1.9050 I-3.4920 J0.0000 F1020.00
G2 X-84.0080 Y-102.5000 Z-2.5400 I3.4920 J0.0000 F1020.00
G2 X-90.9920 Y-102.5000 Z-2.5400 I-3.4920 J0.0000 F1020.00
G2 X-84.0080 Y-102.5000 Z-2.5400 I3.4920 J0.0000 F1020.00
G0 Z3.0000
G0 X-81.7840 Y-102.5000
G0 Z3.0000
G1 Z0.0000 F1020.00
G2 X-93.2160 Y-102.5000 Z-0.6350 I-5.7160 J0.0000 F1020.00
G2 X-81.7840 Y-102.5000 Z-1.2700 I5.7160 J0.0000 F1020.00
G2 X-93.2160 Y-102.5000 Z-1.9050 I-5.7160 J0.0000 F1020.00
G2 X-81.7840 Y-102.5000 Z-2.5400 I5.7160 J0.0000 F1020.00
G2 X-93.2160 Y-102.5000 Z-2.5400 I-5.7160 J0.0000 F1020.00
G2 X-81.7840 Y-102.5000 Z-2.5400 I5.7160 J0.0000 F1020.00
G0 Z3.0000
G0 X-79.5600 Y-102.5000
G0 Z3.0000
G1 Z0.0000 F1020.00
G2 X-95.4400 Y-102.5000 Z-0.6350 I-7.9400 J0.0000 F1020.00
G2 X-79.5600 Y-102.5000 Z-1.2700 I7.9400 J0.0000 F1020.00
G2 X-95.4400 Y-102.5000 Z-1.9050 I-7.9400 J0.0000 F1020.00
G2 X-79.5600 Y-102.5000 Z-2.5400 I7.9400 J0.0000 F1020.00
G2 X-95.4400 Y-102.5000 Z-2.5400 I-7.9400 J0.0000 F1020.00
G2 X-79.5600 Y-102.5000 Z-2.5400 I7.9400 J0.0000 F1020.00
G0 Z3.0000
G0 X-86.2320 Y-127.5000
G0 Z3.0000
G1 Z0.0000 F1020.00
G2 X-88.7680 Y-127.5000 Z-0.6350 I-1.2680 J0.0000 F1020.00
G2 X-86.2320 Y-127.5000 Z-1.2700 I1.2680 J0.0000 F1020.00
G2 X-88.7680 Y-127.5000 Z-1.9050 I-1.2680 J0.0000 F1020.00
G2 X-86.2320 Y-127.5000 Z-2.5400 I1.2680 J0.0000 F1020.00
G2 X-88.7680 Y-127.5000 Z-2.5400 I-1.2680 J0.0000 F1020.00
G2 X-86.2320 Y-127.5000 Z-2.5400 I1.2680 J0.0000 F1020.00
G0 Z3.0000
G0 X-84.0080 Y-127.5000
G0 Z3.0000
G1 Z0.0000 F1020.00
G2 X-90.9920 Y-127.5000 Z-0.6350 I-3.4920 J0.0000 F1020.00
G2 X-84.0080 Y-127.5000 Z-1.2700 I3.4920 J0.0000 F1020.00
G2 X-90.9920 Y-127.5000 Z-1.9050 I-3.4920 J0.0000 F1020.00
G2 X-84.0080 Y-127.5000 Z-2.5400 I3.4920 J0.0000 F1020.00
G2 X-90.9920 Y-127.5000 Z-2.5400 I-3.4920 J0.0000 F1020.00
G2 X-84.0080 Y-127.5000 Z-2.5400 I3.4920 J0.0000 F1020.00
G0 Z3.0000
G0 X-81.7840 Y-127.5000
G0 Z3.0000
G1 Z0.0000 F1020.00
G2 X-93.2160 Y-127.5000 Z-0.6350 I-5.7160 J0.0000 F1020.00
G2 X-81.7840 Y-127.5000 Z-1.2700 I5.7160 J0.0000 F1020.00
G2 X-93.2160 Y-127.5000 Z-1.9050 I-5.7160 J0.0000 F1020.00
G2 X-81.7840 Y-127.5000 Z-2.5400 I5.7160 J0.0000 F1020.00
G2 X-93.2160 Y-127.5000 Z-2.5400 I-5.7160 J0.0000 F1020.00
G2 X-81.7840 Y-127.5000 Z-2.5400 I5.7160 J0.0000 F1020.00
G0 Z3.0000
G0 X-79.5600 Y-127.5000
G0 Z3.0000
G1 Z0.0000 F1020.00
G2 X-95.4400 Y-127.5000 Z-0.6350 I-7.9400 J0.0000 F1020.00
G2 X-79.5600 Y-127.5000 Z-1.2700 I7.9400 J0.0000 F1020.00
G2 X-95.4400 Y-127.5000 Z-1.9050 I-7.9400 J0.0000 F1020.00
G2 X-79.5600 Y-127.5000 Z-2.5400 I7.9400 J0.0000 F1020.00
G2 X-95.4400 Y-127.5000 Z-2.5400 I-7.9400 J0.0000 F1020.00
G2 X-79.5600 Y-127.5000 Z-2.5400 I7.9400 J0.0000 F1020.00
G0 Z3.0000
G0 X-86.2320 Y-152.5000
G0 Z3.0000
G1 Z0.0000 F1020.00
G2 X-88.7680 Y-152.5000 Z-0.6350 I-1.2680 J0.0000 F1020.00
G2 X-86.2320 Y-152.5000 Z-1.2700 I1.2680 J0.0000 F1020.00
G2 X-88.7680 Y-152.5000 Z-1.9050 I-1.2680 J0.0000 F1020.00
G2 X-86.2320 Y-152.5000 Z-2.5400 I1.2680 J0.0000 F1020.00
G2 X-88.7680 Y-152.5000 Z-2.5400 I-1.2680 J0.0000 F1020.00
G2 X-86.2320 Y-152.5000 Z-2.5400 I1.2680 J0.0000 F1020.00
G0 Z3.0000
G0 X-84.0080 Y-152.5000
G0 Z3.0000
G1 Z0.0000 F1020.00
G2 X-90.9920 Y-152.5000 Z-0.6350 I-3.4920 J0.0000 F1020.00
G2 X-84.0080 Y-152.5000 Z-1.2700 I3.4920 J0.0000 F1020.00
G2 X-90.9920 Y-152.5000 Z-1.9050 I-3.4920 J0.0000 F1020.00
G2 X-84.0080 Y-152.5000 Z-2.5400 I3.4920 J0.0000 F1020.00
G2 X-90.9920 Y-152.5000 Z-2.5400 I-3.4920 J0.0000 F1020.00
G2 X-84.0080 Y-152.5000 Z-2.5400 I3.4920 J0.0000 F1020.00
G0 Z3.0000
G0 X-81.7840 Y-152.5000
G0 Z3.0000
G1 Z0.0000 F1020.00
G2 X-93.2160 Y-152.5000 Z-0.6350 I-5.7160 J0.0000 F1020.00
G2 X-81.7840 Y-152.5000 Z-1.2700 I5.7160 J0.0000 F1020.00
G2 X-93.2160 Y-152.5000 Z-1.9050 I-5.7160 J0.0000 F1020.00
G2 X-81.7840 Y-152.5000 Z-2.5400 I5.7160 J0.0000 F1020.00
G2 X-93.2160 Y-152.5000 Z-2.5400 I-5.7160 J0.0000 F1020.00
G2 X-81.7840 Y-152.5000 Z-2.5400 I5.7160 J0.0000 F1020.00
G0 Z3.0000
G0 X-79.5600 Y-152.5000
G0 Z3.0000
G1 Z0.0000 F1020.00
G2 X-95.4400 Y-152.5000 Z-0.6350 I-7.9400 J0.0000 F1020.00
G2 X-79.5600 Y-152.5000 Z-1.2700 I7.9400 J0.0000 F1020.00
G2 X-95.4400 Y-152.5000 Z-1.9050 I-7.9400 J0.0000 F1020.00
G2 X-79.5600 Y-152.5000 Z-2.5400 I7.9400 J0.0000 F1020.00
G2 X-95.4400 Y-152.5000 Z-2.5400 I-7.9400 J0.0000 F1020.00
G2 X-79.5600 Y-152.5000 Z-2.5400 I7.9400 J0.0000 F1020.00
G0 Z3.0000
G0 X-111.2320 Y-152.5000
G0 Z3.0000
G1 Z0.0000 F1020.00
G2 X-113.7680 Y-152.5000 Z-0.6350 I-1.2680 J0.0000 F1020.00
G2 X-111.2320 Y-152.5000 Z-1.2700 I1.2680 J0.0000 F1020.00
G2 X-113.7680 Y-152.5000 Z-1.9050 I-1.2680 J0.0000 F1020.00
G2 X-111.2320 Y-152.5000 Z-2.5400 I1.2680 J0.0000 F1020.00
G2 X-113.7680 Y-152.5000 Z-2.5400 I-1.2680 J0.0000 F1020.00
G2 X-111.2320 Y-152.5000 Z-2.5400 I1.2680 J0.0000 F1020.00
G0 Z3.0000
G0 X-109.0080 Y-152.5000
G0 Z3.0000
G1 Z0.0000 F1020.00
G2 X-115.9920 Y-152.5000 Z-0.6350 I-3.4920 J0.0000 F1020.00
G2 X-109.0080 Y-152.5000 Z-1.2700 I3.4920 J0.0000 F1020.00
G2 X-115.9920 Y-152.5000 Z-1.9050 I-3.4920 J0.0000 F1020.00
G2 X-109.0080 Y-152.5000 Z-2.5400 I3.4920 J0.0000 F1020.00
G2 X-115.9920 Y-152.5000 Z-2.5400 I-3.4920 J0.0000 F1020.00
G2 X-109.0080 Y-152.5000 Z-2.5400 I3.4920 J0.0000 F1020.00
G0 Z3.0000
G0 X-106.7840 Y-152.5000
G0 Z3.0000
G1 Z0.0000 F1020.00
G2 X-118.2160 Y-152.5000 Z-0.6350 I-5.7160 J0.0000 F1020.00
G2 X-106.7840 Y-152.5000 Z-1.2700 I5.7160 J0.0000 F1020.00
G2 X-118.2160 Y-152.5000 Z-1.9050 I-5.7160 J0.0000 F1020.00
G2 X-106.7840 Y-152.5000 Z-2.5400 I5.7160 J0.0000 F1020.00
G2 X-118.2160 Y-152.5000 Z-2.5400 I-5.7160 J0.0000 F1020.00
G2 X-106.7840 Y-152.5000 Z-2.5400 I5.7160 J0.0000 F1020.00
G0 Z3.0000
G0 X-104.5600 Y-152.5000
G0 Z3.0000
G1 Z0.0000 F1020.00
G2 X-120.4400 Y-152.5000 Z-0.6350 I-7.9400 J0.0000 F1020.00
G2 X-104.5600 Y-152.5000 Z-1.2700 I7.9400 J0.0000 F1020.00
G2 X-120.4400 Y-152.5000 Z-1.9050 I-7.9400 J0.0000 F1020.00
G2 X-104.5600 Y-152.5000 Z-2.5400 I7.9400 J0.0000 F1020.00
G2 X-120.4400 Y-152.5000 Z-2.5400 I-7.9400 J0.0000 F1020.00
G2 X-104.5600 Y-152.5000 Z-2.5400 I7.9400 J0.0000 F1020.00
G0 Z3.0000
G0 X-111.2320 Y-127.5000
G0 Z3.0000
G1 Z0.0000 F1020.00
G2 X-113.7680 Y-127.5000 Z-0.6350 I-1.2680 J0.0000 F1020.00
G2 X-111.2320 Y-127.5000 Z-1.2700 I1.2680 J0.0000 F1020.00
G2 X-113.7680 Y-127.5000 Z-1.9050 I-1.2680 J0.0000 F1020.00
G2 X-111.2320 Y-127.5000 Z-2.5400 I1.2680 J0.0000 F1020.00
G2 X-113.7680 Y-127.5000 Z-2.5400 I-1.2680 J0.0000 F1020.00
G2 X-111.2320 Y-127.5000 Z-2.5400 I1.2680 J0.0000 F1020.00
G0 Z3.0000
G0 X-109.0080 Y-127.5000
G0 Z3.0000
G1 Z0.0000 F1020.00
G2 X-115.9920 Y-127.5000 Z-0.6350 I-3.4920 J0.0000 F1020.00
G2 X-109.0080 Y-127.5000 Z-1.2700 I3.4920 J0.0000 F1020.00
G2 X-115.9920 Y-127.5000 Z-1.9050 I-3.4920 J0.0000 F1020.00
G2 X-109.0080 Y-127.5000 Z-2.5400 I3.4920 J0.0000 F1020.00
G2 X-115.9920 Y-127.5000 Z-2.5400 I-3.4920 J0.0000 F1020.00
G2 X-109.0080 Y-127.5000 Z-2.5400 I3.4920 J0.0000 F1020.00
G0 Z3.0000
G0 X-106.7840 Y-127.5000
G0 Z3.0000
G1 Z0.0000 F1020.00
G2 X-118.2160 Y-127.5000 Z-0.6350 I-5.7160 J0.0000 F1020.00
G2 X-106.7840 Y-127.5000 Z-1.2700 I5.7160 J0.0000 F1020.00
G2 X-118.2160 Y-127.5000 Z-1.9050 I-5.7160 J0.0000 F1020.00
G2 X-106.7840 Y-127.5000 Z-2.5400 I5.7160 J0.0000 F1020.00
G2 X-118.2160 Y-127.5000 Z-2.5400 I-5.7160 J0.0000 F1020.00
G2 X-106.7840 Y-127.5000 Z-2.5400 I5.7160 J0.0000 F1020.00
G0 Z3.0000
G0 X-104.5600 Y-127.5000
G0 Z3.0000
G1 Z0.0000 F1020.00
G2 X-120.4400 Y-127.5000 Z-0.6350 I-7.9400 J0.0000 F1020.00
G2 X-104.5600 Y-127.5000 Z-1.2700 I7.9400 J0.0000 F1020.00
G2 X-120.4400 Y-127.5000 Z-1.9050 I-7.9400 J0.0000 F1020.00
G2 X-104.5600 Y-127.5000 Z-2.5400 I7.9400 J0.0000 F1020.00
G2 X-120.4400 Y-127.5000 Z-2.5400 I-7.9400 J0.0000 F1020.00
G2 X-104.5600 Y-127.5000 Z-2.5400 I7.9400 J0.0000 F1020.00
G0 Z3.0000
G0 X-111.2320 Y-102.5000
G0 Z3.0000
G1 Z0.0000 F1020.00
G2 X-113.7680 Y-102.5000 Z-0.6350 I-1.2680 J0.0000 F1020.00
G2 X-111.2320 Y-102.5000 Z-1.2700 I1.2680 J0.0000 F1020.00
G2 X-113.7680 Y-102.5000 Z-1.9050 I-1.2680 J0.0000 F1020.00
G2 X-111.2320 Y-102.5000 Z-2.5400 I1.2680 J0.0000 F1020.00
G2 X-113.7680 Y-102.5000 Z-2.5400 I-1.2680 J0.0000 F1020.00
G2 X-111.2320 Y-102.5000 Z-2.5400 I1.2680 J0.0000 F1020.00
G0 Z3.0000
G0 X-109.0080 Y-102.5000
G0 Z3.0000
G1 Z0.0000 F1020.00
G2 X-115.9920 Y-102.5000 Z-0.6350 I-3.4920 J0.0000 F1020.00
G2 X-109.0080 Y-102.5000 Z-1.2700 I3.4920 J0.0000 F1020.00
G2 X-115.9920 Y-102.5000 Z-1.9050 I-3.4920 J0.0000 F1020.00
G2 X-109.0080 Y-102.5000 Z-2.5400 I3.4920 J0.0000 F1020.00
G2 X-115.9920 Y-102.5000 Z-2.5400 I-3.4920 J0.0000 F1020.00
G2 X-109.0080 Y-102.5000 Z-2.5400 I3.4920 J0.0000 F1020.00
G0 Z3.0000
G0 X-106.7840 Y-102.5000
G0 Z3.0000
G1 Z0.0000 F1020.00
G2 X-118.2160 Y-102.5000 Z-0.6350 I-5.7160 J0.0000 F1020.00
G2 X-106.7840 Y-102.5000 Z-1.2700 I5.7160 J0.0000 F1020.00
G2 X-118.2160 Y-102.5000 Z-1.9050 I-5.7160 J0.0000 F1020.00
G2 X-106.7840 Y-102.5000 Z-2.5400 I5.7160 J0.0000 F1020.00
G2 X-118.2160 Y-102.5000 Z-2.5400 I-5.7160 J0.0000 F1020.00
G2 X-106.7840 Y-102.5000 Z-2.5400 I5.7160 J0.0000 F1020.00
G0 Z3.0000
G0 X-104.5600 Y-102.5000
G0 Z3.0000
G1 Z0.0000 F1020.00
G2 X-120.4400 Y-102.5000 Z-0.6350 I-7.9400 J0.0000 F1020.00
G2 X-104.5600 Y-102.5000 Z-1.2700 I7.9400 J0.0000 F1020.00
G2 X-120.4400 Y-102.5000 Z-1.9050 I-7.9400 J0.0000 F1020.00
G2 X-104.5600 Y-102.5000 Z-2.5400 I7.9400 J0.0000 F1020.00
G2 X-120.4400 Y-102.5000 Z-2.5400 I-7.9400 J0.0000 F1020.00
G2 X-104.5600 Y-102.5000 Z-2.5400 I7.9400 J0.0000 F1020.00
G0 Z3.0000
G0 X-111.2320 Y-77.5000
G0 Z3.0000
G1 Z0.0000 F1020.00
G2 X-113.7680 Y-77.5000 Z-0.6350 I-1.2680 J0.0000 F1020.00
G2 X-111.2320 Y-77.5000 Z-1.2700 I1.2680 J0.0000 F1020.00
G2 X-113.7680 Y-77.5000 Z-1.9050 I-1.2680 J0.0000 F1020.00
G2 X-111.2320 Y-77.5000 Z-2.5400 I1.2680 J0.0000 F1020.00
G2 X-113.7680 Y-77.5000 Z-2.5400 I-1.2680 J0.0000 F1020.00
G2 X-111.2320 Y-77.5000 Z-2.5400 I1.2680 J0.0000 F1020.00
G0 Z3.0000
G0 X-109.0080 Y-77.5000
G0 Z3.0000
G1 Z0.0000 F1020.00
G2 X-115.9920 Y-77.5000 Z-0.6350 I-3.4920 J0.0000 F1020.00
G2 X-109.0080 Y-77.5000 Z-1.2700 I3.4920 J0.0000 F1020.00
G2 X-115.9920 Y-77.5000 Z-1.9050 I-3.4920 J0.0000 F1020.00
G2 X-109.0080 Y-77.5000 Z-2.5400 I3.4920 J0.0000 F1020.00
G2 X-115.9920 Y-77.5000 Z-2.5400 I-3.4920 J0.0000 F1020.00
G2 X-109.0080 Y-77.5000 Z-2.5400 I3.4920 J0.0000 F1020.00
G0 Z3.0000
G0 X-106.7840 Y-77.5000
G0 Z3.0000
G1 Z0.0000 F1020.00
G2 X-118.2160 Y-77.5000 Z-0.6350 I-5.7160 J0.0000 F1020.00
G2 X-106.7840 Y-77.5000 Z-1.2700 I5.7160 J0.0000 F1020.00
G2 X-118.2160 Y-77.5000 Z-1.9050 I-5.7160 J0.0000 F1020.00
G2 X-106.7840 Y-77.5000 Z-2.5400 I5.7160 J0.0000 F1020.00
G2 X-118.2160 Y-77.5000 Z-2.5400 I-5.7160 J0.0000 F1020.00
G2 X-106.7840 Y-77.5000 Z-2.5400 I5.7160 J0.0000 F1020.00
G0 Z3.0000
G0 X-104.5600 Y-77.5000
G0 Z3.0000
G1 Z0.0000 F1020.00
G2 X-120.4400 Y-77.5000 Z-0.6350 I-7.9400 J0.0000 F1020.00
G2 X-104.5600 Y-77.5000 Z-1.2700 I7.9400 J0.0000 F1020.00
G2 X-120.4400 Y-77.5000 Z-1.9050 I-7.9400 J0.0000 F1020.00
G2 X-104.5600 Y-77.5000 Z-2.5400 I7.9400 J0.0000 F1020.00
G2 X-120.4400 Y-77.5000 Z-2.5400 I-7.9400 J0.0000 F1020.00
G2 X-104.5600 Y-77.5000 Z-2.5400 I7.9400 J0.0000 F1020.00
G0 Z3.0000
G0 X-111.2320 Y-52.5000
G0 Z3.0000
G1 Z0.0000 F1020.00
G2 X-113.7680 Y-52.5000 Z-0.6350 I-1.2680 J0.0000 F1020.00
G2 X-111.2320 Y-52.5000 Z-1.2700 I1.2680 J0.0000 F1020.00
G2 X-113.7680 Y-52.5000 Z-1.9050 I-1.2680 J0.0000 F1020.00
G2 X-111.2320 Y-52.5000 Z-2.5400 I1.2680 J0.0000 F1020.00
G2 X-113.7680 Y-52.5000 Z-2.5400 I-1.2680 J0.0000 F1020.00
G2 X-111.2320 Y-52.5000 Z-2.5400 I1.2680 J0.0000 F1020.00
G0 Z3.0000
G0 X-109.0080 Y-52.5000
G0 Z3.0000
G1 Z0.0000 F1020.00
G2 X-115.9920 Y-52.5000 Z-0.6350 I-3.4920 J0.0000 F1020.00
G2 X-109.0080 Y-52.5000 Z-1.2700 I3.4920 J0.0000 F1020.00
G2 X-115.9920 Y-52.5000 Z-1.9050 I-3.4920 J0.0000 F1020.00
G2 X-109.0080 Y-52.5000 Z-2.5400 I3.4920 J0.0000 F1020.00
G2 X-115.9920 Y-52.5000 Z-2.5400 I-3.4920 J0.0000 F1020.00
G2 X-109.0080 Y-52.5000 Z-2.5400 I3.4920 J0.0000 F1020.00
G0 Z3.0000
G0 X-106.7840 Y-52.5000
G0 Z3.0000
G1 Z0.0000 F1020.00
G2 X-118.2160 Y-52.5000 Z-0.6350 I-5.7160 J0.0000 F1020.00
G2 X-106.7840 Y-52.5000 Z-1.2700 I5.7160 J0.0000 F1020.00
G2 X-118.2160 Y-52.5000 Z-1.9050 I-5.7160 J0.0000 F1020.00
G2 X-106.7840 Y-52.5000 Z-2.5400 I5.7160 J0.0000 F1020.00
G2 X-118.2160 Y-52.5000 Z-2.5400 I-5.7160 J0.0000 F1020.00
G2 X-106.7840 Y-52.5000 Z-2.5400 I5.7160 J0.0000 F1020.00
G0 Z3.0000
G0 X-104.5600 Y-52.5000
G0 Z3.0000
G1 Z0.0000 F1020.00
G2 X-120.4400 Y-52.5000 Z-0.6350 I-7.9400 J0.0000 F1020.00
G2 X-104.5600 Y-52.5000 Z-1.2700 I7.9400 J0.0000 F1020.00
G2 X-120.4400 Y-52.5000 Z-1.9050 I-7.9400 J0.0000 F1020.00
G2 X-104.5600 Y-52.5000 Z-2.5400 I7.9400 J0.0000 F1020.00
G2 X-120.4400 Y-52.5000 Z-2.5400 I-7.9400 J0.0000 F1020.00
G2 X-104.5600 Y-52.5000 Z-2.5400 I7.9400 J0.0000 F1020.00
G0 Z3.0000
G0 X-111.2320 Y-27.5000
G0 Z3.0000
G1 Z0.0000 F1020.00
G2 X-113.7680 Y-27.5000 Z-0.6350 I-1.2680 J0.0000 F1020.00
G2 X-111.2320 Y-27.5000 Z-1.2700 I1.2680 J0.0000 F1020.00
G2 X-113.7680 Y-27.5000 Z-1.9050 I-1.2680 J0.0000 F1020.00
G2 X-111.2320 Y-27.5000 Z-2.5400 I1.2680 J0.0000 F1020.00
G2 X-113.7680 Y-27.5000 Z-2.5400 I-1.2680 J0.0000 F1020.00
G2 X-111.2320 Y-27.5000 Z-2.5400 I1.2680 J0.0000 F1020.00
G0 Z3.0000
G0 X-109.0080 Y-27.5000
G0 Z3.0000
G1 Z0.0000 F1020.00
G2 X-115.9920 Y-27.5000 Z-0.6350 I-3.4920 J0.0000 F1020.00
G2 X-109.0080 Y-27.5000 Z-1.2700 I3.4920 J0.0000 F1020.00
G2 X-115.9920 Y-27.5000 Z-1.9050 I-3.4920 J0.0000 F1020.00
G2 X-109.0080 Y-27.5000 Z-2.5400 I3.4920 J0.0000 F1020.00
G2 X-115.9920 Y-27.5000 Z-2.5400 I-3.4920 J0.0000 F1020.00
G2 X-109.0080 Y-27.5000 Z-2.5400 I3.4920 J0.0000 F1020.00
G0 Z3.0000
G0 X-106.7840 Y-27.5000
G0 Z3.0000
G1 Z0.0000 F1020.00
G2 X-118.2160 Y-27.5000 Z-0.6350 I-5.7160 J0.0000 F1020.00
G2 X-106.7840 Y-27.5000 Z-1.2700 I5.7160 J0.0000 F1020.00
G2 X-118.2160 Y-27.5000 Z-1.9050 I-5.7160 J0.0000 F1020.00
G2 X-106.7840 Y-27.5000 Z-2.5400 I5.7160 J0.0000 F1020.00
G2 X-118.2160 Y-27.5000 Z-2.5400 I-5.7160 J0.0000 F1020.00
G2 X-106.7840 Y-27.5000 Z-2.5400 I5.7160 J0.0000 F1020.00
G0 Z3.0000
G0 X-104.5600 Y-27.5000
G0 Z3.0000
G1 Z0.0000 F1020.00
G2 X-120.4400 Y-27.5000 Z-0.6350 I-7.9400 J0.0000 F1020.00
G2 X-104.5600 Y-27.5000 Z-1.2700 I7.9400 J0.0000 F1020.00
G2 X-120.4400 Y-27.5000 Z-1.9050 I-7.9400 J0.0000 F1020.00
G2 X-104.5600 Y-27.5000 Z-2.5400 I7.9400 J0.0000 F1020.00
G2 X-120.4400 Y-27.5000 Z-2.5400 I-7.9400 J0.0000 F1020.00
G2 X-104.5600 Y-27.5000 Z-2.5400 I7.9400 J0.0000 F1020.00
G0 Z3.0000
G0 X-136.2320 Y-27.5000
G0 Z3.0000
G1 Z0.0000 F1020.00
G2 X-138.7680 Y-27.5000 Z-0.6350 I-1.2680 J0.0000 F1020.00
G2 X-136.2320 Y-27.5000 Z-1.2700 I1.2680 J0.0000 F1020.00
G2 X-138.7680 Y-27.5000 Z-1.9050 I-1.2680 J0.0000 F1020.00
G2 X-136.2320 Y-27.5000 Z-2.5400 I1.2680 J0.0000 F1020.00
G2 X-138.7680 Y-27.5000 Z-2.5400 I-1.2680 J0.0000 F1020.00
G2 X-136.2320 Y-27.5000 Z-2.5400 I1.2680 J0.0000 F1020.00
G0 Z3.0000
G0 X-134.0080 Y-27.5000
G0 Z3.0000
G1 Z0.0000 F1020.00
G2 X-140.9920 Y-27.5000 Z-0.6350 I-3.4920 J0.0000 F1020.00
G2 X-134.0080 Y-27.5000 Z-1.2700 I3.4920 J0.0000 F1020.00
G2 X-140.9920 Y-27.5000 Z-1.9050 I-3.4920 J0.0000 F1020.00
G2 X-134.0080 Y-27.5000 Z-2.5400 I3.4920 J0.0000 F1020.00
G2 X-140.9920 Y-27.5000 Z-2.5400 I-3.4920 J0.0000 F1020.00
G2 X-134.0080 Y-27.5000 Z-2.5400 I3.4920 J0.0000 F1020.00
G0 Z3.0000
G0 X-131.7840 Y-27.5000
G0 Z3.0000
G1 Z0.0000 F1020.00
G2 X-143.2160 Y-27.5000 Z-0.6350 I-5.7160 J0.0000 F1020.00
G2 X-131.7840 Y-27.5000 Z-1.2700 I5.7160 J0.0000 F1020.00
G2 X-143.2160 Y-27.5000 Z-1.9050 I-5.7160 J0.0000 F1020.00
G2 X-131.7840 Y-27.5000 Z-2.5400 I5.7160 J0.0000 F1020.00
G2 X-143.2160 Y-27.5000 Z-2.5400 I-5.7160 J0.0000 F1020.00
G2 X-131.7840 Y-27.5000 Z-2.5400 I5.7160 J0.0000 F1020.00
G0 Z3.0000
G0 X-129.5600 Y-27.5000
G0 Z3.0000
G1 Z0.0000 F1020.00
G2 X-145.4400 Y-27.5000 Z-0.6350 I-7.9400 J0.0000 F1020.00
G2 X-129.5600 Y-27.5000 Z-1.2700 I7.9400 J0.0000 F1020.00
G2 X-145.4400 Y-27.5000 Z-1.9050 I-7.9400 J0.0000 F1020.00
G2 X-129.5600 Y-27.5000 Z-2.5400 I7.9400 J0.0000 F1020.00
G2 X-145.4400 Y-27.5000 Z-2.5400 I-7.9400 J0.0000 F1020.00
G2 X-129.5600 Y-27.5000 Z-2.5400 I7.9400 J0.0000 F1020.00
G0 Z3.0000
G0 X-136.2320 Y-52.5000
G0 Z3.0000
G1 Z0.0000 F1020.00
G2 X-138.7680 Y-52.5000 Z-0.6350 I-1.2680 J0.0000 F1020.00
G2 X-136.2320 Y-52.5000 Z-1.2700 I1.2680 J0.0000 F1020.00
G2 X-138.7680 Y-52.5000 Z-1.9050 I-1.2680 J0.0000 F1020.00
G2 X-136.2320 Y-52.5000 Z-2.5400 I1.2680 J0.0000 F1020.00
G2 X-138.7680 Y-52.5000 Z-2.5400 I-1.2680 J0.0000 F1020.00
G2 X-136.2320 Y-52.5000 Z-2.5400 I1.2680 J0.0000 F1020.00
G0 Z3.0000
G0 X-134.0080 Y-52.5000
G0 Z3.0000
G1 Z0.0000 F1020.00
G2 X-140.9920 Y-52.5000 Z-0.6350 I-3.4920 J0.0000 F1020.00
G2 X-134.0080 Y-52.5000 Z-1.2700 I3.4920 J0.0000 F1020.00
G2 X-140.9920 Y-52.5000 Z-1.9050 I-3.4920 J0.0000 F1020.00
G2 X-134.0080 Y-52.5000 Z-2.5400 I3.4920 J0.0000 F1020.00
G2 X-140.9920 Y-52.5000 Z-2.5400 I-3.4920 J0.0000 F1020.00
G2 X-134.0080 Y-52.5000 Z-2.5400 I3.4920 J0.0000 F1020.00
G0 Z3.0000
G0 X-131.7840 Y-52.5000
G0 Z3.0000
G1 Z0.0000 F1020.00
G2 X-143.2160 Y-52.5000 Z-0.6350 I-5.7160 J0.0000 F1020.00
G2 X-131.7840 Y-52.5000 Z-1.2700 I5.7160 J0.0000 F1020.00
G2 X-143.2160 Y-52.5000 Z-1.9050 I-5.7160 J0.0000 F1020.00
G2 X-131.7840 Y-52.5000 Z-2.5400 I5.7160 J0.0000 F1020.00
G2 X-143.2160 Y-52.5000 Z-2.5400 I-5.7160 J0.0000 F1020.00
G2 X-131.7840 Y-52.5000 Z-2.5400 I5.7160 J0.0000 F1020.00
G0 Z3.0000
G0 X-129.5600 Y-52.5000
G0 Z3.0000
G1 Z0.0000 F1020.00
G2 X-145.4400 Y-52.5000 Z-0.6350 I-7.9400 J0.0000 F1020.00
G2 X-129.5600 Y-52.5000 Z-1.2700 I7.9400 J0.0000 F1020.00
G2 X-145.4400 Y-52.5000 Z-1.9050 I-7.9400 J0.0000 F1020.00
G2 X-129.5600 Y-52.5000 Z-2.5400 I7.9400 J0.0000 F1020.00
G2 X-145.4400 Y-52.5000 Z-2.5400 I-7.9400 J0.0000 F1020.00
G2 X-129.5600 Y-52.5000 Z-2.5400 I7.9400 J0.0000 F1020.00
G0 Z3.0000
G0 X-136.2320 Y-77.5000
G0 Z3.0000
G1 Z0.0000 F1020.00
G2 X-138.7680 Y-77.5000 Z-0.6350 I-1.2680 J0.0000 F1020.00
G2 X-136.2320 Y-77.5000 Z-1.2700 I1.2680 J0.0000 F1020.00
G2 X-138.7680 Y-77.5000 Z-1.9050 I-1.2680 J0.0000 F1020.00
G2 X-136.2320 Y-77.5000 Z-2.5400 I1.2680 J0.0000 F1020.00
G2 X-138.7680 Y-77.5000 Z-2.5400 I-1.2680 J0.0000 F1020.00
G2 X-136.2320 Y-77.5000 Z-2.5400 I1.2680 J0.0000 F1020.00
G0 Z3.0000
G0 X-134.0080 Y-77.5000
G0 Z3.0000
G1 Z0.0000 F1020.00
G2 X-140.9920 Y-77.5000 Z-0.6350 I-3.4920 J0.0000 F1020.00
G2 X-134.0080 Y-77.5000 Z-1.2700 I3.4920 J0.0000 F1020.00
G2 X-140.9920 Y-77.5000 Z-1.9050 I-3.4920 J0.0000 F1020.00
G2 X-134.0080 Y-77.5000 Z-2.5400 I3.4920 J0.0000 F1020.00
G2 X-140.9920 Y-77.5000 Z-2.5400 I-3.4920 J0.0000 F1020.00
G2 X-134.0080 Y-77.5000 Z-2.5400 I3.4920 J0.0000 F1020.00
G0 Z3.0000
G0 X-131.7840 Y-77.5000
G0 Z3.0000
G1 Z0.0000 F1020.00
G2 X-143.2160 Y-77.5000 Z-0.6350 I-5.7160 J0.0000 F1020.00
G2 X-131.7840 Y-77.5000 Z-1.2700 I5.7160 J0.0000 F1020.00
G2 X-143.2160 Y-77.5000 Z-1.9050 I-5.7160 J0.0000 F1020.00
G2 X-131.7840 Y-77.5000 Z-2.5400 I5.7160 J0.0000 F1020.00
G2 X-143.2160 Y-77.5000 Z-2.5400 I-5.7160 J0.0000 F1020.00
G2 X-131.7840 Y-77.5000 Z-2.5400 I5.7160 J0.0000 F1020.00
G0 Z3.0000
G0 X-129.5600 Y-77.5000
G0 Z3.0000
G1 Z0.0000 F1020.00
G2 X-145.4400 Y-77.5000 Z-0.6350 I-7.9400 J0.0000 F1020.00
G2 X-129.5600 Y-77.5000 Z-1.2700 I7.9400 J0.0000 F1020.00
G2 X-145.4400 Y-77.5000 Z-1.9050 I-7.9400 J0.0000 F1020.00
G2 X-129.5600 Y-77.5000 Z-2.5400 I7.9400 J0.0000 F1020.00
G2 X-145.4400 Y-77.5000 Z-2.5400 I-7.9400 J0.0000 F1020.00
G2 X-129.5600 Y-77.5000 Z-2.5400 I7.9400 J0.0000 F1020.00
G0 Z3.0000
G0 X-136.2320 Y-102.5000
G0 Z3.0000
G1 Z0.0000 F1020.00
G2 X-138.7680 Y-102.5000 Z-0.6350 I-1.2680 J0.0000 F1020.00
G2 X-136.2320 Y-102.5000 Z-1.2700 I1.2680 J0.0000 F1020.00
G2 X-138.7680 Y-102.5000 Z-1.9050 I-1.2680 J0.0000 F1020.00
G2 X-136.2320 Y-102.5000 Z-2.5400 I1.2680 J0.0000 F1020.00
G2 X-138.7680 Y-102.5000 Z-2.5400 I-1.2680 J0.0000 F1020.00
G2 X-136.2320 Y-102.5000 Z-2.5400 I1.2680 J0.0000 F1020.00
G0 Z3.0000
G0 X-134.0080 Y-102.5000
G0 Z3.0000
G1 Z0.0000 F1020.00
G2 X-140.9920 Y-102.5000 Z-0.6350 I-3.4920 J0.0000 F1020.00
G2 X-134.0080 Y-102.5000 Z-1.2700 I3.4920 J0.0000 F1020.00
G2 X-140.9920 Y-102.5000 Z-1.9050 I-3.4920 J0.0000 F1020.00
G2 X-134.0080 Y-102.5000 Z-2.5400 I3.4920 J0.0000 F1020.00
G2 X-140.9920 Y-102.5000 Z-2.5400 I-3.4920 J0.0000 F1020.00
G2 X-134.0080 Y-102.5000 Z-2.5400 I3.4920 J0.0000 F1020.00
G0 Z3.0000
G0 X-131.7840 Y-102.5000
G0 Z3.0000
G1 Z0.0000 F1020.00
G2 X-143.2160 Y-102.5000 Z-0.6350 I-5.7160 J0.0000 F1020.00
G2 X-131.7840 Y-102.5000 Z-1.2700 I5.7160 J0.0000 F1020.00
G2 X-143.2160 Y-102.5000 Z-1.9050 I-5.7160 J0.0000 F1020.00
G2 X-131.7840 Y-102.5000 Z-2.5400 I5.7160 J0.0000 F1020.00
G2 X-143.2160 Y-102.5000 Z-2.5400 I-5.7160 J0.0000 F1020.00
G2 X-131.7840 Y-102.5000 Z-2.5400 I5.7160 J0.0000 F1020.00
G0 Z3.0000
G0 X-129.5600 Y-102.5000
G0 Z3.0000
G1 Z0.0000 F1020.00
G2 X-145.4400 Y-102.5000 Z-0.6350 I-7.9400 J0.0000 F1020.00
G2 X-129.5600 Y-102.5000 Z-1.2700 I7.9400 J0.0000 F1020.00
G2 X-145.4400 Y-102.5000 Z-1.9050 I-7.9400 J0.0000 F1020.00
G2 X-129.5600 Y-102.5000 Z-2.5400 I7.9400 J0.0000 F1020.00
G2 X-145.4400 Y-102.5000 Z-2.5400 I-7.9400 J0.0000 F1020.00
G2 X-129.5600 Y-102.5000 Z-2.5400 I7.9400 J0.0000 F1020.00
G0 Z3.0000
G0 X-136.2320 Y-127.5000
G0 Z3.0000
G1 Z0.0000 F1020.00
G2 X-138.7680 Y-127.5000 Z-0.6350 I-1.2680 J0.0000 F1020.00
G2 X-136.2320 Y-127.5000 Z-1.2700 I1.2680 J0.0000 F1020.00
G2 X-138.7680 Y-127.5000 Z-1.9050 I-1.2680 J0.0000 F1020.00
G2 X-136.2320 Y-127.5000 Z-2.5400 I1.2680 J0.0000 F1020.00
G2 X-138.7680 Y-127.5000 Z-2.5400 I-1.2680 J0.0000 F1020.00
G2 X-136.2320 Y-127.5000 Z-2.5400 I1.2680 J0.0000 F1020.00
G0 Z3.0000
G0 X-134.0080 Y-127.5000
G0 Z3.0000
G1 Z0.0000 F1020.00
G2 X-140.9920 Y-127.5000 Z-0.6350 I-3.4920 J0.0000 F1020.00
G2 X-134.0080 Y-127.5000 Z-1.2700 I3.4920 J0.0000 F1020.00
G2 X-140.9920 Y-127.5000 Z-1.9050 I-3.4920 J0.0000 F1020.00
G2 X-134.0080 Y-127.5000 Z-2.5400 I3.4920 J0.0000 F1020.00
G2 X-140.9920 Y-127.5000 Z-2.5400 I-3.4920 J0.0000 F1020.00
G2 X-134.0080 Y-127.5000 Z-2.5400 I3.4920 J0.0000 F1020.00
G0 Z3.0000
G0 X-131.7840 Y-127.5000
G0 Z3.0000
G1 Z0.0000 F1020.00
G2 X-143.2160 Y-127.5000 Z-0.6350 I-5.7160 J0.0000 F1020.00
G2 X-131.7840 Y-127.5000 Z-1.2700 I5.7160 J0.0000 F1020.00
G2 X-143.2160 Y-127.5000 Z-1.9050 I-5.7160 J0.0000 F1020.00
G2 X-131.7840 Y-127.5000 Z-2.5400 I5.7160 J0.0000 F1020.00
G2 X-143.2160 Y-127.5000 Z-2.5400 I-5.7160 J0.0000 F1020.00
G2 X-131.7840 Y-127.5000 Z-2.5400 I5.7160 J0.0000 F1020.00
G0 Z3.0000
G0 X-129.5600 Y-127.5000
G0 Z3.0000
G1 Z0.0000 F1020.00
G2 X-145.4400 Y-127.5000 Z-0.6350 I-7.9400 J0.0000 F1020.00
G2 X-129.5600 Y-127.5000 Z-1.2700 I7.9400 J0.0000 F1020.00
G2 X-145.4400 Y-127.5000 Z-1.9050 I-7.9400 J0.0000 F1020.00
G2 X-129.5600 Y-127.5000 Z-2.5400 I7.9400 J0.0000 F1020.00
G2 X-145.4400 Y-127.5000 Z-2.5400 I-7.9400 J0.0000 F1020.00
G2 X-129.5600 Y-127.5000 Z-2.5400 I7.9400 J0.0000 F1020.00
G0 Z3.0000
G0 X-136.2320 Y-152.5000
G0 Z3.0000
G1 Z0.0000 F1020.00
G2 X-138.7680 Y-152.5000 Z-0.6350 I-1.2680 J0.0000 F1020.00
G2 X-136.2320 Y-152.5000 Z-1.2700 I1.2680 J0.0000 F1020.00
G2 X-138.7680 Y-152.5000 Z-1.9050 I-1.2680 J0.0000 F1020.00
G2 X-136.2320 Y-152.5000 Z-2.5400 I1.2680 J0.0000 F1020.00
G2 X-138.7680 Y-152.5000 Z-2.5400 I-1.2680 J0.0000 F1020.00
G2 X-136.2320 Y-152.5000 Z-2.5400 I1.2680 J0.0000 F1020.00
G0 Z3.0000
G0 X-134.0080 Y-152.5000
G0 Z3.0000
G1 Z0.0000 F1020.00
G2 X-140.9920 Y-152.5000 Z-0.6350 I-3.4920 J0.0000 F1020.00
G2 X-134.0080 Y-152.5000 Z-1.2700 I3.4920 J0.0000 F1020.00
G2 X-140.9920 Y-152.5000 Z-1.9050 I-3.4920 J0.0000 F1020.00
G2 X-134.0080 Y-152.5000 Z-2.5400 I3.4920 J0.0000 F1020.00
G2 X-140.9920 Y-152.5000 Z-2.5400 I-3.4920 J0.0000 F1020.00
G2 X-134.0080 Y-152.5000 Z-2.5400 I3.4920 J0.0000 F1020.00
G0 Z3.0000
G0 X-131.7840 Y-152.5000
G0 Z3.0000
G1 Z0.0000 F1020.00
G2 X-143.2160 Y-152.5000 Z-0.6350 I-5.7160 J0.0000 F1020.00
G2 X-131.7840 Y-152.5000 Z-1.2700 I5.7160 J0.0000 F1020.00
G2 X-143.2160 Y-152.5000 Z-1.9050 I-5.7160 J0.0000 F1020.00
G2 X-131.7840 Y-152.5000 Z-2.5400 I5.7160 J0.0000 F1020.00
G2 X-143.2160 Y-152.5000 Z-2.5400 I-5.7160 J0.0000 F1020.00
G2 X-131.7840 Y-152.5000 Z-2.5400 I5.7160 J0.0000 F1020.00
G0 Z3.0000
G0 X-129.5600 Y-152.5000
G0 Z3.0000
G1 Z0.0000 F1020.00
G2 X-145.4400 Y-152.5000 Z-0.6350 I-7.9400 J0.0000 F1020.00
G2 X-129.5600 Y-152.5000 Z-1.2700 I7.9400 J0.0000 F1020.00
G2 X-145.4400 Y-152.5000 Z-1.9050 I-7.9400 J0.0000 F1020.00
G2 X-129.5600 Y-152.5000 Z-2.5400 I7.9400 J0.0000 F1020.00
G2 X-145.4400 Y-152.5000 Z-2.5400 I-7.9400 J0.0000 F1020.00
G2 X-129.5600 Y-152.5000 Z-2.5400 I7.9400 J0.0000 F1020.00
G0 Z3.0000
G0 X-161.2320 Y-152.5000
G0 Z3.0000
G1 Z0.0000 F1020.00
G2 X-163.7680 Y-152.5000 Z-0.6350 I-1.2680 J0.0000 F1020.00
G2 X-161.2320 Y-152.5000 Z-1.2700 I1.2680 J0.0000 F1020.00
G2 X-163.7680 Y-152.5000 Z-1.9050 I-1.2680 J0.0000 F1020.00
G2 X-161.2320 Y-152.5000 Z-2.5400 I1.2680 J0.0000 F1020.00
G2 X-163.7680 Y-152.5000 Z-2.5400 I-1.2680 J0.0000 F1020.00
G2 X-161.2320 Y-152.5000 Z-2.5400 I1.2680 J0.0000 F1020.00
G0 Z3.0000
G0 X-159.0080 Y-152.5000
G0 Z3.0000
G1 Z0.0000 F1020.00
G2 X-165.9920 Y-152.5000 Z-0.6350 I-3.4920 J0.0000 F1020.00
G2 X-159.0080 Y-152.5000 Z-1.2700 I3.4920 J0.0000 F1020.00
G2 X-165.9920 Y-152.5000 Z-1.9050 I-3.4920 J0.0000 F1020.00
G2 X-159.0080 Y-152.5000 Z-2.5400 I3.4920 J0.0000 F1020.00
G2 X-165.9920 Y-152.5000 Z-2.5400 I-3.4920 J0.0000 F1020.00
G2 X-159.0080 Y-152.5000 Z-2.5400 I3.4920 J0.0000 F1020.00
G0 Z3.0000
G0 X-156.7840 Y-152.5000
G0 Z3.0000
G1 Z0.0000 F1020.00
G2 X-168.2160 Y-152.5000 Z-0.6350 I-5.7160 J0.0000 F1020.00
G2 X-156.7840 Y-152.5000 Z-1.2700 I5.7160 J0.0000 F1020.00
G2 X-168.2160 Y-152.5000 Z-1.9050 I-5.7160 J0.0000 F1020.00
G2 X-156.7840 Y-152.5000 Z-2.5400 I5.7160 J0.0000 F1020.00
G2 X-168.2160 Y-152.5000 Z-2.5400 I-5.7160 J0.0000 F1020.00
G2 X-156.7840 Y-152.5000 Z-2.5400 I5.7160 J0.0000 F1020.00
G0 Z3.0000
G0 X-154.5600 Y-152.5000
G0 Z3.0000
G1 Z0.0000 F1020.00
G2 X-170.4400 Y-152.5000 Z-0.6350 I-7.9400 J0.0000 F1020.00
G2 X-154.5600 Y-152.5000 Z-1.2700 I7.9400 J0.0000 F1020.00
G2 X-170.4400 Y-152.5000 Z-1.9050 I-7.9400 J0.0000 F1020.00
G2 X-154.5600 Y-152.5000 Z-2.5400 I7.9400 J0.0000 F1020.00
G2 X-170.4400 Y-152.5000 Z-2.5400 I-7.9400 J0.0000 F1020.00
G2 X-154.5600 Y-152.5000 Z-2.5400 I7.9400 J0.0000 F1020.00
G0 Z3.0000
G0 X-161.2320 Y-127.5000
G0 Z3.0000
G1 Z0.0000 F1020.00
G2 X-163.7680 Y-127.5000 Z-0.6350 I-1.2680 J0.0000 F1020.00
G2 X-161.2320 Y-127.5000 Z-1.2700 I1.2680 J0.0000 F1020.00
G2 X-163.7680 Y-127.5000 Z-1.9050 I-1.2680 J0.0000 F1020.00
G2 X-161.2320 Y-127.5000 Z-2.5400 I1.2680 J0.0000 F1020.00
G2 X-163.7680 Y-127.5000 Z-2.5400 I-1.2680 J0.0000 F1020.00
G2 X-161.2320 Y-127.5000 Z-2.5400 I1.2680 J0.0000 F1020.00
G0 Z3.0000
G0 X-159.0080 Y-127.5000
G0 Z3.0000
G1 Z0.0000 F1020.00
G2 X-165.9920 Y-127.5000 Z-0.6350 I-3.4920 J0.0000 F1020.00
G2 X-159.0080 Y-127.5000 Z-1.2700 I3.4920 J0.0000 F1020.00
G2 X-165.9920 Y-127.5000 Z-1.9050 I-3.4920 J0.0000 F1020.00
G2 X-159.0080 Y-127.5000 Z-2.5400 I3.4920 J0.0000 F1020.00
G2 X-165.9920 Y-127.5000 Z-2.5400 I-3.4920 J0.0000 F1020.00
G2 X-159.0080 Y-127.5000 Z-2.5400 I3.4920 J0.0000 F1020.00
G0 Z3.0000
G0 X-156.7840 Y-127.5000
G0 Z3.0000
G1 Z0.0000 F1020.00
G2 X-168.2160 Y-127.5000 Z-0.6350 I-5.7160 J0.0000 F1020.00
G2 X-156.7840 Y-127.5000 Z-1.2700 I5.7160 J0.0000 F1020.00
G2 X-168.2160 Y-127.5000 Z-1.9050 I-5.7160 J0.0000 F1020.00
G2 X-156.7840 Y-127.5000 Z-2.5400 I5.7160 J0.0000 F1020.00
G2 X-168.2160 Y-127.5000 Z-2.5400 I-5.7160 J0.0000 F1020.00
G2 X-156.7840 Y-127.5000 Z-2.5400 I5.7160 J0.0000 F1020.00
G0 Z3.0000
G0 X-154.5600 Y-127.5000
G0 Z3.0000
G1 Z0.0000 F1020.00
G2 X-170.4400 Y-127.5000 Z-0.6350 I-7.9400 J0.0000 F1020.00
G2 X-154.5600 Y-127.5000 Z-1.2700 I7.9400 J0.0000 F1020.00
G2 X-170.4400 Y-127.5000 Z-1.9050 I-7.9400 J0.0000 F1020.00
G2 X-154.5600 Y-127.5000 Z-2.5400 I7.9400 J0.0000 F1020.00
G2 X-170.4400 Y-127.5000 Z-2.5400 I-7.9400 J0.0000 F1020.00
G2 X-154.5600 Y-127.5000 Z-2.5400 I7.9400 J0.0000 F1020.00
G0 Z3.0000
G0 X-161.2320 Y-102.5000
G0 Z3.0000
G1 Z0.0000 F1020.00
G2 X-163.7680 Y-102.5000 Z-0.6350 I-1.2680 J0.0000 F1020.00
G2 X-161.2320 Y-102.5000 Z-1.2700 I1.2680 J0.0000 F1020.00
G2 X-163.7680 Y-102.5000 Z-1.9050 I-1.2680 J0.0000 F1020.00
G2 X-161.2320 Y-102.5000 Z-2.5400 I1.2680 J0.0000 F1020.00
G2 X-163.7680 Y-102.5000 Z-2.5400 I-1.2680 J0.0000 F1020.00
G2 X-161.2320 Y-102.5000 Z-2.5400 I1.2680 J0.0000 F1020.00
G0 Z3.0000
G0 X-159.0080 Y-102.5000
G0 Z3.0000
G1 Z0.0000 F1020.00
G2 X-165.9920 Y-102.5000 Z-0.6350 I-3.4920 J0.0000 F1020.00
G2 X-159.0080 Y-102.5000 Z-1.2700 I3.4920 J0.0000 F1020.00
G2 X-165.9920 Y-102.5000 Z-1.9050 I-3.4920 J0.0000 F1020.00
G2 X-159.0080 Y-102.5000 Z-2.5400 I3.4920 J0.0000 F1020.00
G2 X-165.9920 Y-102.5000 Z-2.5400 I-3.4920 J0.0000 F1020.00
G2 X-159.0080 Y-102.5000 Z-2.5400 I3.4920 J0.0000 F1020.00
G0 Z3.0000
G0 X-156.7840 Y-102.5000
G0 Z3.0000
G1 Z0.0000 F1020.00
G2 X-168.2160 Y-102.5000 Z-0.6350 I-5.7160 J0.0000 F1020.00
G2 X-156.7840 Y-102.5000 Z-1.2700 I5.7160 J0.0000 F1020.00
G2 X-168.2160 Y-102.5000 Z-1.9050 I-5.7160 J0.0000 F1020.00
G2 X-156.7840 Y-102.5000 Z-2.5400 I5.7160 J0.0000 F1020.00
G2 X-168.2160 Y-102.5000 Z-2.5400 I-5.7160 J0.0000 F1020.00
G2 X-156.7840 Y-102.5000 Z-2.5400 I5.7160 J0.0000 F1020.00
G0 Z3.0000
G0 X-154.5600 Y-102.5000
G0 Z3.0000
G1 Z0.0000 F1020.00
G2 X-170.4400 Y-102.5000 Z-0.6350 I-7.9400 J0.0000 F1020.00
G2 X-154.5600 Y-102.5000 Z-1.2700 I7.9400 J0.0000 F1020.00
G2 X-170.4400 Y-102.5000 Z-1.9050 I-7.9400 J0.0000 F1020.00
G2 X-154.5600 Y-102.5000 Z-2.5400 I7.9400 J0.0000 F1020.00
G2 X-170.4400 Y-102.5000 Z-2.5400 I-7.9400 J0.0000 F1020.00
G2 X-154.5600 Y-102.5000 Z-2.5400 I7.9400 J0.0000 F1020.00
G0 Z3.0000
G0 X-161.2320 Y-77.5000
G0 Z3.0000
G1 Z0.0000 F1020.00
G2 X-163.7680 Y-77.5000 Z-0.6350 I-1.2680 J0.0000 F1020.00
G2 X-161.2320 Y-77.5000 Z-1.2700 I1.2680 J0.0000 F1020.00
G2 X-163.7680 Y-77.5000 Z-1.9050 I-1.2680 J0.0000 F1020.00
G2 X-161.2320 Y-77.5000 Z-2.5400 I1.2680 J0.0000 F1020.00
G2 X-163.7680 Y-77.5000 Z-2.5400 I-1.2680 J0.0000 F1020.00
G2 X-161.2320 Y-77.5000 Z-2.5400 I1.2680 J0.0000 F1020.00
G0 Z3.0000
G0 X-159.0080 Y-77.5000
G0 Z3.0000
G1 Z0.0000 F1020.00
G2 X-165.9920 Y-77.5000 Z-0.6350 I-3.4920 J0.0000 F1020.00
G2 X-159.0080 Y-77.5000 Z-1.2700 I3.4920 J0.0000 F1020.00
G2 X-165.9920 Y-77.5000 Z-1.9050 I-3.4920 J0.0000 F1020.00
G2 X-159.0080 Y-77.5000 Z-2.5400 I3.4920 J0.0000 F1020.00
G2 X-165.9920 Y-77.5000 Z-2.5400 I-3.4920 J0.0000 F1020.00
G2 X-159.0080 Y-77.5000 Z-2.5400 I3.4920 J0.0000 F1020.00
G0 Z3.0000
G0 X-156.7840 Y-77.5000
G0 Z3.0000
G1 Z0.0000 F1020.00
G2 X-168.2160 Y-77.5000 Z-0.6350 I-5.7160 J0.0000 F1020.00
G2 X-156.7840 Y-77.5000 Z-1.2700 I5.7160 J0.0000 F1020.00
G2 X-168.2160 Y-77.5000 Z-1.9050 I-5.7160 J0.0000 F1020.00
G2 X-156.7840 Y-77.5000 Z-2.5400 I5.7160 J0.0000 F1020.00
G2 X-168.2160 Y-77.5000 Z-2.5400 I-5.7160 J0.0000 F1020.00
G2 X-156.7840 Y-77.5000 Z-2.5400 I5.7160 J0.0000 F1020.00
G0 Z3.0000
G0 X-154.5600 Y-77.5000
G0 Z3.0000
G1 Z0.0000 F1020.00
G2 X-170.4400 Y-77.5000 Z-0.6350 I-7.9400 J0.0000 F1020.00
G2 X-154.5600 Y-77.5000 Z-1.2700 I7.9400 J0.0000 F1020.00
G2 X-170.4400 Y-77.5000 Z-1.9050 I-7.9400 J0.0000 F1020.00
G2 X-154.5600 Y-77.5000 Z-2.5400 I7.9400 J0.0000 F1020.00
G2 X-170.4400 Y-77.5000 Z-2.5400 I-7.9400 J0.0000 F1020.00
G2 X-154.5600 Y-77.5000 Z-2.5400 I7.9400 J0.0000 F1020.00
G0 Z3.0000
G0 X-161.2320 Y-52.5000
G0 Z3.0000
G1 Z0.0000 F1020.00
G2 X-163.7680 Y-52.5000 Z-0.6350 I-1.2680 J0.0000 F1020.00
G2 X-161.2320 Y-52.5000 Z-1.2700 I1.2680 J0.0000 F1020.00
G2 X-163.7680 Y-52.5000 Z-1.9050 I-1.2680 J0.0000 F1020.00
G2 X-161.2320 Y-52.5000 Z-2.5400 I1.2680 J0.0000 F1020.00
G2 X-163.7680 Y-52.5000 Z-2.5400 I-1.2680 J0.0000 F1020.00
G2 X-161.2320 Y-52.5000 Z-2.5400 I1.2680 J0.0000 F1020.00
G0 Z3.0000
G0 X-159.0080 Y-52.5000
G0 Z3.0000
G1 Z0.0000 F1020.00
G2 X-165.9920 Y-52.5000 Z-0.6350 I-3.4920 J0.0000 F1020.00
G2 X-159.0080 Y-52.5000 Z-1.2700 I3.4920 J0.0000 F1020.00
G2 X-165.9920 Y-52.5000 Z-1.9050 I-3.4920 J0.0000 F1020.00
G2 X-159.0080 Y-52.5000 Z-2.5400 I3.4920 J0.0000 F1020.00
G2 X-165.9920 Y-52.5000 Z-2.5400 I-3.4920 J0.0000 F1020.00
G2 X-159.0080 Y-52.5000 Z-2.5400 I3.4920 J0.0000 F1020.00
G0 Z3.0000
G0 X-156.7840 Y-52.5000
G0 Z3.0000
G1 Z0.0000 F1020.00
G2 X-168.2160 Y-52.5000 Z-0.6350 I-5.7160 J0.0000 F1020.00
G2 X-156.7840 Y-52.5000 Z-1.2700 I5.7160 J0.0000 F1020.00
G2 X-168.2160 Y-52.5000 Z-1.9050 I-5.7160 J0.0000 F1020.00
G2 X-156.7840 Y-52.5000 Z-2.5400 I5.7160 J0.0000 F1020.00
G2 X-168.2160 Y-52.5000 Z-2.5400 I-5.7160 J0.0000 F1020.00
G2 X-156.7840 Y-52.5000 Z-2.5400 I5.7160 J0.0000 F1020.00
G0 Z3.0000
G0 X-154.5600 Y-52.5000
G0 Z3.0000
G1 Z0.0000 F1020.00
G2 X-170.4400 Y-52.5000 Z-0.6350 I-7.9400 J0.0000 F1020.00
G2 X-154.5600 Y-52.5000 Z-1.2700 I7.9400 J0.0000 F1020.00
G2 X-170.4400 Y-52.5000 Z-1.9050 I-7.9400 J0.0000 F1020.00
G2 X-154.5600 Y-52.5000 Z-2.5400 I7.9400 J0.0000 F1020.00
G2 X-170.4400 Y-52.5000 Z-2.5400 I-7.9400 J0.0000 F1020.00
G2 X-154.5600 Y-52.5000 Z-2.5400 I7.9400 J0.0000 F1020.00
G0 Z3.0000
G0 X-161.2320 Y-27.5000
G0 Z3.0000
G1 Z0.0000 F1020.00
G2 X-163.7680 Y-27.5000 Z-0.6350 I-1.2680 J0.0000 F1020.00
G2 X-161.2320 Y-27.5000 Z-1.2700 I1.2680 J0.0000 F1020.00
G2 X-163.7680 Y-27.5000 Z-1.9050 I-1.2680 J0.0000 F1020.00
G2 X-161.2320 Y-27.5000 Z-2.5400 I1.2680 J0.0000 F1020.00
G2 X-163.7680 Y-27.5000 Z-2.5400 I-1.2680 J0.0000 F1020.00
G2 X-161.2320 Y-27.5000 Z-2.5400 I1.2680 J0.0000 F1020.00
G0 Z3.0000
G0 X-159.0080 Y-27.5000
G0 Z3.0000
G1 Z0.0000 F1020.00
G2 X-165.9920 Y-27.5000 Z-0.6350 I-3.4920 J0.0000 F1020.00
G2 X-159.0080 Y-27.5000 Z-1.2700 I3.4920 J0.0000 F1020.00
G2 X-165.9920 Y-27.5000 Z-1.9050 I-3.4920 J0.0000 F1020.00
G2 X-159.0080 Y-27.5000 Z-2.5400 I3.4920 J0.0000 F1020.00
G2 X-165.9920 Y-27.5000 Z-2.5400 I-3.4920 J0.0000 F1020.00
G2 X-159.0080 Y-27.5000 Z-2.5400 I3.4920 J0.0000 F1020.00
G0 Z3.0000
G0 X-156.7840 Y-27.5000
G0 Z3.0000
G1 Z0.0000 F1020.00
G2 X-168.2160 Y-27.5000 Z-0.6350 I-5.7160 J0.0000 F1020.00
G2 X-156.7840 Y-27.5000 Z-1.2700 I5.7160 J0.0000 F1020.00
G2 X-168.2160 Y-27.5000 Z-1.9050 I-5.7160 J0.0000 F1020.00
G2 X-156.7840 Y-27.5000 Z-2.5400 I5.7160 J0.0000 F1020.00
G2 X-168.2160 Y-27.5000 Z-2.5400 I-5.7160 J0.0000 F1020.00
G2 X-156.7840 Y-27.5000 Z-2.5400 I5.7160 J0.0000 F1020.00
G0 Z3.0000
G0 X-154.5600 Y-27.5000
G0 Z3.0000
G1 Z0.0000 F1020.00
G2 X-170.4400 Y-27.5000 Z-0.6350 I-7.9400 J0.0000 F1020.00
G2 X-154.5600 Y-27.5000 Z-1.2700 I7.9400 J0.0000 F1020.00
G2 X-170.4400 Y-27.5000 Z-1.9050 I-7.9400 J0.0000 F1020.00
G2 X-154.5600 Y-27.5000 Z-2.5400 I7.9400 J0.0000 F1020.00
G2 X-170.4400 Y-27.5000 Z-2.5400 I-7.9400 J0.0000 F1020.00
G2 X-154.5600 Y-27.5000 Z-2.5400 I7.9400 J0.0000 F1020.00
G0 Z3.0000
G0 X-186.2320 Y-27.5000
G0 Z3.0000
G1 Z0.0000 F1020.00
G2 X-188.7680 Y-27.5000 Z-0.6350 I-1.2680 J0.0000 F1020.00
G2 X-186.2320 Y-27.5000 Z-1.2700 I1.2680 J0.0000 F1020.00
G2 X-188.7680 Y-27.5000 Z-1.9050 I-1.2680 J0.0000 F1020.00
G2 X-186.2320 Y-27.5000 Z-2.5400 I1.2680 J0.0000 F1020.00
G2 X-188.7680 Y-27.5000 Z-2.5400 I-1.2680 J0.0000 F1020.00
G2 X-186.2320 Y-27.5000 Z-2.5400 I1.2680 J0.0000 F1020.00
G0 Z3.0000
G0 X-184.0080 Y-27.5000
G0 Z3.0000
G1 Z0.0000 F1020.00
G2 X-190.9920 Y-27.5000 Z-0.6350 I-3.4920 J0.0000 F1020.00
G2 X-184.0080 Y-27.5000 Z-1.2700 I3.4920 J0.0000 F1020.00
G2 X-190.9920 Y-27.5000 Z-1.9050 I-3.4920 J0.0000 F1020.00
G2 X-184.0080 Y-27.5000 Z-2.5400 I3.4920 J0.0000 F1020.00
G2 X-190.9920 Y-27.5000 Z-2.5400 I-3.4920 J0.0000 F1020.00
G2 X-184.0080 Y-27.5000 Z-2.5400 I3.4920 J0.0000 F1020.00
G0 Z3.0000
G0 X-181.7840 Y-27.5000
G0 Z3.0000
G1 Z0.0000 F1020.00
G2 X-193.2160 Y-27.5000 Z-0.6350 I-5.7160 J0.0000 F1020.00
G2 X-181.7840 Y-27.5000 Z-1.2700 I5.7160 J0.0000 F1020.00
G2 X-193.2160 Y-27.5000 Z-1.9050 I-5.7160 J0.0000 F1020.00
G2 X-181.7840 Y-27.5000 Z-2.5400 I5.7160 J0.0000 F1020.00
G2 X-193.2160 Y-27.5000 Z-2.5400 I-5.7160 J0.0000 F1020.00
G2 X-181.7840 Y-27.5000 Z-2.5400 I5.7160 J0.0000 F1020.00
G0 Z3.0000
G0 X-179.5600 Y-27.5000
G0 Z3.0000
G1 Z0.0000 F1020.00
G2 X-195.4400 Y-27.5000 Z-0.6350 I-7.9400 J0.0000 F1020.00
G2 X-179.5600 Y-27.5000 Z-1.2700 I7.9400 J0.0000 F1020.00
G2 X-195.4400 Y-27.5000 Z-1.9050 I-7.9400 J0.0000 F1020.00
G2 X-179.5600 Y-27.5000 Z-2.5400 I7.9400 J0.0000 F1020.00
G2 X-195.4400 Y-27.5000 Z-2.5400 I-7.9400 J0.0000 F1020.00
G2 X-179.5600 Y-27.5000 Z-2.5400 I7.9400 J0.0000 F1020.00
G0 Z3.0000
G0 X-186.2320 Y-52.5000
G0 Z3.0000
G1 Z0.0000 F1020.00
G2 X-188.7680 Y-52.5000 Z-0.6350 I-1.2680 J0.0000 F1020.00
G2 X-186.2320 Y-52.5000 Z-1.2700 I1.2680 J0.0000 F1020.00
G2 X-188.7680 Y-52.5000 Z-1.9050 I-1.2680 J0.0000 F1020.00
G2 X-186.2320 Y-52.5000 Z-2.5400 I1.2680 J0.0000 F1020.00
G2 X-188.7680 Y-52.5000 Z-2.5400 I-1.2680 J0.0000 F1020.00
G2 X-186.2320 Y-52.5000 Z-2.5400 I1.2680 J0.0000 F1020.00
G0 Z3.0000
G0 X-184.0080 Y-52.5000
G0 Z3.0000
G1 Z0.0000 F1020.00
G2 X-190.9920 Y-52.5000 Z-0.6350 I-3.4920 J0.0000 F1020.00
G2 X-184.0080 Y-52.5000 Z-1.2700 I3.4920 J0.0000 F1020.00
G2 X-190.9920 Y-52.5000 Z-1.9050 I-3.4920 J0.0000 F1020.00
G2 X-184.0080 Y-52.5000 Z-2.5400 I3.4920 J0.0000 F1020.00
G2 X-190.9920 Y-52.5000 Z-2.5400 I-3.4920 J0.0000 F1020.00
G2 X-184.0080 Y-52.5000 Z-2.5400 I3.4920 J0.0000 F1020.00
G0 Z3.0000
G0 X-181.7840 Y-52.5000
G0 Z3.0000
G1 Z0.0000 F1020.00
G2 X-193.2160 Y-52.5000 Z-0.6350 I-5.7160 J0.0000 F1020.00
G2 X-181.7840 Y-52.5000 Z-1.2700 I5.7160 J0.0000 F1020.00
G2 X-193.2160 Y-52.5000 Z-1.9050 I-5.7160 J0.0000 F1020.00
G2 X-181.7840 Y-52.5000 Z-2.5400 I5.7160 J0.0000 F1020.00
G2 X-193.2160 Y-52.5000 Z-2.5400 I-5.7160 J0.0000 F1020.00
G2 X-181.7840 Y-52.5000 Z-2.5400 I5.7160 J0.0000 F1020.00
G0 Z3.0000
G0 X-179.5600 Y-52.5000
G0 Z3.0000
G1 Z0.0000 F1020.00
G2 X-195.4400 Y-52.5000 Z-0.6350 I-7.9400 J0.0000 F1020.00
G2 X-179.5600 Y-52.5000 Z-1.2700 I7.9400 J0.0000 F1020.00
G2 X-195.4400 Y-52.5000 Z-1.9050 I-7.9400 J0.0000 F1020.00
G2 X-179.5600 Y-52.5000 Z-2.5400 I7.9400 J0.0000 F1020.00
G2 X-195.4400 Y-52.5000 Z-2.5400 I-7.9400 J0.0000 F1020.00
G2 X-179.5600 Y-52.5000 Z-2.5400 I7.9400 J0.0000 F1020.00
G0 Z3.0000
G0 X-186.2320 Y-77.5000
G0 Z3.0000
G1 Z0.0000 F1020.00
G2 X-188.7680 Y-77.5000 Z-0.6350 I-1.2680 J0.0000 F1020.00
G2 X-186.2320 Y-77.5000 Z-1.2700 I1.2680 J0.0000 F1020.00
G2 X-188.7680 Y-77.5000 Z-1.9050 I-1.2680 J0.0000 F1020.00
G2 X-186.2320 Y-77.5000 Z-2.5400 I1.2680 J0.0000 F1020.00
G2 X-188.7680 Y-77.5000 Z-2.5400 I-1.2680 J0.0000 F1020.00
G2 X-186.2320 Y-77.5000 Z-2.5400 I1.2680 J0.0000 F1020.00
G0 Z3.0000
G0 X-184.0080 Y-77.5000
G0 Z3.0000
G1 Z0.0000 F1020.00
G2 X-190.9920 Y-77.5000 Z-0.6350 I-3.4920 J0.0000 F1020.00
G2 X-184.0080 Y-77.5000 Z-1.2700 I3.4920 J0.0000 F1020.00
G2 X-190.9920 Y-77.5000 Z-1.9050 I-3.4920 J0.0000 F1020.00
G2 X-184.0080 Y-77.5000 Z-2.5400 I3.4920 J0.0000 F1020.00
G2 X-190.9920 Y-77.5000 Z-2.5400 I-3.4920 J0.0000 F1020.00
G2 X-184.0080 Y-77.5000 Z-2.5400 I3.4920 J0.0000 F1020.00
G0 Z3.0000
G0 X-181.7840 Y-77.5000
G0 Z3.0000
G1 Z0.0000 F1020.00
G2 X-193.2160 Y-77.5000 Z-0.6350 I-5.7160 J0.0000 F1020.00
G2 X-181.7840 Y-77.5000 Z-1.2700 I5.7160 J0.0000 F1020.00
G2 X-193.2160 Y-77.5000 Z-1.9050 I-5.7160 J0.0000 F1020.00
G2 X-181.7840 Y-77.5000 Z-2.5400 I5.7160 J0.0000 F1020.00
G2 X-193.2160 Y-77.5000 Z-2.5400 I-5.7160 J0.0000 F1020.00
G2 X-181.7840 Y-77.5000 Z-2.5400 I5.7160 J0.0000 F1020.00
G0 Z3.0000
G0 X-179.5600 Y-77.5000
G0 Z3.0000
G1 Z0.0000 F1020.00
G2 X-195.4400 Y-77.5000 Z-0.6350 I-7.9400 J0.0000 F1020.00
G2 X-179.5600 Y-77.5000 Z-1.2700 I7.9400 J0.0000 F1020.00
G2 X-195.4400 Y-77.5000 Z-1.9050 I-7.9400 J0.0000 F1020.00
G2 X-179.5600 Y-77.5000 Z-2.5400 I7.9400 J0.0000 F1020.00
G2 X-195.4400 Y-77.5000 Z-2.5400 I-7.9400 J0.0000 F1020.00
G2 X-179.5600 Y-77.5000 Z-2.5400 I7.9400 J0.0000 F1020.00
G0 Z3.0000
G0 X-186.2320 Y-102.5000
G0 Z3.0000
G1 Z0.0000 F1020.00
G2 X-188.7680 Y-102.5000 Z-0.6350 I-1.2680 J0.0000 F1020.00
G2 X-186.2320 Y-102.5000 Z-1.2700 I1.2680 J0.0000 F1020.00
G2 X-188.7680 Y-102.5000 Z-1.9050 I-1.2680 J0.0000 F1020.00
G2 X-186.2320 Y-102.5000 Z-2.5400 I1.2680 J0.0000 F1020.00
G2 X-188.7680 Y-102.5000 Z-2.5400 I-1.2680 J0.0000 F1020.00
G2 X-186.2320 Y-102.5000 Z-2.5400 I1.2680 J0.0000 F1020.00
G0 Z3.0000
G0 X-184.0080 Y-102.5000
G0 Z3.0000
G1 Z0.0000 F1020.00
G2 X-190.9920 Y-102.5000 Z-0.6350 I-3.4920 J0.0000 F1020.00
G2 X-184.0080 Y-102.5000 Z-1.2700 I3.4920 J0.0000 F1020.00
G2 X-190.9920 Y-102.5000 Z-1.9050 I-3.4920 J0.0000 F1020.00
G2 X-184.0080 Y-102.5000 Z-2.5400 I3.4920 J0.0000 F1020.00
G2 X-190.9920 Y-102.5000 Z-2.5400 I-3.4920 J0.0000 F1020.00
G2 X-184.0080 Y-102.5000 Z-2.5400 I3.4920 J0.0000 F1020.00
G0 Z3.0000
G0 X-181.7840 Y-102.5000
G0 Z3.0000
G1 Z0.0000 F1020.00
G2 X-193.2160 Y-102.5000 Z-0.6350 I-5.7160 J0.0000 F1020.00
G2 X-181.7840 Y-102.5000 Z-1.2700 I5.7160 J0.0000 F1020.00
G2 X-193.2160 Y-102.5000 Z-1.9050 I-5.7160 J0.0000 F1020.00
G2 X-181.7840 Y-102.5000 Z-2.5400 I5.7160 J0.0000 F1020.00
G2 X-193.2160 Y-102.5000 Z-2.5400 I-5.7160 J0.0000 F1020.00
G2 X-181.7840 Y-102.5000 Z-2.5400 I5.7160 J0.0000 F1020.00
G0 Z3.0000
G0 X-179.5600 Y-102.5000
G0 Z3.0000
G1 Z0.0000 F1020.00
G2 X-195.4400 Y-102.5000 Z-0.6350 I-7.9400 J0.0000 F1020.00
G2 X-179.5600 Y-102.5000 Z-1.2700 I7.9400 J0.0000 F1020.00
G2 X-195.4400 Y-102.5000 Z-1.9050 I-7.9400 J0.0000 F1020.00
G2 X-179.5600 Y-102.5000 Z-2.5400 I7.9400 J0.0000 F1020.00
G2 X-195.4400 Y-102.5000 Z-2.5400 I-7.9400 J0.0000 F1020.00
G2 X-179.5600 Y-102.5000 Z-2.5400 I7.9400 J0.0000 F1020.00
G0 Z3.0000
G0 X-186.2320 Y-127.5000
G0 Z3.0000
G1 Z0.0000 F1020.00
G2 X-188.7680 Y-127.5000 Z-0.6350 I-1.2680 J0.0000 F1020.00
G2 X-186.2320 Y-127.5000 Z-1.2700 I1.2680 J0.0000 F1020.00
G2 X-188.7680 Y-127.5000 Z-1.9050 I-1.2680 J0.0000 F1020.00
G2 X-186.2320 Y-127.5000 Z-2.5400 I1.2680 J0.0000 F1020.00
G2 X-188.7680 Y-127.5000 Z-2.5400 I-1.2680 J0.0000 F1020.00
G2 X-186.2320 Y-127.5000 Z-2.5400 I1.2680 J0.0000 F1020.00
G0 Z3.0000
G0 X-184.0080 Y-127.5000
G0 Z3.0000
G1 Z0.0000 F1020.00
G2 X-190.9920 Y-127.5000 Z-0.6350 I-3.4920 J0.0000 F1020.00
G2 X-184.0080 Y-127.5000 Z-1.2700 I3.4920 J0.0000 F1020.00
G2 X-190.9920 Y-127.5000 Z-1.9050 I-3.4920 J0.0000 F1020.00
G2 X-184.0080 Y-127.5000 Z-2.5400 I3.4920 J0.0000 F1020.00
G2 X-190.9920 Y-127.5000 Z-2.5400 I-3.4920 J0.0000 F1020.00
G2 X-184.0080 Y-127.5000 Z-2.5400 I3.4920 J0.0000 F1020.00
G0 Z3.0000
G0 X-181.7840 Y-127.5000
G0 Z3.0000
G1 Z0.0000 F1020.00
G2 X-193.2160 Y-127.5000 Z-0.6350 I-5.7160 J0.0000 F1020.00
G2 X-181.7840 Y-127.5000 Z-1.2700 I5.7160 J0.0000 F1020.00
G2 X-193.2160 Y-127.5000 Z-1.9050 I-5.7160 J0.0000 F1020.00
G2 X-181.7840 Y-127.5000 Z-2.5400 I5.7160 J0.0000 F1020.00
G2 X-193.2160 Y-127.5000 Z-2.5400 I-5.7160 J0.0000 F1020.00
G2 X-181.7840 Y-127.5000 Z-2.5400 I5.7160 J0.0000 F1020.00
G0 Z3.0000
G0 X-179.5600 Y-127.5000
G0 Z3.0000
G1 Z0.0000 F1020.00
G2 X-195.4400 Y-127.5000 Z-0.6350 I-7.9400 J0.0000 F1020.00
G2 X-179.5600 Y-127.5000 Z-1.2700 I7.9400 J0.0000 F1020.00
G2 X-195.4400 Y-127.5000 Z-1.9050 I-7.9400 J0.0000 F1020.00
G2 X-179.5600 Y-127.5000 Z-2.5400 I7.9400 J0.0000 F1020.00
G2 X-195.4400 Y-127.5000 Z-2.5400 I-7.9400 J0.0000 F1020.00
G2 X-179.5600 Y-127.5000 Z-2.5400 I7.9400 J0.0000 F1020.00
G0 Z3.0000
G0 X-186.2320 Y-152.5000
G0 Z3.0000
G1 Z0.0000 F1020.00
G2 X-188.7680 Y-152.5000 Z-0.6350 I-1.2680 J0.0000 F1020.00
G2 X-186.2320 Y-152.5000 Z-1.2700 I1.2680 J0.0000 F1020.00
G2 X-188.7680 Y-152.5000 Z-1.9050 I-1.2680 J0.0000 F1020.00
G2 X-186.2320 Y-152.5000 Z-2.5400 I1.2680 J0.0000 F1020.00
G2 X-188.7680 Y-152.5000 Z-2.5400 I-1.2680 J0.0000 F1020.00
G2 X-186.2320 Y-152.5000 Z-2.5400 I1.2680 J0.0000 F1020.00
G0 Z3.0000
G0 X-184.0080 Y-152.5000
G0 Z3.0000
G1 Z0.0000 F1020.00
G2 X-190.9920 Y-152.5000 Z-0.6350 I-3.4920 J0.0000 F1020.00
G2 X-184.0080 Y-152.5000 Z-1.2700 I3.4920 J0.0000 F1020.00
G2 X-190.9920 Y-152.5000 Z-1.9050 I-3.4920 J0.0000 F1020.00
G2 X-184.0080 Y-152.5000 Z-2.5400 I3.4920 J0.0000 F1020.00
G2 X-190.9920 Y-152.5000 Z-2.5400 I-3.4920 J0.0000 F1020.00
G2 X-184.0080 Y-152.5000 Z-2.5400 I3.4920 J0.0000 F1020.00
G0 Z3.0000
G0 X-181.7840 Y-152.5000
G0 Z3.0000
G1 Z0.0000 F1020.00
G2 X-193.2160 Y-152.5000 Z-0.6350 I-5.7160 J0.0000 F1020.00
G2 X-181.7840 Y-152.5000 Z-1.2700 I5.7160 J0.0000 F1020.00
G2 X-193.2160 Y-152.5000 Z-1.9050 I-5.7160 J0.0000 F1020.00
G2 X-181.7840 Y-152.5000 Z-2.5400 I5.7160 J0.0000 F1020.00
G2 X-193.2160 Y-152.5000 Z-2.5400 I-5.7160 J0.0000 F1020.00
G2 X-181.7840 Y-152.5000 Z-2.5400 I5.7160 J0.0000 F1020.00
G0 Z3.0000
G0 X-179.5600 Y-152.5000
G0 Z3.0000
G1 Z0.0000 F1020.00
G2 X-195.4400 Y-152.5000 Z-0.6350 I-7.9400 J0.0000 F1020.00
G2 X-179.5600 Y-152.5000 Z-1.2700 I7.9400 J0.0000 F1020.00
G2 X-195.4400 Y-152.5000 Z-1.9050 I-7.9400 J0.0000 F1020.00
G2 X-179.5600 Y-152.5000 Z-2.5400 I7.9400 J0.0000 F1020.00
G2 X-195.4400 Y-152.5000 Z-2.5400 I-7.9400 J0.0000 F1020.00
G2 X-179.5600 Y-152.5000 Z-2.5400 I7.9400 J0.0000 F1020.00
G0 Z3.0000
G0 X-211.2320 Y-152.5000
G0 Z3.0000
G1 Z0.0000 F1020.00
G2 X-213.7680 Y-152.5000 Z-0.6350 I-1.2680 J0.0000 F1020.00
G2 X-211.2320 Y-152.5000 Z-1.2700 I1.2680 J0.0000 F1020.00
G2 X-213.7680 Y-152.5000 Z-1.9050 I-1.2680 J0.0000 F1020.00
G2 X-211.2320 Y-152.5000 Z-2.5400 I1.2680 J0.0000 F1020.00
G2 X-213.7680 Y-152.5000 Z-2.5400 I-1.2680 J0.0000 F1020.00
G2 X-211.2320 Y-152.5000 Z-2.5400 I1.2680 J0.0000 F1020.00
G0 Z3.0000
G0 X-209.0080 Y-152.5000
G0 Z3.0000
G1 Z0.0000 F1020.00
G2 X-215.9920 Y-152.5000 Z-0.6350 I-3.4920 J0.0000 F1020.00
G2 X-209.0080 Y-152.5000 Z-1.2700 I3.4920 J0.0000 F1020.00
G2 X-215.9920 Y-152.5000 Z-1.9050 I-3.4920 J0.0000 F1020.00
G2 X-209.0080 Y-152.5000 Z-2.5400 I3.4920 J0.0000 F1020.00
G2 X-215.9920 Y-152.5000 Z-2.5400 I-3.4920 J0.0000 F1020.00
G2 X-209.0080 Y-152.5000 Z-2.5400 I3.4920 J0.0000 F1020.00
G0 Z3.0000
G0 X-206.7840 Y-152.5000
G0 Z3.0000
G1 Z0.0000 F1020.00
G2 X-218.2160 Y-152.5000 Z-0.6350 I-5.7160 J0.0000 F1020.00
G2 X-206.7840 Y-152.5000 Z-1.2700 I5.7160 J0.0000 F1020.00
G2 X-218.2160 Y-152.5000 Z-1.9050 I-5.7160 J0.0000 F1020.00
G2 X-206.7840 Y-152.5000 Z-2.5400 I5.7160 J0.0000 F1020.00
G2 X-218.2160 Y-152.5000 Z-2.5400 I-5.7160 J0.0000 F1020.00
G2 X-206.7840 Y-152.5000 Z-2.5400 I5.7160 J0.0000 F1020.00
G0 Z3.0000
G0 X-204.5600 Y-152.5000
G0 Z3.0000
G1 Z0.0000 F1020.00
G2 X-220.4400 Y-152.5000 Z-0.6350 I-7.9400 J0.0000 F1020.00
G2 X-204.5600 Y-152.5000 Z-1.2700 I7.9400 J0.0000 F1020.00
G2 X-220.4400 Y-152.5000 Z-1.9050 I-7.9400 J0.0000 F1020.00
G2 X-204.5600 Y-152.5000 Z-2.5400 I7.9400 J0.0000 F1020.00
G2 X-220.4400 Y-152.5000 Z-2.5400 I-7.9400 J0.0000 F1020.00
G2 X-204.5600 Y-152.5000 Z-2.5400 I7.9400 J0.0000 F1020.00
G0 Z3.0000
G0 X-211.2320 Y-127.5000
G0 Z3.0000
G1 Z0.0000 F1020.00
G2 X-213.7680 Y-127.5000 Z-0.6350 I-1.2680 J0.0000 F1020.00
G2 X-211.2320 Y-127.5000 Z-1.2700 I1.2680 J0.0000 F1020.00
G2 X-213.7680 Y-127.5000 Z-1.9050 I-1.2680 J0.0000 F1020.00
G2 X-211.2320 Y-127.5000 Z-2.5400 I1.2680 J0.0000 F1020.00
G2 X-213.7680 Y-127.5000 Z-2.5400 I-1.2680 J0.0000 F1020.00
G2 X-211.2320 Y-127.5000 Z-2.5400 I1.2680 J0.0000 F1020.00
G0 Z3.0000
G0 X-209.0080 Y-127.5000
G0 Z3.0000
G1 Z0.0000 F1020.00
G2 X-215.9920 Y-127.5000 Z-0.6350 I-3.4920 J0.0000 F1020.00
G2 X-209.0080 Y-127.5000 Z-1.2700 I3.4920 J0.0000 F1020.00
G2 X-215.9920 Y-127.5000 Z-1.9050 I-3.4920 J0.0000 F1020.00
G2 X-209.0080 Y-127.5000 Z-2.5400 I3.4920 J0.0000 F1020.00
G2 X-215.9920 Y-127.5000 Z-2.5400 I-3.4920 J0.0000 F1020.00
G2 X-209.0080 Y-127.5000 Z-2.5400 I3.4920 J0.0000 F1020.00
G0 Z3.0000
G0 X-206.7840 Y-127.5000
G0 Z3.0000
G1 Z0.0000 F1020.00
G2 X-218.2160 Y-127.5000 Z-0.6350 I-5.7160 J0.0000 F1020.00
G2 X-206.7840 Y-127.5000 Z-1.2700 I5.7160 J0.0000 F1020.00
G2 X-218.2160 Y-127.5000 Z-1.9050 I-5.7160 J0.0000 F1020.00
G2 X-206.7840 Y-127.5000 Z-2.5400 I5.7160 J0.0000 F1020.00
G2 X-218.2160 Y-127.5000 Z-2.5400 I-5.7160 J0.0000 F1020.00
G2 X-206.7840 Y-127.5000 Z-2.5400 I5.7160 J0.0000 F1020.00
G0 Z3.0000
G0 X-204.5600 Y-127.5000
G0 Z3.0000
G1 Z0.0000 F1020.00
G2 X-220.4400 Y-127.5000 Z-0.6350 I-7.9400 J0.0000 F1020.00
G2 X-204.5600 Y-127.5000 Z-1.2700 I7.9400 J0.0000 F1020.00
G2 X-220.4400 Y-127.5000 Z-1.9050 I-7.9400 J0.0000 F1020.00
G2 X-204.5600 Y-127.5000 Z-2.5400 I7.9400 J0.0000 F1020.00
G2 X-220.4400 Y-127.5000 Z-2.5400 I-7.9400 J0.0000 F1020.00
G2 X-204.5600 Y-127.5000 Z-2.5400 I7.9400 J0.0000 F1020.00
G0 Z3.0000
G0 X-211.2320 Y-102.5000
G0 Z3.0000
G1 Z0.0000 F1020.00
G2 X-213.7680 Y-102.5000 Z-0.6350 I-1.2680 J0.0000 F1020.00
G2 X-211.2320 Y-102.5000 Z-1.2700 I1.2680 J0.0000 F1020.00
G2 X-213.7680 Y-102.5000 Z-1.9050 I-1.2680 J0.0000 F1020.00
G2 X-211.2320 Y-102.5000 Z-2.5400 I1.2680 J0.0000 F1020.00
G2 X-213.7680 Y-102.5000 Z-2.5400 I-1.2680 J0.0000 F1020.00
G2 X-211.2320 Y-102.5000 Z-2.5400 I1.2680 J0.0000 F1020.00
G0 Z3.0000
G0 X-209.0080 Y-102.5000
G0 Z3.0000
G1 Z0.0000 F1020.00
G2 X-215.9920 Y-102.5000 Z-0.6350 I-3.4920 J0.0000 F1020.00
G2 X-209.0080 Y-102.5000 Z-1.2700 I3.4920 J0.0000 F1020.00
G2 X-215.9920 Y-102.5000 Z-1.9050 I-3.4920 J0.0000 F1020.00
G2 X-209.0080 Y-102.5000 Z-2.5400 I3.4920 J0.0000 F1020.00
G2 X-215.9920 Y-102.5000 Z-2.5400 I-3.4920 J0.0000 F1020.00
G2 X-209.0080 Y-102.5000 Z-2.5400 I3.4920 J0.0000 F1020.00
G0 Z3.0000
G0 X-206.7840 Y-102.5000
G0 Z3.0000
G1 Z0.0000 F1020.00
G2 X-218.2160 Y-102.5000 Z-0.6350 I-5.7160 J0.0000 F1020.00
G2 X-206.7840 Y-102.5000 Z-1.2700 I5.7160 J0.0000 F1020.00
G2 X-218.2160 Y-102.5000 Z-1.9050 I-5.7160 J0.0000 F1020.00
G2 X-206.7840 Y-102.5000 Z-2.5400 I5.7160 J0.0000 F1020.00
G2 X-218.2160 Y-102.5000 Z-2.5400 I-5.7160 J0.0000 F1020.00
G2 X-206.7840 Y-102.5000 Z-2.5400 I5.7160 J0.0000 F1020.00
G0 Z3.0000
G0 X-204.5600 Y-102.5000
G0 Z3.0000
G1 Z0.0000 F1020.00
G2 X-220.4400 Y-102.5000 Z-0.6350 I-7.9400 J0.0000 F1020.00
G2 X-204.5600 Y-102.5000 Z-1.2700 I7.9400 J0.0000 F1020.00
G2 X-220.4400 Y-102.5000 Z-1.9050 I-7.9400 J0.0000 F1020.00
G2 X-204.5600 Y-102.5000 Z-2.5400 I7.9400 J0.0000 F1020.00
G2 X-220.4400 Y-102.5000 Z-2.5400 I-7.9400 J0.0000 F1020.00
G2 X-204.5600 Y-102.5000 Z-2.5400 I7.9400 J0.0000 F1020.00
G0 Z3.0000
G0 X-211.2320 Y-77.5000
G0 Z3.0000
G1 Z0.0000 F1020.00
G2 X-213.7680 Y-77.5000 Z-0.6350 I-1.2680 J0.0000 F1020.00
G2 X-211.2320 Y-77.5000 Z-1.2700 I1.2680 J0.0000 F1020.00
G2 X-213.7680 Y-77.5000 Z-1.9050 I-1.2680 J0.0000 F1020.00
G2 X-211.2320 Y-77.5000 Z-2.5400 I1.2680 J0.0000 F1020.00
G2 X-213.7680 Y-77.5000 Z-2.5400 I-1.2680 J0.0000 F1020.00
G2 X-211.2320 Y-77.5000 Z-2.5400 I1.2680 J0.0000 F1020.00
G0 Z3.0000
G0 X-209.0080 Y-77.5000
G0 Z3.0000
G1 Z0.0000 F1020.00
G2 X-215.9920 Y-77.5000 Z-0.6350 I-3.4920 J0.0000 F1020.00
G2 X-209.0080 Y-77.5000 Z-1.2700 I3.4920 J0.0000 F1020.00
G2 X-215.9920 Y-77.5000 Z-1.9050 I-3.4920 J0.0000 F1020.00
G2 X-209.0080 Y-77.5000 Z-2.5400 I3.4920 J0.0000 F1020.00
G2 X-215.9920 Y-77.5000 Z-2.5400 I-3.4920 J0.0000 F1020.00
G2 X-209.0080 Y-77.5000 Z-2.5400 I3.4920 J0.0000 F1020.00
G0 Z3.0000
G0 X-206.7840 Y-77.5000
G0 Z3.0000
G1 Z0.0000 F1020.00
G2 X-218.2160 Y-77.5000 Z-0.6350 I-5.7160 J0.0000 F1020.00
G2 X-206.7840 Y-77.5000 Z-1.2700 I5.7160 J0.0000 F1020.00
G2 X-218.2160 Y-77.5000 Z-1.9050 I-5.7160 J0.0000 F1020.00
G2 X-206.7840 Y-77.5000 Z-2.5400 I5.7160 J0.0000 F1020.00
G2 X-218.2160 Y-77.5000 Z-2.5400 I-5.7160 J0.0000 F1020.00
G2 X-206.7840 Y-77.5000 Z-2.5400 I5.7160 J0.0000 F1020.00
G0 Z3.0000
G0 X-204.5600 Y-77.5000
G0 Z3.0000
G1 Z0.0000 F1020.00
G2 X-220.4400 Y-77.5000 Z-0.6350 I-7.9400 J0.0000 F1020.00
G2 X-204.5600 Y-77.5000 Z-1.2700 I7.9400 J0.0000 F1020.00
G2 X-220.4400 Y-77.5000 Z-1.9050 I-7.9400 J0.0000 F1020.00
G2 X-204.5600 Y-77.5000 Z-2.5400 I7.9400 J0.0000 F1020.00
G2 X-220.4400 Y-77.5000 Z-2.5400 I-7.9400 J0.0000 F1020.00
G2 X-204.5600 Y-77.5000 Z-2.5400 I7.9400 J0.0000 F1020.00
G0 Z3.0000
G0 X-211.2320 Y-52.5000
G0 Z3.0000
G1 Z0.0000 F1020.00
G2 X-213.7680 Y-52.5000 Z-0.6350 I-1.2680 J0.0000 F1020.00
G2 X-211.2320 Y-52.5000 Z-1.2700 I1.2680 J0.0000 F1020.00
G2 X-213.7680 Y-52.5000 Z-1.9050 I-1.2680 J0.0000 F1020.00
G2 X-211.2320 Y-52.5000 Z-2.5400 I1.2680 J0.0000 F1020.00
G2 X-213.7680 Y-52.5000 Z-2.5400 I-1.2680 J0.0000 F1020.00
G2 X-211.2320 Y-52.5000 Z-2.5400 I1.2680 J0.0000 F1020.00
G0 Z3.0000
G0 X-209.0080 Y-52.5000
G0 Z3.0000
G1 Z0.0000 F1020.00
G2 X-215.9920 Y-52.5000 Z-0.6350 I-3.4920 J0.0000 F1020.00
G2 X-209.0080 Y-52.5000 Z-1.2700 I3.4920 J0.0000 F1020.00
G2 X-215.9920 Y-52.5000 Z-1.9050 I-3.4920 J0.0000 F1020.00
G2 X-209.0080 Y-52.5000 Z-2.5400 I3.4920 J0.0000 F1020.00
G2 X-215.9920 Y-52.5000 Z-2.5400 I-3.4920 J0.0000 F1020.00
G2 X-209.0080 Y-52.5000 Z-2.5400 I3.4920 J0.0000 F1020.00
G0 Z3.0000
G0 X-206.7840 Y-52.5000
G0 Z3.0000
G1 Z0.0000 F1020.00
G2 X-218.2160 Y-52.5000 Z-0.6350 I-5.7160 J0.0000 F1020.00
G2 X-206.7840 Y-52.5000 Z-1.2700 I5.7160 J0.0000 F1020.00
G2 X-218.2160 Y-52.5000 Z-1.9050 I-5.7160 J0.0000 F1020.00
G2 X-206.7840 Y-52.5000 Z-2.5400 I5.7160 J0.0000 F1020.00
G2 X-218.2160 Y-52.5000 Z-2.5400 I-5.7160 J0.0000 F1020.00
G2 X-206.7840 Y-52.5000 Z-2.5400 I5.7160 J0.0000 F1020.00
G0 Z3.0000
G0 X-204.5600 Y-52.5000
G0 Z3.0000
G1 Z0.0000 F1020.00
G2 X-220.4400 Y-52.5000 Z-0.6350 I-7.9400 J0.0000 F1020.00
G2 X-204.5600 Y-52.5000 Z-1.2700 I7.9400 J0.0000 F1020.00
G2 X-220.4400 Y-52.5000 Z-1.9050 I-7.9400 J0.0000 F1020.00
G2 X-204.5600 Y-52.5000 Z-2.5400 I7.9400 J0.0000 F1020.00
G2 X-220.4400 Y-52.5000 Z-2.5400 I-7.9400 J0.0000 F1020.00
G2 X-204.5600 Y-52.5000 Z-2.5400 I7.9400 J0.0000 F1020.00
G0 Z3.0000
G0 X-211.2320 Y-27.5000
G0 Z3.0000
G1 Z0.0000 F1020.00
G2 X-213.7680 Y-27.5000 Z-0.6350 I-1.2680 J0.0000 F1020.00
G2 X-211.2320 Y-27.5000 Z-1.2700 I1.2680 J0.0000 F1020.00
G2 X-213.7680 Y-27.5000 Z-1.9050 I-1.2680 J0.0000 F1020.00
G2 X-211.2320 Y-27.5000 Z-2.5400 I1.2680 J0.0000 F1020.00
G2 X-213.7680 Y-27.5000 Z-2.5400 I-1.2680 J0.0000 F1020.00
G2 X-211.2320 Y-27.5000 Z-2.5400 I1.2680 J0.0000 F1020.00
G0 Z3.0000
G0 X-209.0080 Y-27.5000
G0 Z3.0000
G1 Z0.0000 F1020.00
G2 X-215.9920 Y-27.5000 Z-0.6350 I-3.4920 J0.0000 F1020.00
G2 X-209.0080 Y-27.5000 Z-1.2700 I3.4920 J0.0000 F1020.00
G2 X-215.9920 Y-27.5000 Z-1.9050 I-3.4920 J0.0000 F1020.00
G2 X-209.0080 Y-27.5000 Z-2.5400 I3.4920 J0.0000 F1020.00
G2 X-215.9920 Y-27.5000 Z-2.5400 I-3.4920 J0.0000 F1020.00
G2 X-209.0080 Y-27.5000 Z-2.5400 I3.4920 J0.0000 F1020.00
G0 Z3.0000
G0 X-206.7840 Y-27.5000
G0 Z3.0000
G1 Z0.0000 F1020.00
G2 X-218.2160 Y-27.5000 Z-0.6350 I-5.7160 J0.0000 F1020.00
G2 X-206.7840 Y-27.5000 Z-1.2700 I5.7160 J0.0000 F1020.00
G2 X-218.2160 Y-27.5000 Z-1.9050 I-5.7160 J0.0000 F1020.00
G2 X-206.7840 Y-27.5000 Z-2.5400 I5.7160 J0.0000 F1020.00
G2 X-218.2160 Y-27.5000 Z-2.5400 I-5.7160 J0.0000 F1020.00
G2 X-206.7840 Y-27.5000 Z-2.5400 I5.7160 J0.0000 F1020.00
G0 Z3.0000
G0 X-204.5600 Y-27.5000
G0 Z3.0000
G1 Z0.0000 F1020.00
G2 X-220.4400 Y-27.5000 Z-0.6350 I-7.9400 J0.0000 F1020.00
G2 X-204.5600 Y-27.5000 Z-1.2700 I7.9400 J0.0000 F1020.00
G2 X-220.4400 Y-27.5000 Z-1.9050 I-7.9400 J0.0000 F1020.00
G2 X-204.5600 Y-27.5000 Z-2.5400 I7.9400 J0.0000 F1020.00
G2 X-220.4400 Y-27.5000 Z-2.5400 I-7.9400 J0.0000 F1020.00
G2 X-204.5600 Y-27.5000 Z-2.5400 I7.9400 J0.0000 F1020.00
G0 Z3.0000
G0 X-236.2320 Y-27.5000
G0 Z3.0000
G1 Z0.0000 F1020.00
G2 X-238.7680 Y-27.5000 Z-0.6350 I-1.2680 J0.0000 F1020.00
G2 X-236.2320 Y-27.5000 Z-1.2700 I1.2680 J0.0000 F1020.00
G2 X-238.7680 Y-27.5000 Z-1.9050 I-1.2680 J0.0000 F1020.00
G2 X-236.2320 Y-27.5000 Z-2.5400 I1.2680 J0.0000 F1020.00
G2 X-238.7680 Y-27.5000 Z-2.5400 I-1.2680 J0.0000 F1020.00
G2 X-236.2320 Y-27.5000 Z-2.5400 I1.2680 J0.0000 F1020.00
G0 Z3.0000
G0 X-234.0080 Y-27.5000
G0 Z3.0000
G1 Z0.0000 F1020.00
G2 X-240.9920 Y-27.5000 Z-0.6350 I-3.4920 J0.0000 F1020.00
G2 X-234.0080 Y-27.5000 Z-1.2700 I3.4920 J0.0000 F1020.00
G2 X-240.9920 Y-27.5000 Z-1.9050 I-3.4920 J0.0000 F1020.00
G2 X-234.0080 Y-27.5000 Z-2.5400 I3.4920 J0.0000 F1020.00
G2 X-240.9920 Y-27.5000 Z-2.5400 I-3.4920 J0.0000 F1020.00
G2 X-234.0080 Y-27.5000 Z-2.5400 I3.4920 J0.0000 F1020.00
G0 Z3.0000
G0 X-231.7840 Y-27.5000
G0 Z3.0000
G1 Z0.0000 F1020.00
G2 X-243.2160 Y-27.5000 Z-0.6350 I-5.7160 J0.0000 F1020.00
G2 X-231.7840 Y-27.5000 Z-1.2700 I5.7160 J0.0000 F1020.00
G2 X-243.2160 Y-27.5000 Z-1.9050 I-5.7160 J0.0000 F1020.00
G2 X-231.7840 Y-27.5000 Z-2.5400 I5.7160 J0.0000 F1020.00
G2 X-243.2160 Y-27.5000 Z-2.5400 I-5.7160 J0.0000 F1020.00
G2 X-231.7840 Y-27.5000 Z-2.5400 I5.7160 J0.0000 F1020.00
G0 Z3.0000
G0 X-229.5600 Y-27.5000
G0 Z3.0000
G1 Z0.0000 F1020.00
G2 X-245.4400 Y-27.5000 Z-0.6350 I-7.9400 J0.0000 F1020.00
G2 X-229.5600 Y-27.5000 Z-1.2700 I7.9400 J0.0000 F1020.00
G2 X-245.4400 Y-27.5000 Z-1.9050 I-7.9400 J0.0000 F1020.00
G2 X-229.5600 Y-27.5000 Z-2.5400 I7.9400 J0.0000 F1020.00
G2 X-245.4400 Y-27.5000 Z-2.5400 I-7.9400 J0.0000 F1020.00
G2 X-229.5600 Y-27.5000 Z-2.5400 I7.9400 J0.0000 F1020.00
G0 Z3.0000
G0 X-236.2320 Y-52.5000
G0 Z3.0000
G1 Z0.0000 F1020.00
G2 X-238.7680 Y-52.5000 Z-0.6350 I-1.2680 J0.0000 F1020.00
G2 X-236.2320 Y-52.5000 Z-1.2700 I1.2680 J0.0000 F1020.00
G2 X-238.7680 Y-52.5000 Z-1.9050 I-1.2680 J0.0000 F1020.00
G2 X-236.2320 Y-52.5000 Z-2.5400 I1.2680 J0.0000 F1020.00
G2 X-238.7680 Y-52.5000 Z-2.5400 I-1.2680 J0.0000 F1020.00
G2 X-236.2320 Y-52.5000 Z-2.5400 I1.2680 J0.0000 F1020.00
G0 Z3.0000
G0 X-234.0080 Y-52.5000
G0 Z3.0000
G1 Z0.0000 F1020.00
G2 X-240.9920 Y-52.5000 Z-0.6350 I-3.4920 J0.0000 F1020.00
G2 X-234.0080 Y-52.5000 Z-1.2700 I3.4920 J0.0000 F1020.00
G2 X-240.9920 Y-52.5000 Z-1.9050 I-3.4920 J0.0000 F1020.00
G2 X-234.0080 Y-52.5000 Z-2.5400 I3.4920 J0.0000 F1020.00
G2 X-240.9920 Y-52.5000 Z-2.5400 I-3.4920 J0.0000 F1020.00
G2 X-234.0080 Y-52.5000 Z-2.5400 I3.4920 J0.0000 F1020.00
G0 Z3.0000
G0 X-231.7840 Y-52.5000
G0 Z3.0000
G1 Z0.0000 F1020.00
G2 X-243.2160 Y-52.5000 Z-0.6350 I-5.7160 J0.0000 F1020.00
G2 X-231.7840 Y-52.5000 Z-1.2700 I5.7160 J0.0000 F1020.00
G2 X-243.2160 Y-52.5000 Z-1.9050 I-5.7160 J0.0000 F1020.00
G2 X-231.7840 Y-52.5000 Z-2.5400 I5.7160 J0.0000 F1020.00
G2 X-243.2160 Y-52.5000 Z-2.5400 I-5.7160 J0.0000 F1020.00
G2 X-231.7840 Y-52.5000 Z-2.5400 I5.7160 J0.0000 F1020.00
G0 Z3.0000
G0 X-229.5600 Y-52.5000
G0 Z3.0000
G1 Z0.0000 F1020.00
G2 X-245.4400 Y-52.5000 Z-0.6350 I-7.9400 J0.0000 F1020.00
G2 X-229.5600 Y-52.5000 Z-1.2700 I7.9400 J0.0000 F1020.00
G2 X-245.4400 Y-52.5000 Z-1.9050 I-7.9400 J0.0000 F1020.00
G2 X-229.5600 Y-52.5000 Z-2.5400 I7.9400 J0.0000 F1020.00
G2 X-245.4400 Y-52.5000 Z-2.5400 I-7.9400 J0.0000 F1020.00
G2 X-229.5600 Y-52.5000 Z-2.5400 I7.9400 J0.0000 F1020.00
G0 Z3.0000
G0 X-236.2320 Y-77.5000
G0 Z3.0000
G1 Z0.0000 F1020.00
G2 X-238.7680 Y-77.5000 Z-0.6350 I-1.2680 J0.0000 F1020.00
G2 X-236.2320 Y-77.5000 Z-1.2700 I1.2680 J0.0000 F1020.00
G2 X-238.7680 Y-77.5000 Z-1.9050 I-1.2680 J0.0000 F1020.00
G2 X-236.2320 Y-77.5000 Z-2.5400 I1.2680 J0.0000 F1020.00
G2 X-238.7680 Y-77.5000 Z-2.5400 I-1.2680 J0.0000 F1020.00
G2 X-236.2320 Y-77.5000 Z-2.5400 I1.2680 J0.0000 F1020.00
G0 Z3.0000
G0 X-234.0080 Y-77.5000
G0 Z3.0000
G1 Z0.0000 F1020.00
G2 X-240.9920 Y-77.5000 Z-0.6350 I-3.4920 J0.0000 F1020.00
G2 X-234.0080 Y-77.5000 Z-1.2700 I3.4920 J0.0000 F1020.00
G2 X-240.9920 Y-77.5000 Z-1.9050 I-3.4920 J0.0000 F1020.00
G2 X-234.0080 Y-77.5000 Z-2.5400 I3.4920 J0.0000 F1020.00
G2 X-240.9920 Y-77.5000 Z-2.5400 I-3.4920 J0.0000 F1020.00
G2 X-234.0080 Y-77.5000 Z-2.5400 I3.4920 J0.0000 F1020.00
G0 Z3.0000
G0 X-231.7840 Y-77.5000
G0 Z3.0000
G1 Z0.0000 F1020.00
G2 X-243.2160 Y-77.5000 Z-0.6350 I-5.7160 J0.0000 F1020.00
G2 X-231.7840 Y-77.5000 Z-1.2700 I5.7160 J0.0000 F1020.00
G2 X-243.2160 Y-77.5000 Z-1.9050 I-5.7160 J0.0000 F1020.00
G2 X-231.7840 Y-77.5000 Z-2.5400 I5.7160 J0.0000 F1020.00
G2 X-243.2160 Y-77.5000 Z-2.5400 I-5.7160 J0.0000 F1020.00
G2 X-231.7840 Y-77.5000 Z-2.5400 I5.7160 J0.0000 F1020.00
G0 Z3.0000
G0 X-229.5600 Y-77.5000
G0 Z3.0000
G1 Z0.0000 F1020.00
G2 X-245.4400 Y-77.5000 Z-0.6350 I-7.9400 J0.0000 F1020.00
G2 X-229.5600 Y-77.5000 Z-1.2700 I7.9400 J0.0000 F1020.00
G2 X-245.4400 Y-77.5000 Z-1.9050 I-7.9400 J0.0000 F1020.00
G2 X-229.5600 Y-77.5000 Z-2.5400 I7.9400 J0.0000 F1020.00
G2 X-245.4400 Y-77.5000 Z-2.5400 I-7.9400 J0.0000 F1020.00
G2 X-229.5600 Y-77.5000 Z-2.5400 I7.9400 J0.0000 F1020.00
G0 Z3.0000
G0 X-236.2320 Y-102.5000
G0 Z3.0000
G1 Z0.0000 F1020.00
G2 X-238.7680 Y-102.5000 Z-0.6350 I-1.2680 J0.0000 F1020.00
G2 X-236.2320 Y-102.5000 Z-1.2700 I1.2680 J0.0000 F1020.00
G2 X-238.7680 Y-102.5000 Z-1.9050 I-1.2680 J0.0000 F1020.00
G2 X-236.2320 Y-102.5000 Z-2.5400 I1.2680 J0.0000 F1020.00
G2 X-238.7680 Y-102.5000 Z-2.5400 I-1.2680 J0.0000 F1020.00
G2 X-236.2320 Y-102.5000 Z-2.5400 I1.2680 J0.0000 F1020.00
G0 Z3.0000
G0 X-234.0080 Y-102.5000
G0 Z3.0000
G1 Z0.0000 F1020.00
G2 X-240.9920 Y-102.5000 Z-0.6350 I-3.4920 J0.0000 F1020.00
G2 X-234.0080 Y-102.5000 Z-1.2700 I3.4920 J0.0000 F1020.00
G2 X-240.9920 Y-102.5000 Z-1.9050 I-3.4920 J0.0000 F1020.00
G2 X-234.0080 Y-102.5000 Z-2.5400 I3.4920 J0.0000 F1020.00
G2 X-240.9920 Y-102.5000 Z-2.5400 I-3.4920 J0.0000 F1020.00
G2 X-234.0080 Y-102.5000 Z-2.5400 I3.4920 J0.0000 F1020.00
G0 Z3.0000
G0 X-231.7840 Y-102.5000
G0 Z3.0000
G1 Z0.0000 F1020.00
G2 X-243.2160 Y-102.5000 Z-0.6350 I-5.7160 J0.0000 F1020.00
G2 X-231.7840 Y-102.5000 Z-1.2700 I5.7160 J0.0000 F1020.00
G2 X-243.2160 Y-102.5000 Z-1.9050 I-5.7160 J0.0000 F1020.00
G2 X-231.7840 Y-102.5000 Z-2.5400 I5.7160 J0.0000 F1020.00
G2 X-243.2160 Y-102.5000 Z-2.5400 I-5.7160 J0.0000 F1020.00
G2 X-231.7840 Y-102.5000 Z-2.5400 I5.7160 J0.0000 F1020.00
G0 Z3.0000
G0 X-229.5600 Y-102.5000
G0 Z3.0000
G1 Z0.0000 F1020.00
G2 X-245.4400 Y-102.5000 Z-0.6350 I-7.9400 J0.0000 F1020.00
G2 X-229.5600 Y-102.5000 Z-1.2700 I7.9400 J0.0000 F1020.00
G2 X-245.4400 Y-102.5000 Z-1.9050 I-7.9400 J0.0000 F1020.00
G2 X-229.5600 Y-102.5000 Z-2.5400 I7.9400 J0.0000 F1020.00
G2 X-245.4400 Y-102.5000 Z-2.5400 I-7.9400 J0.0000 F1020.00
G2 X-229.5600 Y-102.5000 Z-2.5400 I7.9400 J0.0000 F1020.00
G0 Z3.0000
G0 X-236.2320 Y-127.5000
G0 Z3.0000
G1 Z0.0000 F1020.00
G2 X-238.7680 Y-127.5000 Z-0.6350 I-1.2680 J0.0000 F1020.00
G2 X-236.2320 Y-127.5000 Z-1.2700 I1.2680 J0.0000 F1020.00
G2 X-238.7680 Y-127.5000 Z-1.9050 I-1.2680 J0.0000 F1020.00
G2 X-236.2320 Y-127.5000 Z-2.5400 I1.2680 J0.0000 F1020.00
G2 X-238.7680 Y-127.5000 Z-2.5400 I-1.2680 J0.0000 F1020.00
G2 X-236.2320 Y-127.5000 Z-2.5400 I1.2680 J0.0000 F1020.00
G0 Z3.0000
G0 X-234.0080 Y-127.5000
G0 Z3.0000
G1 Z0.0000 F1020.00
G2 X-240.9920 Y-127.5000 Z-0.6350 I-3.4920 J0.0000 F1020.00
G2 X-234.0080 Y-127.5000 Z-1.2700 I3.4920 J0.0000 F1020.00
G2 X-240.9920 Y-127.5000 Z-1.9050 I-3.4920 J0.0000 F1020.00
G2 X-234.0080 Y-127.5000 Z-2.5400 I3.4920 J0.0000 F1020.00
G2 X-240.9920 Y-127.5000 Z-2.5400 I-3.4920 J0.0000 F1020.00
G2 X-234.0080 Y-127.5000 Z-2.5400 I3.4920 J0.0000 F1020.00
G0 Z3.0000
G0 X-231.7840 Y-127.5000
G0 Z3.0000
G1 Z0.0000 F1020.00
G2 X-243.2160 Y-127.5000 Z-0.6350 I-5.7160 J0.0000 F1020.00
G2 X-231.7840 Y-127.5000 Z-1.2700 I5.7160 J0.0000 F1020.00
G2 X-243.2160 Y-127.5000 Z-1.9050 I-5.7160 J0.0000 F1020.00
G2 X-231.7840 Y-127.5000 Z-2.5400 I5.7160 J0.0000 F1020.00
G2 X-243.2160 Y-127.5000 Z-2.5400 I-5.7160 J0.0000 F1020.00
G2 X-231.7840 Y-127.5000 Z-2.5400 I5.7160 J0.0000 F1020.00
G0 Z3.0000
G0 X-229.5600 Y-127.5000
G0 Z3.0000
G1 Z0.0000 F1020.00
G2 X-245.4400 Y-127.5000 Z-0.6350 I-7.9400 J0.0000 F1020.00
G2 X-229.5600 Y-127.5000 Z-1.2700 I7.9400 J0.0000 F1020.00
G2 X-245.4400 Y-127.5000 Z-1.9050 I-7.9400 J0.0000 F1020.00
G2 X-229.5600 Y-127.5000 Z-2.5400 I7.9400 J0.0000 F1020.00
G2 X-245.4400 Y-127.5000 Z-2.5400 I-7.9400 J0.0000 F1020.00
G2 X-229.5600 Y-127.5000 Z-2.5400 I7.9400 J0.0000 F1020.00
G0 Z3.0000
G0 X-236.2320 Y-152.5000
G0 Z3.0000
G1 Z0.0000 F1020.00
G2 X-238.7680 Y-152.5000 Z-0.6350 I-1.2680 J0.0000 F1020.00
G2 X-236.2320 Y-152.5000 Z-1.2700 I1.2680 J0.0000 F1020.00
G2 X-238.7680 Y-152.5000 Z-1.9050 I-1.2680 J0.0000 F1020.00
G2 X-236.2320 Y-152.5000 Z-2.5400 I1.2680 J0.0000 F1020.00
G2 X-238.7680 Y-152.5000 Z-2.5400 I-1.2680 J0.0000 F1020.00
G2 X-236.2320 Y-152.5000 Z-2.5400 I1.2680 J0.0000 F1020.00
G0 Z3.0000
G0 X-234.0080 Y-152.5000
G0 Z3.0000
G1 Z0.0000 F1020.00
G2 X-240.9920 Y-152.5000 Z-0.6350 I-3.4920 J0.0000 F1020.00
G2 X-234.0080 Y-152.5000 Z-1.2700 I3.4920 J0.0000 F1020.00
G2 X-240.9920 Y-152.5000 Z-1.9050 I-3.4920 J0.0000 F1020.00
G2 X-234.0080 Y-152.5000 Z-2.5400 I3.4920 J0.0000 F1020.00
G2 X-240.9920 Y-152.5000 Z-2.5400 I-3.4920 J0.0000 F1020.00
G2 X-234.0080 Y-152.5000 Z-2.5400 I3.4920 J0.0000 F1020.00
G0 Z3.0000
G0 X-231.7840 Y-152.5000
G0 Z3.0000
G1 Z0.0000 F1020.00
G2 X-243.2160 Y-152.5000 Z-0.6350 I-5.7160 J0.0000 F1020.00
G2 X-231.7840 Y-152.5000 Z-1.2700 I5.7160 J0.0000 F1020.00
G2 X-243.2160 Y-152.5000 Z-1.9050 I-5.7160 J0.0000 F1020.00
G2 X-231.7840 Y-152.5000 Z-2.5400 I5.7160 J0.0000 F1020.00
G2 X-243.2160 Y-152.5000 Z-2.5400 I-5.7160 J0.0000 F1020.00
G2 X-231.7840 Y-152.5000 Z-2.5400 I5.7160 J0.0000 F1020.00
G0 Z3.0000
G0 X-229.5600 Y-152.5000
G0 Z3.0000
G1 Z0.0000 F1020.00
G2 X-245.4400 Y-152.5000 Z-0.6350 I-7.9400 J0.0000 F1020.00
G2 X-229.5600 Y-152.5000 Z-1.2700 I7.9400 J0.0000 F1020.00
G2 X-245.4400 Y-152.5000 Z-1.9050 I-7.9400 J0.0000 F1020.00
G2 X-229.5600 Y-152.5000 Z-2.5400 I7.9400 J0.0000 F1020.00
G2 X-245.4400 Y-152.5000 Z-2.5400 I-7.9400 J0.0000 F1020.00
G2 X-229.5600 Y-152.5000 Z-2.5400 I7.9400 J0.0000 F1020.00
G0 Z3.0000
G0 X-261.2320 Y-152.5000
G0 Z3.0000
G1 Z0.0000 F1020.00
G2 X-263.7680 Y-152.5000 Z-0.6350 I-1.2680 J0.0000 F1020.00
G2 X-261.2320 Y-152.5000 Z-1.2700 I1.2680 J0.0000 F1020.00
G2 X-263.7680 Y-152.5000 Z-1.9050 I-1.2680 J0.0000 F1020.00
G2 X-261.2320 Y-152.5000 Z-2.5400 I1.2680 J0.0000 F1020.00
G2 X-263.7680 Y-152.5000 Z-2.5400 I-1.2680 J0.0000 F1020.00
G2 X-261.2320 Y-152.5000 Z-2.5400 I1.2680 J0.0000 F1020.00
G0 Z3.0000
G0 X-259.0080 Y-152.5000
G0 Z3.0000
G1 Z0.0000 F1020.00
G2 X-265.9920 Y-152.5000 Z-0.6350 I-3.4920 J0.0000 F1020.00
G2 X-259.0080 Y-152.5000 Z-1.2700 I3.4920 J0.0000 F1020.00
G2 X-265.9920 Y-152.5000 Z-1.9050 I-3.4920 J0.0000 F1020.00
G2 X-259.0080 Y-152.5000 Z-2.5400 I3.4920 J0.0000 F1020.00
G2 X-265.9920 Y-152.5000 Z-2.5400 I-3.4920 J0.0000 F1020.00
G2 X-259.0080 Y-152.5000 Z-2.5400 I3.4920 J0.0000 F1020.00
G0 Z3.0000
G0 X-256.7840 Y-152.5000
G0 Z3.0000
G1 Z0.0000 F1020.00
G2 X-268.2160 Y-152.5000 Z-0.6350 I-5.7160 J0.0000 F1020.00
G2 X-256.7840 Y-152.5000 Z-1.2700 I5.7160 J0.0000 F1020.00
G2 X-268.2160 Y-152.5000 Z-1.9050 I-5.7160 J0.0000 F1020.00
G2 X-256.7840 Y-152.5000 Z-2.5400 I5.7160 J0.0000 F1020.00
G2 X-268.2160 Y-152.5000 Z-2.5400 I-5.7160 J0.0000 F1020.00
G2 X-256.7840 Y-152.5000 Z-2.5400 I5.7160 J0.0000 F1020.00
G0 Z3.0000
G0 X-254.5600 Y-152.5000
G0 Z3.0000
G1 Z0.0000 F1020.00
G2 X-270.4400 Y-152.5000 Z-0.6350 I-7.9400 J0.0000 F1020.00
G2 X-254.5600 Y-152.5000 Z-1.2700 I7.9400 J0.0000 F1020.00
G2 X-270.4400 Y-152.5000 Z-1.9050 I-7.9400 J0.0000 F1020.00
G2 X-254.5600 Y-152.5000 Z-2.5400 I7.9400 J0.0000 F1020.00
G2 X-270.4400 Y-152.5000 Z-2.5400 I-7.9400 J0.0000 F1020.00
G2 X-254.5600 Y-152.5000 Z-2.5400 I7.9400 J0.0000 F1020.00
G0 Z3.0000
G0 X-261.2320 Y-127.5000
G0 Z3.0000
G1 Z0.0000 F1020.00
G2 X-263.7680 Y-127.5000 Z-0.6350 I-1.2680 J0.0000 F1020.00
G2 X-261.2320 Y-127.5000 Z-1.2700 I1.2680 J0.0000 F1020.00
G2 X-263.7680 Y-127.5000 Z-1.9050 I-1.2680 J0.0000 F1020.00
G2 X-261.2320 Y-127.5000 Z-2.5400 I1.2680 J0.0000 F1020.00
G2 X-263.7680 Y-127.5000 Z-2.5400 I-1.2680 J0.0000 F1020.00
G2 X-261.2320 Y-127.5000 Z-2.5400 I1.2680 J0.0000 F1020.00
G0 Z3.0000
G0 X-259.0080 Y-127.5000
G0 Z3.0000
G1 Z0.0000 F1020.00
G2 X-265.9920 Y-127.5000 Z-0.6350 I-3.4920 J0.0000 F1020.00
G2 X-259.0080 Y-127.5000 Z-1.2700 I3.4920 J0.0000 F1020.00
G2 X-265.9920 Y-127.5000 Z-1.9050 I-3.4920 J0.0000 F1020.00
G2 X-259.0080 Y-127.5000 Z-2.5400 I3.4920 J0.0000 F1020.00
G2 X-265.9920 Y-127.5000 Z-2.5400 I-3.4920 J0.0000 F1020.00
G2 X-259.0080 Y-127.5000 Z-2.5400 I3.4920 J0.0000 F1020.00
G0 Z3.0000
G0 X-256.7840 Y-127.5000
G0 Z3.0000
G1 Z0.0000 F1020.00
G2 X-268.2160 Y-127.5000 Z-0.6350 I-5.7160 J0.0000 F1020.00
G2 X-256.7840 Y-127.5000 Z-1.2700 I5.7160 J0.0000 F1020.00
G2 X-268.2160 Y-127.5000 Z-1.9050 I-5.7160 J0.0000 F1020.00
G2 X-256.7840 Y-127.5000 Z-2.5400 I5.7160 J0.0000 F1020.00
G2 X-268.2160 Y-127.5000 Z-2.5400 I-5.7160 J0.0000 F1020.00
G2 X-256.7840 Y-127.5000 Z-2.5400 I5.7160 J0.0000 F1020.00
G0 Z3.0000
G0 X-254.5600 Y-127.5000
G0 Z3.0000
G1 Z0.0000 F1020.00
G2 X-270.4400 Y-127.5000 Z-0.6350 I-7.9400 J0.0000 F1020.00
G2 X-254.5600 Y-127.5000 Z-1.2700 I7.9400 J0.0000 F1020.00
G2 X-270.4400 Y-127.5000 Z-1.9050 I-7.9400 J0.0000 F1020.00
G2 X-254.5600 Y-127.5000 Z-2.5400 I7.9400 J0.0000 F1020.00
G2 X-270.4400 Y-127.5000 Z-2.5400 I-7.9400 J0.0000 F1020.00
G2 X-254.5600 Y-127.5000 Z-2.5400 I7.9400 J0.0000 F1020.00
G0 Z3.0000
G0 X-261.2320 Y-102.5000
G0 Z3.0000
G1 Z0.0000 F1020.00
G2 X-263.7680 Y-102.5000 Z-0.6350 I-1.2680 J0.0000 F1020.00
G2 X-261.2320 Y-102.5000 Z-1.2700 I1.2680 J0.0000 F1020.00
G2 X-263.7680 Y-102.5000 Z-1.9050 I-1.2680 J0.0000 F1020.00
G2 X-261.2320 Y-102.5000 Z-2.5400 I1.2680 J0.0000 F1020.00
G2 X-263.7680 Y-102.5000 Z-2.5400 I-1.2680 J0.0000 F1020.00
G2 X-261.2320 Y-102.5000 Z-2.5400 I1.2680 J0.0000 F1020.00
G0 Z3.0000
G0 X-259.0080 Y-102.5000
G0 Z3.0000
G1 Z0.0000 F1020.00
G2 X-265.9920 Y-102.5000 Z-0.6350 I-3.4920 J0.0000 F1020.00
G2 X-259.0080 Y-102.5000 Z-1.2700 I3.4920 J0.0000 F1020.00
G2 X-265.9920 Y-102.5000 Z-1.9050 I-3.4920 J0.0000 F1020.00
G2 X-259.0080 Y-102.5000 Z-2.5400 I3.4920 J0.0000 F1020.00
G2 X-265.9920 Y-102.5000 Z-2.5400 I-3.4920 J0.0000 F1020.00
G2 X-259.0080 Y-102.5000 Z-2.5400 I3.4920 J0.0000 F1020.00
G0 Z3.0000
G0 X-256.7840 Y-102.5000
G0 Z3.0000
G1 Z0.0000 F1020.00
G2 X-268.2160 Y-102.5000 Z-0.6350 I-5.7160 J0.0000 F1020.00
G2 X-256.7840 Y-102.5000 Z-1.2700 I5.7160 J0.0000 F1020.00
G2 X-268.2160 Y-102.5000 Z-1.9050 I-5.7160 J0.0000 F1020.00
G2 X-256.7840 Y-102.5000 Z-2.5400 I5.7160 J0.0000 F1020.00
G2 X-268.2160 Y-102.5000 Z-2.5400 I-5.7160 J0.0000 F1020.00
G2 X-256.7840 Y-102.5000 Z-2.5400 I5.7160 J0.0000 F1020.00
G0 Z3.0000
G0 X-254.5600 Y-102.5000
G0 Z3.0000
G1 Z0.0000 F1020.00
G2 X-270.4400 Y-102.5000 Z-0.6350 I-7.9400 J0.0000 F1020.00
G2 X-254.5600 Y-102.5000 Z-1.2700 I7.9400 J0.0000 F1020.00
G2 X-270.4400 Y-102.5000 Z-1.9050 I-7.9400 J0.0000 F1020.00
G2 X-254.5600 Y-102.5000 Z-2.5400 I7.9400 J0.0000 F1020.00
G2 X-270.4400 Y-102.5000 Z-2.5400 I-7.9400 J0.0000 F1020.00
G2 X-254.5600 Y-102.5000 Z-2.5400 I7.9400 J0.0000 F1020.00
G0 Z3.0000
G0 X-261.2320 Y-77.5000
G0 Z3.0000
G1 Z0.0000 F1020.00
G2 X-263.7680 Y-77.5000 Z-0.6350 I-1.2680 J0.0000 F1020.00
G2 X-261.2320 Y-77.5000 Z-1.2700 I1.2680 J0.0000 F1020.00
G2 X-263.7680 Y-77.5000 Z-1.9050 I-1.2680 J0.0000 F1020.00
G2 X-261.2320 Y-77.5000 Z-2.5400 I1.2680 J0.0000 F1020.00
G2 X-263.7680 Y-77.5000 Z-2.5400 I-1.2680 J0.0000 F1020.00
G2 X-261.2320 Y-77.5000 Z-2.5400 I1.2680 J0.0000 F1020.00
G0 Z3.0000
G0 X-259.0080 Y-77.5000
G0 Z3.0000
G1 Z0.0000 F1020.00
G2 X-265.9920 Y-77.5000 Z-0.6350 I-3.4920 J0.0000 F1020.00
G2 X-259.0080 Y-77.5000 Z-1.2700 I3.4920 J0.0000 F1020.00
G2 X-265.9920 Y-77.5000 Z-1.9050 I-3.4920 J0.0000 F1020.00
G2 X-259.0080 Y-77.5000 Z-2.5400 I3.4920 J0.0000 F1020.00
G2 X-265.9920 Y-77.5000 Z-2.5400 I-3.4920 J0.0000 F1020.00
G2 X-259.0080 Y-77.5000 Z-2.5400 I3.4920 J0.0000 F1020.00
G0 Z3.0000
G0 X-256.7840 Y-77.5000
G0 Z3.0000
G1 Z0.0000 F1020.00
G2 X-268.2160 Y-77.5000 Z-0.6350 I-5.7160 J0.0000 F1020.00
G2 X-256.7840 Y-77.5000 Z-1.2700 I5.7160 J0.0000 F1020.00
G2 X-268.2160 Y-77.5000 Z-1.9050 I-5.7160 J0.0000 F1020.00
G2 X-256.7840 Y-77.5000 Z-2.5400 I5.7160 J0.0000 F1020.00
G2 X-268.2160 Y-77.5000 Z-2.5400 I-5.7160 J0.0000 F1020.00
G2 X-256.7840 Y-77.5000 Z-2.5400 I5.7160 J0.0000 F1020.00
G0 Z3.0000
G0 X-254.5600 Y-77.5000
G0 Z3.0000
G1 Z0.0000 F1020.00
G2 X-270.4400 Y-77.5000 Z-0.6350 I-7.9400 J0.0000 F1020.00
G2 X-254.5600 Y-77.5000 Z-1.2700 I7.9400 J0.0000 F1020.00
G2 X-270.4400 Y-77.5000 Z-1.9050 I-7.9400 J0.0000 F1020.00
G2 X-254.5600 Y-77.5000 Z-2.5400 I7.9400 J0.0000 F1020.00
G2 X-270.4400 Y-77.5000 Z-2.5400 I-7.9400 J0.0000 F1020.00
G2 X-254.5600 Y-77.5000 Z-2.5400 I7.9400 J0.0000 F1020.00
G0 Z3.0000
G0 X-261.2320 Y-52.5000
G0 Z3.0000
G1 Z0.0000 F1020.00
G2 X-263.7680 Y-52.5000 Z-0.6350 I-1.2680 J0.0000 F1020.00
G2 X-261.2320 Y-52.5000 Z-1.2700 I1.2680 J0.0000 F1020.00
G2 X-263.7680 Y-52.5000 Z-1.9050 I-1.2680 J0.0000 F1020.00
G2 X-261.2320 Y-52.5000 Z-2.5400 I1.2680 J0.0000 F1020.00
G2 X-263.7680 Y-52.5000 Z-2.5400 I-1.2680 J0.0000 F1020.00
G2 X-261.2320 Y-52.5000 Z-2.5400 I1.2680 J0.0000 F1020.00
G0 Z3.0000
G0 X-259.0080 Y-52.5000
G0 Z3.0000
G1 Z0.0000 F1020.00
G2 X-265.9920 Y-52.5000 Z-0.6350 I-3.4920 J0.0000 F1020.00
G2 X-259.0080 Y-52.5000 Z-1.2700 I3.4920 J0.0000 F1020.00
G2 X-265.9920 Y-52.5000 Z-1.9050 I-3.4920 J0.0000 F1020.00
G2 X-259.0080 Y-52.5000 Z-2.5400 I3.4920 J0.0000 F1020.00
G2 X-265.9920 Y-52.5000 Z-2.5400 I-3.4920 J0.0000 F1020.00
G2 X-259.0080 Y-52.5000 Z-2.5400 I3.4920 J0.0000 F1020.00
G0 Z3.0000
G0 X-256.7840 Y-52.5000
G0 Z3.0000
G1 Z0.0000 F1020.00
G2 X-268.2160 Y-52.5000 Z-0.6350 I-5.7160 J0.0000 F1020.00
G2 X-256.7840 Y-52.5000 Z-1.2700 I5.7160 J0.0000 F1020.00
G2 X-268.2160 Y-52.5000 Z-1.9050 I-5.7160 J0.0000 F1020.00
G2 X-256.7840 Y-52.5000 Z-2.5400 I5.7160 J0.0000 F1020.00
G2 X-268.2160 Y-52.5000 Z-2.5400 I-5.7160 J0.0000 F1020.00
G2 X-256.7840 Y-52.5000 Z-2.5400 I5.7160 J0.0000 F1020.00
G0 Z3.0000
G0 X-254.5600 Y-52.5000
G0 Z3.0000
G1 Z0.0000 F1020.00
G2 X-270.4400 Y-52.5000 Z-0.6350 I-7.9400 J0.0000 F1020.00
G2 X-254.5600 Y-52.5000 Z-1.2700 I7.9400 J0.0000 F1020.00
G2 X-270.4400 Y-52.5000 Z-1.9050 I-7.9400 J0.0000 F1020.00
G2 X-254.5600 Y-52.5000 Z-2.5400 I7.9400 J0.0000 F1020.00
G2 X-270.4400 Y-52.5000 Z-2.5400 I-7.9400 J0.0000 F1020.00
G2 X-254.5600 Y-52.5000 Z-2.5400 I7.9400 J0.0000 F1020.00
G0 Z3.0000
G0 X-261.2320 Y-27.5000
G0 Z3.0000
G1 Z0.0000 F1020.00
G2 X-263.7680 Y-27.5000 Z-0.6350 I-1.2680 J0.0000 F1020.00
G2 X-261.2320 Y-27.5000 Z-1.2700 I1.2680 J0.0000 F1020.00
G2 X-263.7680 Y-27.5000 Z-1.9050 I-1.2680 J0.0000 F1020.00
G2 X-261.2320 Y-27.5000 Z-2.5400 I1.2680 J0.0000 F1020.00
G2 X-263.7680 Y-27.5000 Z-2.5400 I-1.2680 J0.0000 F1020.00
G2 X-261.2320 Y-27.5000 Z-2.5400 I1.2680 J0.0000 F1020.00
G0 Z3.0000
G0 X-259.0080 Y-27.5000
G0 Z3.0000
G1 Z0.0000 F1020.00
G2 X-265.9920 Y-27.5000 Z-0.6350 I-3.4920 J0.0000 F1020.00
G2 X-259.0080 Y-27.5000 Z-1.2700 I3.4920 J0.0000 F1020.00
G2 X-265.9920 Y-27.5000 Z-1.9050 I-3.4920 J0.0000 F1020.00
G2 X-259.0080 Y-27.5000 Z-2.5400 I3.4920 J0.0000 F1020.00
G2 X-265.9920 Y-27.5000 Z-2.5400 I-3.4920 J0.0000 F1020.00
G2 X-259.0080 Y-27.5000 Z-2.5400 I3.4920 J0.0000 F1020.00
